cold-deuu/summit_ur5_project/robot_description/universal_robots_ur5e/sca_meshes/wrist1.txt
wrist1
V
0.026329 0.099976 0.046037
0.026329 0.099976 0.046037
0.026329 0.099976 0.046037
0.026329 0.099976 0.046037
0.026329 0.099976 0.046037
-0.027388 0.151484 0.046037
-0.027388 0.151484 0.046037
-0.027388 0.151484 0.046037
0.029194 0.103244 0.046037
0.029194 0.103244 0.046037
0.029194 0.103244 0.046037
-0.024017 0.154706 0.046037
-0.024017 0.154706 0.046037
-0.024017 0.154706 0.046037
-0.024017 0.154706 0.046037
-0.024017 0.154706 0.046037
0.032006 0.107341 0.046037
0.032006 0.107341 0.046037
0.032006 0.107341 0.046037
-0.033201 0.143076 0.046037
-0.033201 0.143076 0.046037
-0.033201 0.143076 0.046037
-0.030669 0.147351 0.046037
-0.030669 0.147351 0.046037
-0.030669 0.147351 0.046037
-0.030669 0.147351 0.046037
0.022066 0.096350 0.046037
0.022066 0.096350 0.046037
0.022066 0.096350 0.046037
0.017877 0.093676 0.046037
0.017877 0.093676 0.046037
0.017877 0.093676 0.046037
-0.033201 0.109521 0.046037
-0.033201 0.109521 0.046037
-0.033201 0.109521 0.046037
0.013370 0.091584 0.046037
0.013370 0.091584 0.046037
0.013370 0.091584 0.046037
0.008624 0.090112 0.046037
0.008624 0.090112 0.046037
0.008624 0.090112 0.046037
-0.036454 0.118889 0.046037
-0.036454 0.118889 0.046037
-0.036454 0.118889 0.046037
-0.037116 0.123814 0.046037
-0.037116 0.123814 0.046037
-0.037116 0.123814 0.046037
-0.037116 0.128783 0.046037
-0.037116 0.128783 0.046037
-0.037116 0.128783 0.046037
0.003723 0.089286 0.046037
0.003723 0.089286 0.046037
0.003723 0.089286 0.046037
-0.027589 0.101345 0.046037
-0.027589 0.101345 0.046037
-0.027589 0.101345 0.046037
-0.030669 0.105245 0.046037
-0.030669 0.105245 0.046037
-0.030669 0.105245 0.046037
-0.035141 0.114096 0.046037
-0.035141 0.114096 0.046037
-0.035141 0.114096 0.046037
-0.036454 0.133708 0.046037
-0.036454 0.133708 0.046037
-0.036454 0.133708 0.046037
-0.035141 0.138501 0.046037
-0.035141 0.138501 0.046037
-0.035141 0.138501 0.046037
0.037199 0.126298 0.046037
0.037199 0.126298 0.046037
0.037199 0.126298 0.046037
0.036868 0.121340 0.046037
0.036868 0.121340 0.046037
0.036868 0.121340 0.046037
-0.020016 0.094943 0.046037
-0.020016 0.094943 0.046037
-0.020016 0.094943 0.046037
-0.006187 0.089617 0.046037
-0.006187 0.089617 0.046037
-0.006187 0.089617 0.046037
-0.006187 0.089617 0.046037
-0.015659 0.092555 0.046037
-0.015659 0.092555 0.046037
-0.015659 0.092555 0.046037
-0.011021 0.090769 0.046037
-0.011021 0.090769 0.046037
-0.011021 0.090769 0.046037
-0.001243 0.089120 0.046037
-0.001243 0.089120 0.046037
-0.001243 0.089120 0.046037
-0.001243 0.089120 0.046037
-0.024017 0.097891 0.046037
-0.024017 0.097891 0.046037
-0.024017 0.097891 0.046037
0.035878 0.116470 0.046037
0.035878 0.116470 0.046037
0.035878 0.116470 0.046037
0.034248 0.111776 0.046037
0.034248 0.111776 0.046037
0.034248 0.111776 0.046037
0.032006 0.145256 0.046037
0.032006 0.145256 0.046037
0.032006 0.145256 0.046037
0.032006 0.145256 0.046037
-0.020016 0.157654 0.046037
-0.020016 0.157654 0.046037
-0.020016 0.157654 0.046037
0.029194 0.149353 0.046037
0.029194 0.149353 0.046037
0.029194 0.149353 0.046037
0.029194 0.149353 0.046037
0.025861 0.153038 0.046037
0.025861 0.153038 0.046037
0.025861 0.153038 0.046037
0.034248 0.140821 0.046037
0.034248 0.140821 0.046037
0.034248 0.140821 0.046037
0.035878 0.136126 0.046037
0.035878 0.136126 0.046037
0.035878 0.136126 0.046037
0.036868 0.131257 0.046037
0.036868 0.131257 0.046037
0.036868 0.131257 0.046037
-0.015659 0.160042 0.046037
-0.015659 0.160042 0.046037
-0.015659 0.160042 0.046037
-0.011021 0.161828 0.046037
-0.011021 0.161828 0.046037
-0.011021 0.161828 0.046037
-0.006187 0.162980 0.046037
-0.006187 0.162980 0.046037
-0.006187 0.162980 0.046037
0.017877 0.158920 0.046037
0.017877 0.158920 0.046037
0.017877 0.158920 0.046037
0.003723 0.163311 0.046037
0.003723 0.163311 0.046037
0.003723 0.163311 0.046037
0.013370 0.161012 0.046037
0.013370 0.161012 0.046037
0.013370 0.161012 0.046037
0.008624 0.162485 0.046037
0.008624 0.162485 0.046037
0.008624 0.162485 0.046037
-0.001243 0.163477 0.046037
-0.001243 0.163477 0.046037
-0.001243 0.163477 0.046037
0.022066 0.156247 0.046037
0.022066 0.156247 0.046037
0.022066 0.156247 0.046037
0.029428 0.103060 0.046552
0.029428 0.103060 0.046552
0.029428 0.103060 0.046552
0.029428 0.103060 0.046552
0.029428 0.103060 0.046552
0.029428 0.103060 0.046552
0.026068 0.099345 0.046552
0.026068 0.099345 0.046552
0.026068 0.099345 0.046552
0.026068 0.099345 0.046552
0.026068 0.099345 0.046552
0.022242 0.096111 0.046552
0.022242 0.096111 0.046552
0.022242 0.096111 0.046552
0.022242 0.096111 0.046552
0.022242 0.096111 0.046552
0.022242 0.096111 0.046552
0.018020 0.093415 0.046552
0.018020 0.093415 0.046552
0.018020 0.093415 0.046552
0.018020 0.093415 0.046552
0.018020 0.093415 0.046552
0.013477 0.091307 0.046552
0.013477 0.091307 0.046552
0.013477 0.091307 0.046552
0.013477 0.091307 0.046552
0.013477 0.091307 0.046552
0.008693 0.089823 0.046552
0.008693 0.089823 0.046552
0.008693 0.089823 0.046552
0.008693 0.089823 0.046552
0.008693 0.089823 0.046552
0.003753 0.088990 0.046552
0.003753 0.088990 0.046552
0.003753 0.088990 0.046552
0.003753 0.088990 0.046552
0.003753 0.088990 0.046552
-0.001253 0.088822 0.046552
-0.001253 0.088822 0.046552
-0.001253 0.088822 0.046552
-0.001253 0.088822 0.046552
-0.001253 0.088822 0.046552
-0.006090 0.089249 0.046779
-0.006090 0.089249 0.046779
-0.006090 0.089249 0.046779
-0.006090 0.089249 0.046779
-0.006090 0.089249 0.046779
-0.006090 0.089249 0.046779
-0.006090 0.089249 0.046779
-0.011109 0.090485 0.046552
-0.011109 0.090485 0.046552
-0.011109 0.090485 0.046552
-0.011109 0.090485 0.046552
-0.011109 0.090485 0.046552
-0.011109 0.090485 0.046552
-0.015784 0.092285 0.046552
-0.015784 0.092285 0.046552
-0.015784 0.092285 0.046552
-0.015784 0.092285 0.046552
-0.015784 0.092285 0.046552
-0.020177 0.094692 0.046552
-0.020177 0.094692 0.046552
-0.020177 0.094692 0.046552
-0.020177 0.094692 0.046552
-0.020177 0.094692 0.046552
-0.024209 0.097664 0.046552
-0.024209 0.097664 0.046552
-0.024209 0.097664 0.046552
-0.024209 0.097664 0.046552
-0.024209 0.097664 0.046552
-0.027810 0.101146 0.046552
-0.027810 0.101146 0.046552
-0.027810 0.101146 0.046552
-0.027810 0.101146 0.046552
-0.027810 0.101146 0.046552
-0.030914 0.105077 0.046552
-0.030914 0.105077 0.046552
-0.030914 0.105077 0.046552
-0.030914 0.105077 0.046552
-0.030914 0.105077 0.046552
-0.030914 0.105077 0.046552
-0.033467 0.109387 0.046552
-0.033467 0.109387 0.046552
-0.033467 0.109387 0.046552
-0.033467 0.109387 0.046552
-0.033467 0.109387 0.046552
-0.035422 0.113998 0.046552
-0.035422 0.113998 0.046552
-0.035422 0.113998 0.046552
-0.035422 0.113998 0.046552
-0.035422 0.113998 0.046552
-0.036746 0.118829 0.046552
-0.036746 0.118829 0.046552
-0.036746 0.118829 0.046552
-0.036746 0.118829 0.046552
-0.036746 0.118829 0.046552
-0.037413 0.123794 0.046552
-0.037413 0.123794 0.046552
-0.037413 0.123794 0.046552
-0.037413 0.123794 0.046552
-0.037413 0.123794 0.046552
-0.037413 0.128803 0.046552
-0.037413 0.128803 0.046552
-0.037413 0.128803 0.046552
-0.037413 0.128803 0.046552
-0.037413 0.128803 0.046552
-0.036746 0.133767 0.046552
-0.036746 0.133767 0.046552
-0.036746 0.133767 0.046552
-0.036746 0.133767 0.046552
-0.036746 0.133767 0.046552
-0.035422 0.138598 0.046552
-0.035422 0.138598 0.046552
-0.035422 0.138598 0.046552
-0.035422 0.138598 0.046552
-0.035422 0.138598 0.046552
-0.033467 0.143210 0.046552
-0.033467 0.143210 0.046552
-0.033467 0.143210 0.046552
-0.033467 0.143210 0.046552
-0.033467 0.143210 0.046552
-0.030914 0.147520 0.046552
-0.030914 0.147520 0.046552
-0.030914 0.147520 0.046552
-0.030914 0.147520 0.046552
-0.030914 0.147520 0.046552
-0.027586 0.151702 0.046534
-0.027586 0.151702 0.046534
-0.027586 0.151702 0.046534
-0.027586 0.151702 0.046534
-0.027586 0.151702 0.046534
-0.027586 0.151702 0.046534
-0.027586 0.151702 0.046534
0.032262 0.107189 0.046552
0.032262 0.107189 0.046552
0.032262 0.107189 0.046552
0.032262 0.107189 0.046552
0.032262 0.107189 0.046552
0.034522 0.111660 0.046552
0.034522 0.111660 0.046552
0.034522 0.111660 0.046552
0.034522 0.111660 0.046552
0.034522 0.111660 0.046552
0.036165 0.116392 0.046552
0.036165 0.116392 0.046552
0.036165 0.116392 0.046552
0.036165 0.116392 0.046552
0.036165 0.116392 0.046552
0.037162 0.121300 0.046552
0.037162 0.121300 0.046552
0.037162 0.121300 0.046552
0.037162 0.121300 0.046552
0.037162 0.121300 0.046552
0.037497 0.126298 0.046552
0.037497 0.126298 0.046552
0.037497 0.126298 0.046552
0.037497 0.126298 0.046552
0.037497 0.126298 0.046552
0.037162 0.131296 0.046552
0.037162 0.131296 0.046552
0.037162 0.131296 0.046552
0.037162 0.131296 0.046552
0.037162 0.131296 0.046552
0.036165 0.136205 0.046552
0.036165 0.136205 0.046552
0.036165 0.136205 0.046552
0.036165 0.136205 0.046552
0.036165 0.136205 0.046552
0.034522 0.140937 0.046552
0.034522 0.140937 0.046552
0.034522 0.140937 0.046552
0.034522 0.140937 0.046552
0.034522 0.140937 0.046552
0.034522 0.140937 0.046552
0.032116 0.145742 0.046809
0.032116 0.145742 0.046809
0.032116 0.145742 0.046809
0.032116 0.145742 0.046809
0.032116 0.145742 0.046809
0.032116 0.145742 0.046809
0.032116 0.145742 0.046809
0.032116 0.145742 0.046809
0.029428 0.149537 0.046552
0.029428 0.149537 0.046552
0.029428 0.149537 0.046552
0.029428 0.149537 0.046552
0.029428 0.149537 0.046552
0.026068 0.153252 0.046552
0.026068 0.153252 0.046552
0.026068 0.153252 0.046552
0.026068 0.153252 0.046552
0.026068 0.153252 0.046552
0.022242 0.156486 0.046552
0.022242 0.156486 0.046552
0.022242 0.156486 0.046552
0.022242 0.156486 0.046552
0.022242 0.156486 0.046552
0.018020 0.159181 0.046552
0.018020 0.159181 0.046552
0.018020 0.159181 0.046552
0.018020 0.159181 0.046552
0.018020 0.159181 0.046552
0.013477 0.161290 0.046552
0.013477 0.161290 0.046552
0.013477 0.161290 0.046552
0.013477 0.161290 0.046552
0.013477 0.161290 0.046552
0.008693 0.162774 0.046552
0.008693 0.162774 0.046552
0.008693 0.162774 0.046552
0.008693 0.162774 0.046552
0.008693 0.162774 0.046552
0.003753 0.163607 0.046552
0.003753 0.163607 0.046552
0.003753 0.163607 0.046552
0.003753 0.163607 0.046552
0.003753 0.163607 0.046552
-0.001253 0.163774 0.046552
-0.001253 0.163774 0.046552
-0.001253 0.163774 0.046552
-0.001253 0.163774 0.046552
-0.001253 0.163774 0.046552
-0.006237 0.163273 0.046552
-0.006237 0.163273 0.046552
-0.006237 0.163273 0.046552
-0.006237 0.163273 0.046552
-0.006237 0.163273 0.046552
-0.011110 0.162112 0.046552
-0.011110 0.162112 0.046552
-0.011110 0.162112 0.046552
-0.011110 0.162112 0.046552
-0.011110 0.162112 0.046552
-0.015784 0.160312 0.046552
-0.015784 0.160312 0.046552
-0.015784 0.160312 0.046552
-0.015784 0.160312 0.046552
-0.015784 0.160312 0.046552
-0.020177 0.157904 0.046552
-0.020177 0.157904 0.046552
-0.020177 0.157904 0.046552
-0.020177 0.157904 0.046552
-0.020177 0.157904 0.046552
-0.020177 0.157904 0.046552
-0.023838 0.155301 0.046821
-0.023838 0.155301 0.046821
-0.023838 0.155301 0.046821
-0.023838 0.155301 0.046821
-0.023838 0.155301 0.046821
-0.023838 0.155301 0.046821
0.037420 0.123646 0.046842
0.037420 0.123646 0.046842
0.037420 0.123646 0.046842
0.037420 0.123646 0.046842
0.037420 0.123646 0.046842
0.036829 0.119124 0.046841
0.036829 0.119124 0.046841
0.036829 0.119124 0.046841
0.036829 0.119124 0.046841
0.035596 0.114428 0.046841
0.035596 0.114428 0.046841
0.035596 0.114428 0.046841
0.035596 0.114428 0.046841
0.033739 0.109876 0.046841
0.033739 0.109876 0.046841
0.033739 0.109876 0.046841
0.033739 0.109876 0.046841
0.031300 0.105603 0.046840
0.031300 0.105603 0.046840
0.031300 0.105603 0.046840
0.031300 0.105603 0.046840
0.031300 0.105603 0.046840
0.027843 0.101106 0.046839
0.027843 0.101106 0.046839
0.027843 0.101106 0.046839
0.027843 0.101106 0.046839
0.027843 0.101106 0.046839
0.023113 0.096735 0.046837
0.023113 0.096735 0.046837
0.023113 0.096735 0.046837
0.023113 0.096735 0.046837
0.019162 0.094034 0.046838
0.019162 0.094034 0.046838
0.019162 0.094034 0.046838
0.019162 0.094034 0.046838
0.014906 0.091862 0.046839
0.014906 0.091862 0.046839
0.014906 0.091862 0.046839
0.014906 0.091862 0.046839
0.014906 0.091862 0.046839
0.010655 0.090328 0.046841
0.010655 0.090328 0.046841
0.010655 0.090328 0.046841
0.010655 0.090328 0.046841
0.006259 0.089302 0.046841
0.006259 0.089302 0.046841
0.006259 0.089302 0.046841
0.006259 0.089302 0.046841
0.002403 0.088876 0.046837
0.002403 0.088876 0.046837
0.002403 0.088876 0.046837
0.002403 0.088876 0.046837
0.002403 0.088876 0.046837
-0.001229 0.088813 0.046833
-0.001229 0.088813 0.046833
-0.001229 0.088813 0.046833
-0.001229 0.088813 0.046833
-0.001229 0.088813 0.046833
-0.008156 0.089672 0.046841
-0.008156 0.089672 0.046841
-0.008156 0.089672 0.046841
-0.008156 0.089672 0.046841
-0.013099 0.091123 0.046840
-0.013099 0.091123 0.046840
-0.013099 0.091123 0.046840
-0.013099 0.091123 0.046840
-0.017559 0.093145 0.046841
-0.017559 0.093145 0.046841
-0.017559 0.093145 0.046841
-0.017559 0.093145 0.046841
-0.017559 0.093145 0.046841
-0.021539 0.095571 0.046839
-0.021539 0.095571 0.046839
-0.021539 0.095571 0.046839
-0.021539 0.095571 0.046839
-0.021539 0.095571 0.046839
-0.021539 0.095571 0.046839
-0.025319 0.098602 0.046839
-0.025319 0.098602 0.046839
-0.025319 0.098602 0.046839
-0.025319 0.098602 0.046839
-0.025319 0.098602 0.046839
-0.028650 0.102063 0.046838
-0.028650 0.102063 0.046838
-0.028650 0.102063 0.046838
-0.028650 0.102063 0.046838
-0.030923 0.105085 0.046837
-0.030923 0.105085 0.046837
-0.030923 0.105085 0.046837
-0.032947 0.108333 0.046837
-0.032947 0.108333 0.046837
-0.032947 0.108333 0.046837
-0.032947 0.108333 0.046837
-0.034969 0.112685 0.046838
-0.034969 0.112685 0.046838
-0.034969 0.112685 0.046838
-0.034969 0.112685 0.046838
-0.034969 0.112685 0.046838
-0.036417 0.117251 0.046839
-0.036417 0.117251 0.046839
-0.036417 0.117251 0.046839
-0.036417 0.117251 0.046839
-0.037276 0.121991 0.046840
-0.037276 0.121991 0.046840
-0.037276 0.121991 0.046840
-0.037276 0.121991 0.046840
-0.037519 0.126819 0.046841
-0.037519 0.126819 0.046841
-0.037519 0.126819 0.046841
-0.037519 0.126819 0.046841
-0.037140 0.131644 0.046841
-0.037140 0.131644 0.046841
-0.037140 0.131644 0.046841
-0.037140 0.131644 0.046841
-0.036206 0.136117 0.046843
-0.036206 0.136117 0.046843
-0.036206 0.136117 0.046843
-0.036206 0.136117 0.046843
-0.034740 0.140479 0.046841
-0.034740 0.140479 0.046841
-0.034740 0.140479 0.046841
-0.034740 0.140479 0.046841
-0.032602 0.144877 0.046841
-0.032602 0.144877 0.046841
-0.032602 0.144877 0.046841
-0.032602 0.144877 0.046841
-0.032602 0.144877 0.046841
-0.029887 0.148987 0.046840
-0.029887 0.148987 0.046840
-0.029887 0.148987 0.046840
-0.029887 0.148987 0.046840
-0.029887 0.148987 0.046840
-0.026779 0.152578 0.046837
-0.026779 0.152578 0.046837
-0.026779 0.152578 0.046837
-0.026779 0.152578 0.046837
-0.026779 0.152578 0.046837
-0.020387 0.157772 0.046837
-0.020387 0.157772 0.046837
-0.020387 0.157772 0.046837
-0.020387 0.157772 0.046837
-0.017083 0.159709 0.046838
-0.017083 0.159709 0.046838
-0.017083 0.159709 0.046838
-0.017083 0.159709 0.046838
-0.017083 0.159709 0.046838
-0.012921 0.161519 0.046841
-0.012921 0.161519 0.046841
-0.012921 0.161519 0.046841
-0.012921 0.161519 0.046841
-0.008342 0.162893 0.046840
-0.008342 0.162893 0.046840
-0.008342 0.162893 0.046840
-0.008342 0.162893 0.046840
-0.003599 0.163639 0.046843
-0.003599 0.163639 0.046843
-0.003599 0.163639 0.046843
-0.003599 0.163639 0.046843
0.000935 0.163809 0.046841
0.000935 0.163809 0.046841
0.000935 0.163809 0.046841
0.000935 0.163809 0.046841
0.005752 0.163377 0.046841
0.005752 0.163377 0.046841
0.005752 0.163377 0.046841
0.005752 0.163377 0.046841
0.010508 0.162321 0.046840
0.010508 0.162321 0.046840
0.010508 0.162321 0.046840
0.010508 0.162321 0.046840
0.015119 0.160642 0.046840
0.015119 0.160642 0.046840
0.015119 0.160642 0.046840
0.015119 0.160642 0.046840
0.019462 0.158382 0.046840
0.019462 0.158382 0.046840
0.019462 0.158382 0.046840
0.019462 0.158382 0.046840
0.023481 0.155569 0.046839
0.023481 0.155569 0.046839
0.023481 0.155569 0.046839
0.023481 0.155569 0.046839
0.023481 0.155569 0.046839
0.027049 0.152309 0.046838
0.027049 0.152309 0.046838
0.027049 0.152309 0.046838
0.027049 0.152309 0.046838
0.030131 0.148667 0.046837
0.030131 0.148667 0.046837
0.030131 0.148667 0.046837
0.030131 0.148667 0.046837
0.034024 0.142126 0.046838
0.034024 0.142126 0.046838
0.034024 0.142126 0.046838
0.034024 0.142126 0.046838
0.035765 0.137657 0.046839
0.035765 0.137657 0.046839
0.035765 0.137657 0.046839
0.035765 0.137657 0.046839
0.035765 0.137657 0.046839
0.036923 0.132983 0.046840
0.036923 0.132983 0.046840
0.036923 0.132983 0.046840
0.036923 0.132983 0.046840
0.037474 0.128203 0.046840
0.037474 0.128203 0.046840
0.037474 0.128203 0.046840
0.037474 0.128203 0.046840
0.037474 0.128203 0.046840
0.037108 0.124794 0.046836
0.037108 0.124794 0.046836
0.037108 0.124794 0.046836
0.037108 0.124794 0.046836
0.037108 0.124794 0.046836
0.037108 0.124794 0.046836
0.036363 0.118907 0.046837
0.036363 0.118907 0.046837
0.036363 0.118907 0.046837
0.036363 0.118907 0.046837
0.035053 0.114127 0.046837
0.035053 0.114127 0.046837
0.035053 0.114127 0.046837
0.035053 0.114127 0.046837
0.035053 0.114127 0.046837
0.033118 0.109563 0.046837
0.033118 0.109563 0.046837
0.033118 0.109563 0.046837
0.033118 0.109563 0.046837
0.027520 0.101408 0.046837
0.027520 0.101408 0.046837
0.027520 0.101408 0.046837
0.027520 0.101408 0.046837
0.023957 0.097962 0.046837
0.023957 0.097962 0.046837
0.023957 0.097962 0.046837
0.023957 0.097962 0.046837
0.030592 0.105298 0.046837
0.030592 0.105298 0.046837
0.030592 0.105298 0.046837
0.030592 0.105298 0.046837
0.030592 0.105298 0.046837
0.030592 0.105298 0.046837
0.030592 0.105298 0.046837
-0.017833 0.093758 0.046837
-0.017833 0.093758 0.046837
-0.017833 0.093758 0.046837
-0.017833 0.093758 0.046837
-0.017833 0.093758 0.046837
-0.017833 0.093758 0.046837
-0.022011 0.096425 0.046837
-0.022011 0.096425 0.046837
-0.022011 0.096425 0.046837
-0.022011 0.096425 0.046837
-0.022011 0.096425 0.046837
-0.035788 0.116495 0.046837
-0.035788 0.116495 0.046837
-0.035788 0.116495 0.046837
-0.035788 0.116495 0.046837
-0.035788 0.116495 0.046837
-0.036775 0.121353 0.046837
-0.036775 0.121353 0.046837
-0.036775 0.121353 0.046837
-0.036775 0.121353 0.046837
-0.036775 0.121353 0.046837
-0.037106 0.126298 0.046837
-0.037106 0.126298 0.046837
-0.037106 0.126298 0.046837
-0.037106 0.126298 0.046837
0.035053 0.138470 0.046837
0.035053 0.138470 0.046837
0.035053 0.138470 0.046837
0.035053 0.138470 0.046837
0.035053 0.138470 0.046837
0.036363 0.133689 0.046837
0.036363 0.133689 0.046837
0.036363 0.133689 0.046837
0.036363 0.133689 0.046837
0.036363 0.133689 0.046837
0.037023 0.128777 0.046837
0.037023 0.128777 0.046837
0.037023 0.128777 0.046837
0.037023 0.128777 0.046837
-0.013336 0.091671 0.046837
-0.013336 0.091671 0.046837
-0.013336 0.091671 0.046837
-0.013336 0.091671 0.046837
-0.013336 0.091671 0.046837
-0.025796 0.099625 0.046837
-0.025796 0.099625 0.046837
-0.025796 0.099625 0.046837
-0.025796 0.099625 0.046837
-0.025796 0.099625 0.046837
-0.034162 0.111812 0.046837
-0.034162 0.111812 0.046837
-0.034162 0.111812 0.046837
-0.034162 0.111812 0.046837
-0.031926 0.107388 0.046837
-0.031926 0.107388 0.046837
-0.031926 0.107388 0.046837
-0.031926 0.107388 0.046837
-0.031926 0.107388 0.046837
-0.036775 0.131244 0.046837
-0.036775 0.131244 0.046837
-0.036775 0.131244 0.046837
-0.036775 0.131244 0.046837
-0.036775 0.131244 0.046837
0.033118 0.143034 0.046837
0.033118 0.143034 0.046837
0.033118 0.143034 0.046837
0.033118 0.143034 0.046837
0.033118 0.143034 0.046837
0.033118 0.143034 0.046837
0.019966 0.095022 0.046837
0.019966 0.095022 0.046837
0.019966 0.095022 0.046837
0.019966 0.095022 0.046837
0.019966 0.095022 0.046837
0.015619 0.092640 0.046837
0.015619 0.092640 0.046837
0.015619 0.092640 0.046837
0.015619 0.092640 0.046837
0.010994 0.090858 0.046837
0.010994 0.090858 0.046837
0.010994 0.090858 0.046837
0.010994 0.090858 0.046837
0.010994 0.090858 0.046837
0.010994 0.090858 0.046837
-0.003714 0.089378 0.046837
-0.003714 0.089378 0.046837
-0.003714 0.089378 0.046837
-0.003714 0.089378 0.046837
-0.003714 0.089378 0.046837
-0.003714 0.089378 0.046837
-0.003714 0.089378 0.046837
-0.003714 0.089378 0.046837
-0.008602 0.090203 0.046837
-0.008602 0.090203 0.046837
-0.008602 0.090203 0.046837
-0.008602 0.090203 0.046837
-0.029121 0.103302 0.046837
-0.029121 0.103302 0.046837
-0.029121 0.103302 0.046837
-0.029121 0.103302 0.046837
-0.035788 0.136102 0.046837
-0.035788 0.136102 0.046837
-0.035788 0.136102 0.046837
-0.035788 0.136102 0.046837
-0.031926 0.145208 0.046837
-0.031926 0.145208 0.046837
-0.031926 0.145208 0.046837
-0.031926 0.145208 0.046837
-0.031926 0.145208 0.046837
-0.031926 0.145208 0.046837
-0.029121 0.149295 0.046837
-0.029121 0.149295 0.046837
-0.029121 0.149295 0.046837
-0.029121 0.149295 0.046837
-0.029121 0.149295 0.046837
-0.025796 0.152971 0.046837
-0.025796 0.152971 0.046837
-0.025796 0.152971 0.046837
-0.025796 0.152971 0.046837
-0.025796 0.152971 0.046837
-0.025796 0.152971 0.046837
-0.025796 0.152971 0.046837
-0.022011 0.156171 0.046837
-0.022011 0.156171 0.046837
-0.022011 0.156171 0.046837
-0.022011 0.156171 0.046837
-0.022011 0.156171 0.046837
-0.017833 0.158839 0.046837
-0.017833 0.158839 0.046837
-0.017833 0.158839 0.046837
-0.017833 0.158839 0.046837
0.006172 0.089709 0.046837
0.006172 0.089709 0.046837
0.006172 0.089709 0.046837
0.006172 0.089709 0.046837
0.006172 0.089709 0.046837
-0.034162 0.140784 0.046837
-0.034162 0.140784 0.046837
-0.034162 0.140784 0.046837
-0.034162 0.140784 0.046837
-0.013336 0.160925 0.046837
-0.013336 0.160925 0.046837
-0.013336 0.160925 0.046837
-0.013336 0.160925 0.046837
-0.013336 0.160925 0.046837
-0.013336 0.160925 0.046837
0.001240 0.089213 0.046837
0.001240 0.089213 0.046837
0.001240 0.089213 0.046837
0.001240 0.089213 0.046837
0.001240 0.089213 0.046837
-0.008602 0.162394 0.046837
-0.008602 0.162394 0.046837
-0.008602 0.162394 0.046837
-0.008602 0.162394 0.046837
-0.003714 0.163218 0.046837
-0.003714 0.163218 0.046837
-0.003714 0.163218 0.046837
-0.003714 0.163218 0.046837
-0.003714 0.163218 0.046837
0.001240 0.163384 0.046837
0.001240 0.163384 0.046837
0.001240 0.163384 0.046837
0.001240 0.163384 0.046837
0.006172 0.162888 0.046837
0.006172 0.162888 0.046837
0.006172 0.162888 0.046837
0.006172 0.162888 0.046837
0.015619 0.159957 0.046837
0.015619 0.159957 0.046837
0.015619 0.159957 0.046837
0.015619 0.159957 0.046837
0.019966 0.157575 0.046837
0.019966 0.157575 0.046837
0.019966 0.157575 0.046837
0.019966 0.157575 0.046837
0.019966 0.157575 0.046837
0.019966 0.157575 0.046837
0.023957 0.154635 0.046837
0.023957 0.154635 0.046837
0.023957 0.154635 0.046837
0.023957 0.154635 0.046837
0.027520 0.151189 0.046837
0.027520 0.151189 0.046837
0.027520 0.151189 0.046837
0.027520 0.151189 0.046837
0.030592 0.147299 0.046837
0.030592 0.147299 0.046837
0.030592 0.147299 0.046837
0.030592 0.147299 0.046837
0.030592 0.147299 0.046837
0.030592 0.147299 0.046837
0.030592 0.147299 0.046837
0.010994 0.161739 0.046837
0.010994 0.161739 0.046837
0.010994 0.161739 0.046837
0.010994 0.161739 0.046837
0.010994 0.161739 0.046837
-0.035947 0.117082 0.047214
-0.035947 0.117082 0.047214
-0.035947 0.117082 0.047214
-0.035947 0.117082 0.047214
-0.035947 0.117082 0.047214
-0.031900 0.107280 0.047146
-0.031900 0.107280 0.047146
-0.031900 0.107280 0.047146
-0.031900 0.107280 0.047146
-0.031900 0.107280 0.047146
-0.022559 0.096833 0.047214
-0.022559 0.096833 0.047214
-0.022559 0.096833 0.047214
-0.022559 0.096833 0.047214
-0.022559 0.096833 0.047214
0.000482 0.089192 0.047213
0.000482 0.089192 0.047213
0.000482 0.089192 0.047213
0.000482 0.089192 0.047213
0.000482 0.089192 0.047213
0.003057 0.163287 0.047196
0.003057 0.163287 0.047196
0.003057 0.163287 0.047196
0.003057 0.163287 0.047196
0.003057 0.163287 0.047196
0.003057 0.163287 0.047196
-0.000452 0.163410 0.047197
-0.000452 0.163410 0.047197
-0.000452 0.163410 0.047197
-0.000452 0.163410 0.047197
-0.000452 0.163410 0.047197
-0.007488 0.162672 0.047148
-0.007488 0.162672 0.047148
-0.007488 0.162672 0.047148
-0.007488 0.162672 0.047148
-0.007488 0.162672 0.047148
-0.007488 0.162672 0.047148
-0.010907 0.161801 0.047144
-0.010907 0.161801 0.047144
-0.010907 0.161801 0.047144
-0.010907 0.161801 0.047144
-0.010907 0.161801 0.047144
-0.014262 0.160590 0.047145
-0.014262 0.160590 0.047145
-0.014262 0.160590 0.047145
-0.014262 0.160590 0.047145
-0.014262 0.160590 0.047145
-0.020489 0.157276 0.047144
-0.020489 0.157276 0.047144
-0.020489 0.157276 0.047144
-0.020489 0.157276 0.047144
-0.020489 0.157276 0.047144
-0.020489 0.157276 0.047144
-0.036531 0.134704 0.047183
-0.036531 0.134704 0.047183
-0.036531 0.134704 0.047183
-0.036531 0.134704 0.047183
-0.036531 0.134704 0.047183
-0.035575 0.138101 0.047179
-0.035575 0.138101 0.047179
-0.035575 0.138101 0.047179
-0.035575 0.138101 0.047179
0.006588 0.163200 0.047183
0.006588 0.163200 0.047183
0.006588 0.163200 0.047183
0.006588 0.163200 0.047183
0.027990 0.151232 0.047183
0.027990 0.151232 0.047183
0.027990 0.151232 0.047183
0.027990 0.151232 0.047183
0.027990 0.151232 0.047183
0.032239 0.145424 0.047183
0.032239 0.145424 0.047183
0.032239 0.145424 0.047183
0.032239 0.145424 0.047183
0.032239 0.145424 0.047183
0.033891 0.142306 0.047179
0.033891 0.142306 0.047179
0.033891 0.142306 0.047179
0.033891 0.142306 0.047179
0.033891 0.142306 0.047179
0.030830 0.104976 0.047183
0.030830 0.104976 0.047183
0.030830 0.104976 0.047183
0.030830 0.104976 0.047183
0.030830 0.104976 0.047183
0.030830 0.104976 0.047183
0.023574 0.097154 0.047183
0.023574 0.097154 0.047183
0.023574 0.097154 0.047183
0.023574 0.097154 0.047183
0.023574 0.097154 0.047183
0.014408 0.091693 0.047183
0.014408 0.091693 0.047183
0.014408 0.091693 0.047183
0.014408 0.091693 0.047183
0.011053 0.090480 0.047183
0.011053 0.090480 0.047183
0.011053 0.090480 0.047183
0.011053 0.090480 0.047183
0.011053 0.090480 0.047183
-0.013453 0.091310 0.047183
-0.013453 0.091310 0.047183
-0.013453 0.091310 0.047183
-0.013453 0.091310 0.047183
-0.013453 0.091310 0.047183
-0.022765 0.096518 0.047183
-0.022765 0.096518 0.047183
-0.022765 0.096518 0.047183
-0.022765 0.096518 0.047183
-0.022765 0.096518 0.047183
-0.030233 0.104138 0.047183
-0.030233 0.104138 0.047183
-0.030233 0.104138 0.047183
-0.030233 0.104138 0.047183
-0.036304 0.116962 0.047183
-0.036304 0.116962 0.047183
-0.036304 0.116962 0.047183
-0.036304 0.116962 0.047183
-0.036304 0.116962 0.047183
-0.037164 0.131194 0.047183
-0.037164 0.131194 0.047183
-0.037164 0.131194 0.047183
-0.037164 0.131194 0.047183
-0.037476 0.127500 0.047199
-0.037476 0.127500 0.047199
-0.037476 0.127500 0.047199
-0.037476 0.127500 0.047199
-0.037476 0.127500 0.047199
-0.037476 0.127500 0.047199
-0.037038 0.120525 0.047183
-0.037038 0.120525 0.047183
-0.037038 0.120525 0.047183
-0.037038 0.120525 0.047183
-0.037411 0.123994 0.047181
-0.037411 0.123994 0.047181
-0.037411 0.123994 0.047181
-0.037411 0.123994 0.047181
-0.037411 0.123994 0.047181
-0.033911 0.110324 0.047183
-0.033911 0.110324 0.047183
-0.033911 0.110324 0.047183
-0.033911 0.110324 0.047183
-0.033911 0.110324 0.047183
-0.035260 0.113585 0.047179
-0.035260 0.113585 0.047179
-0.035260 0.113585 0.047179
-0.035260 0.113585 0.047179
-0.035260 0.113585 0.047179
-0.032239 0.107173 0.047183
-0.032239 0.107173 0.047183
-0.032239 0.107173 0.047183
-0.032239 0.107173 0.047183
-0.032239 0.107173 0.047183
-0.025545 0.098865 0.047183
-0.025545 0.098865 0.047183
-0.025545 0.098865 0.047183
-0.025545 0.098865 0.047183
-0.028009 0.101391 0.047179
-0.028009 0.101391 0.047179
-0.028009 0.101391 0.047179
-0.028009 0.101391 0.047179
-0.028009 0.101391 0.047179
-0.016781 0.092779 0.047183
-0.016781 0.092779 0.047183
-0.016781 0.092779 0.047183
-0.016781 0.092779 0.047183
-0.016781 0.092779 0.047183
-0.019857 0.094509 0.047179
-0.019857 0.094509 0.047179
-0.019857 0.094509 0.047179
-0.019857 0.094509 0.047179
-0.019857 0.094509 0.047179
-0.010097 0.090202 0.047179
-0.010097 0.090202 0.047179
-0.010097 0.090202 0.047179
-0.010097 0.090202 0.047179
-0.010097 0.090202 0.047179
-0.003121 0.088943 0.047183
-0.003121 0.088943 0.047183
-0.003121 0.088943 0.047183
-0.003121 0.088943 0.047183
-0.003121 0.088943 0.047183
-0.006658 0.089409 0.047183
-0.006658 0.089409 0.047183
-0.006658 0.089409 0.047183
-0.006658 0.089409 0.047183
-0.006658 0.089409 0.047183
-0.006658 0.089409 0.047183
0.000514 0.088817 0.047183
0.000514 0.088817 0.047183
0.000514 0.088817 0.047183
0.000514 0.088817 0.047183
0.000514 0.088817 0.047183
0.004075 0.089035 0.047183
0.004075 0.089035 0.047183
0.004075 0.089035 0.047183
0.004075 0.089035 0.047183
0.004075 0.089035 0.047183
0.007566 0.089588 0.047179
0.007566 0.089588 0.047179
0.007566 0.089588 0.047179
0.007566 0.089588 0.047179
0.007566 0.089588 0.047179
0.020638 0.095006 0.047183
0.020638 0.095006 0.047183
0.020638 0.095006 0.047183
0.020638 0.095006 0.047183
0.020638 0.095006 0.047183
0.017602 0.093207 0.047179
0.017602 0.093207 0.047179
0.017602 0.093207 0.047179
0.017602 0.093207 0.047179
0.017602 0.093207 0.047179
0.028618 0.102088 0.047183
0.028618 0.102088 0.047183
0.028618 0.102088 0.047183
0.028618 0.102088 0.047183
0.028618 0.102088 0.047183
0.026212 0.099506 0.047179
0.026212 0.099506 0.047179
0.026212 0.099506 0.047179
0.026212 0.099506 0.047179
0.026212 0.099506 0.047179
0.032712 0.107978 0.047215
0.032712 0.107978 0.047215
0.032712 0.107978 0.047215
0.032712 0.107978 0.047215
0.035566 0.114458 0.047183
0.035566 0.114458 0.047183
0.035566 0.114458 0.047183
0.035566 0.114458 0.047183
0.035566 0.114458 0.047183
0.034292 0.111168 0.047179
0.034292 0.111168 0.047179
0.034292 0.111168 0.047179
0.034292 0.111168 0.047179
0.034292 0.111168 0.047179
0.036546 0.117962 0.047183
0.036546 0.117962 0.047183
0.036546 0.117962 0.047183
0.036546 0.117962 0.047183
0.036546 0.117962 0.047183
0.037461 0.124958 0.047183
0.037461 0.124958 0.047183
0.037461 0.124958 0.047183
0.037461 0.124958 0.047183
0.037461 0.124958 0.047183
0.037166 0.121442 0.047179
0.037166 0.121442 0.047179
0.037166 0.121442 0.047179
0.037166 0.121442 0.047179
0.037166 0.121442 0.047179
0.037166 0.121442 0.047179
0.037415 0.128596 0.047183
0.037415 0.128596 0.047183
0.037415 0.128596 0.047183
0.037415 0.128596 0.047183
0.037415 0.128596 0.047183
0.037415 0.128596 0.047183
0.036322 0.135566 0.047183
0.036322 0.135566 0.047183
0.036322 0.135566 0.047183
0.036322 0.135566 0.047183
0.036322 0.135566 0.047183
0.037028 0.132109 0.047179
0.037028 0.132109 0.047179
0.037028 0.132109 0.047179
0.037028 0.132109 0.047179
0.037028 0.132109 0.047179
0.035276 0.138977 0.047183
0.035276 0.138977 0.047183
0.035276 0.138977 0.047183
0.035276 0.138977 0.047183
0.035276 0.138977 0.047183
0.030275 0.148402 0.047183
0.030275 0.148402 0.047183
0.030275 0.148402 0.047183
0.030275 0.148402 0.047183
0.030275 0.148402 0.047183
0.025493 0.153780 0.047183
0.025493 0.153780 0.047183
0.025493 0.153780 0.047183
0.025493 0.153780 0.047183
0.025493 0.153780 0.047183
0.025493 0.153780 0.047183
0.019892 0.158071 0.047183
0.019892 0.158071 0.047183
0.019892 0.158071 0.047183
0.019892 0.158071 0.047183
0.019892 0.158071 0.047183
0.022789 0.156056 0.047179
0.022789 0.156056 0.047179
0.022789 0.156056 0.047179
0.022789 0.156056 0.047179
0.016718 0.159849 0.047183
0.016718 0.159849 0.047183
0.016718 0.159849 0.047183
0.016718 0.159849 0.047183
0.010134 0.162388 0.047183
0.010134 0.162388 0.047183
0.010134 0.162388 0.047183
0.010134 0.162388 0.047183
0.010134 0.162388 0.047183
0.010134 0.162388 0.047183
0.013482 0.161271 0.047179
0.013482 0.161271 0.047179
0.013482 0.161271 0.047179
0.013482 0.161271 0.047179
0.013482 0.161271 0.047179
-0.034308 0.141401 0.047183
-0.034308 0.141401 0.047183
-0.034308 0.141401 0.047183
-0.034308 0.141401 0.047183
-0.034308 0.141401 0.047183
-0.032683 0.144656 0.047183
-0.032683 0.144656 0.047183
-0.032683 0.144656 0.047183
-0.032683 0.144656 0.047183
-0.030809 0.147645 0.047179
-0.030809 0.147645 0.047179
-0.030809 0.147645 0.047179
-0.030809 0.147645 0.047179
-0.030809 0.147645 0.047179
-0.028664 0.150455 0.047183
-0.028664 0.150455 0.047183
-0.028664 0.150455 0.047183
-0.028664 0.150455 0.047183
-0.026187 0.153120 0.047183
-0.026187 0.153120 0.047183
-0.026187 0.153120 0.047183
-0.026187 0.153120 0.047183
-0.026187 0.153120 0.047183
-0.026187 0.153120 0.047183
-0.023547 0.155460 0.047179
-0.023547 0.155460 0.047179
-0.023547 0.155460 0.047179
-0.023547 0.155460 0.047179
-0.023547 0.155460 0.047179
-0.019216 0.158347 0.047083
-0.019216 0.158347 0.047083
-0.019216 0.158347 0.047083
-0.019216 0.158347 0.047083
-0.019216 0.158347 0.047083
-0.019216 0.158347 0.047083
-0.019216 0.158347 0.047083
-0.019216 0.158347 0.047083
-0.020697 0.157552 0.047183
-0.020697 0.157552 0.047183
-0.020697 0.157552 0.047183
-0.020697 0.157552 0.047183
-0.017632 0.159378 0.047183
-0.017632 0.159378 0.047183
-0.017632 0.159378 0.047183
-0.017632 0.159378 0.047183
-0.017632 0.159378 0.047183
-0.012804 0.161404 0.047083
-0.012804 0.161404 0.047083
-0.012804 0.161404 0.047083
-0.012804 0.161404 0.047083
-0.012804 0.161404 0.047083
-0.012804 0.161404 0.047083
-0.012804 0.161404 0.047083
-0.012804 0.161404 0.047083
-0.014377 0.160913 0.047179
-0.014377 0.160913 0.047179
-0.014377 0.160913 0.047179
-0.014377 0.160913 0.047179
-0.011053 0.162117 0.047183
-0.011053 0.162117 0.047183
-0.011053 0.162117 0.047183
-0.011053 0.162117 0.047183
-0.011053 0.162117 0.047183
-0.005928 0.163193 0.047083
-0.005928 0.163193 0.047083
-0.005928 0.163193 0.047083
-0.005928 0.163193 0.047083
-0.005928 0.163193 0.047083
-0.005928 0.163193 0.047083
-0.005928 0.163193 0.047083
-0.007599 0.163005 0.047183
-0.007599 0.163005 0.047183
-0.007599 0.163005 0.047183
-0.007599 0.163005 0.047183
-0.004042 0.163217 0.047145
-0.004042 0.163217 0.047145
-0.004042 0.163217 0.047145
-0.004042 0.163217 0.047145
-0.004042 0.163217 0.047145
-0.004005 0.163569 0.047183
-0.004005 0.163569 0.047183
-0.004005 0.163569 0.047183
-0.004005 0.163569 0.047183
-0.004005 0.163569 0.047183
-0.004005 0.163569 0.047183
-0.004005 0.163569 0.047183
-0.026000 0.152818 0.047145
-0.026000 0.152818 0.047145
-0.026000 0.152818 0.047145
-0.026000 0.152818 0.047145
-0.026000 0.152818 0.047145
-0.028369 0.150262 0.047148
-0.028369 0.150262 0.047148
-0.028369 0.150262 0.047148
-0.028369 0.150262 0.047148
-0.028369 0.150262 0.047148
-0.028369 0.150262 0.047148
-0.027467 0.151635 0.047083
-0.027467 0.151635 0.047083
-0.027467 0.151635 0.047083
-0.027467 0.151635 0.047083
-0.027467 0.151635 0.047083
-0.027467 0.151635 0.047083
-0.027467 0.151635 0.047083
-0.000582 0.163568 0.047076
-0.000582 0.163568 0.047076
-0.000582 0.163568 0.047076
-0.000582 0.163568 0.047076
-0.000582 0.163568 0.047076
-0.000582 0.163568 0.047076
-0.000582 0.163568 0.047076
-0.000444 0.163781 0.047183
-0.000444 0.163781 0.047183
-0.000444 0.163781 0.047183
-0.000444 0.163781 0.047183
-0.000444 0.163781 0.047183
-0.023295 0.155191 0.047197
-0.023295 0.155191 0.047197
-0.023295 0.155191 0.047197
-0.023295 0.155191 0.047197
-0.023295 0.155191 0.047197
-0.023496 0.155234 0.047076
-0.023496 0.155234 0.047076
-0.023496 0.155234 0.047076
-0.023496 0.155234 0.047076
-0.023496 0.155234 0.047076
-0.023496 0.155234 0.047076
-0.023496 0.155234 0.047076
0.002964 0.163454 0.047076
0.002964 0.163454 0.047076
0.002964 0.163454 0.047076
0.002964 0.163454 0.047076
0.002964 0.163454 0.047076
0.002964 0.163454 0.047076
0.003083 0.163653 0.047179
0.003083 0.163653 0.047179
0.003083 0.163653 0.047179
0.003083 0.163653 0.047179
0.003083 0.163653 0.047179
-0.031766 0.145978 0.047083
-0.031766 0.145978 0.047083
-0.031766 0.145978 0.047083
-0.031766 0.145978 0.047083
-0.031766 0.145978 0.047083
-0.031766 0.145978 0.047083
-0.031766 0.145978 0.047083
-0.031766 0.145978 0.047083
-0.030518 0.147466 0.047144
-0.030518 0.147466 0.047144
-0.030518 0.147466 0.047144
-0.030518 0.147466 0.047144
-0.030518 0.147466 0.047144
-0.032409 0.144436 0.047145
-0.032409 0.144436 0.047145
-0.032409 0.144436 0.047145
-0.032409 0.144436 0.047145
-0.032409 0.144436 0.047145
-0.034916 0.139611 0.047083
-0.034916 0.139611 0.047083
-0.034916 0.139611 0.047083
-0.034916 0.139611 0.047083
-0.034916 0.139611 0.047083
-0.034916 0.139611 0.047083
-0.034916 0.139611 0.047083
-0.034916 0.139611 0.047083
-0.033974 0.141291 0.047149
-0.033974 0.141291 0.047149
-0.033974 0.141291 0.047149
-0.033974 0.141291 0.047149
-0.033974 0.141291 0.047149
-0.036804 0.132763 0.047083
-0.036804 0.132763 0.047083
-0.036804 0.132763 0.047083
-0.036804 0.132763 0.047083
-0.036804 0.132763 0.047083
-0.036804 0.132763 0.047083
-0.036804 0.132763 0.047083
-0.036804 0.132763 0.047083
-0.035254 0.137986 0.047144
-0.035254 0.137986 0.047144
-0.035254 0.137986 0.047144
-0.035254 0.137986 0.047144
-0.035254 0.137986 0.047144
-0.035254 0.137986 0.047144
-0.036199 0.134592 0.047147
-0.036199 0.134592 0.047147
-0.036199 0.134592 0.047147
-0.036199 0.134592 0.047147
-0.036199 0.134592 0.047147
-0.037255 0.127491 0.047076
-0.037255 0.127491 0.047076
-0.037255 0.127491 0.047076
-0.037255 0.127491 0.047076
-0.037255 0.127491 0.047076
-0.037255 0.127491 0.047076
-0.037255 0.127491 0.047076
-0.037135 0.122132 0.047083
-0.037135 0.122132 0.047083
-0.037135 0.122132 0.047083
-0.037135 0.122132 0.047083
-0.037135 0.122132 0.047083
-0.037135 0.122132 0.047083
-0.037135 0.122132 0.047083
-0.037074 0.124075 0.047144
-0.037074 0.124075 0.047144
-0.037074 0.124075 0.047144
-0.037074 0.124075 0.047144
-0.037074 0.124075 0.047144
-0.037074 0.124075 0.047144
-0.037092 0.127584 0.047197
-0.037092 0.127584 0.047197
-0.037092 0.127584 0.047197
-0.037092 0.127584 0.047197
-0.037092 0.127584 0.047197
-0.036066 0.116960 0.047075
-0.036066 0.116960 0.047075
-0.036066 0.116960 0.047075
-0.036066 0.116960 0.047075
-0.036066 0.116960 0.047075
-0.036066 0.116960 0.047075
-0.036066 0.116960 0.047075
-0.035029 0.113559 0.047076
-0.035029 0.113559 0.047076
-0.035029 0.113559 0.047076
-0.035029 0.113559 0.047076
-0.035029 0.113559 0.047076
-0.034918 0.113716 0.047196
-0.034918 0.113716 0.047196
-0.034918 0.113716 0.047196
-0.034918 0.113716 0.047196
-0.034918 0.113716 0.047196
-0.034918 0.113716 0.047196
-0.034918 0.113716 0.047196
-0.031041 0.105524 0.047080
-0.031041 0.105524 0.047080
-0.031041 0.105524 0.047080
-0.031041 0.105524 0.047080
-0.031041 0.105524 0.047080
-0.031041 0.105524 0.047080
-0.031041 0.105524 0.047080
-0.026687 0.100153 0.047081
-0.026687 0.100153 0.047081
-0.026687 0.100153 0.047081
-0.026687 0.100153 0.047081
-0.026687 0.100153 0.047081
-0.026687 0.100153 0.047081
-0.026687 0.100153 0.047081
-0.026687 0.100153 0.047081
-0.029968 0.104380 0.047164
-0.029968 0.104380 0.047164
-0.029968 0.104380 0.047164
-0.029968 0.104380 0.047164
-0.029968 0.104380 0.047164
-0.029968 0.104380 0.047164
-0.027762 0.101642 0.047161
-0.027762 0.101642 0.047161
-0.027762 0.101642 0.047161
-0.027762 0.101642 0.047161
-0.027762 0.101642 0.047161
-0.022577 0.096663 0.047075
-0.022577 0.096663 0.047075
-0.022577 0.096663 0.047075
-0.022577 0.096663 0.047075
-0.022577 0.096663 0.047075
-0.022577 0.096663 0.047075
-0.022577 0.096663 0.047075
-0.018070 0.093609 0.047080
-0.018070 0.093609 0.047080
-0.018070 0.093609 0.047080
-0.018070 0.093609 0.047080
-0.018070 0.093609 0.047080
-0.018070 0.093609 0.047080
-0.018070 0.093609 0.047080
-0.019674 0.094797 0.047144
-0.019674 0.094797 0.047144
-0.019674 0.094797 0.047144
-0.019674 0.094797 0.047144
-0.019674 0.094797 0.047144
-0.019674 0.094797 0.047144
-0.013312 0.091483 0.047076
-0.013312 0.091483 0.047076
-0.013312 0.091483 0.047076
-0.013312 0.091483 0.047076
-0.013312 0.091483 0.047076
-0.013312 0.091483 0.047076
-0.013312 0.091483 0.047076
-0.009988 0.090334 0.047083
-0.009988 0.090334 0.047083
-0.009988 0.090334 0.047083
-0.009988 0.090334 0.047083
-0.009988 0.090334 0.047083
-0.010018 0.090539 0.047147
-0.010018 0.090539 0.047147
-0.010018 0.090539 0.047147
-0.010018 0.090539 0.047147
-0.010018 0.090539 0.047147
-0.010018 0.090539 0.047147
-0.010018 0.090539 0.047147
-0.013369 0.091674 0.047196
-0.013369 0.091674 0.047196
-0.013369 0.091674 0.047196
-0.013369 0.091674 0.047196
-0.004816 0.089250 0.047081
-0.004816 0.089250 0.047081
-0.004816 0.089250 0.047081
-0.004816 0.089250 0.047081
-0.004816 0.089250 0.047081
-0.004816 0.089250 0.047081
-0.004816 0.089250 0.047081
-0.004816 0.089250 0.047081
-0.003029 0.089283 0.047145
-0.003029 0.089283 0.047145
-0.003029 0.089283 0.047145
-0.003029 0.089283 0.047145
-0.003029 0.089283 0.047145
-0.006583 0.089756 0.047161
-0.006583 0.089756 0.047161
-0.006583 0.089756 0.047161
-0.006583 0.089756 0.047161
-0.006583 0.089756 0.047161
0.000572 0.089047 0.047075
0.000572 0.089047 0.047075
0.000572 0.089047 0.047075
0.000572 0.089047 0.047075
0.000572 0.089047 0.047075
0.000572 0.089047 0.047075
0.000572 0.089047 0.047075
0.004094 0.089198 0.047083
0.004094 0.089198 0.047083
0.004094 0.089198 0.047083
0.004094 0.089198 0.047083
0.004094 0.089198 0.047083
0.007624 0.089813 0.047076
0.007624 0.089813 0.047076
0.007624 0.089813 0.047076
0.007624 0.089813 0.047076
0.007624 0.089813 0.047076
0.007624 0.089813 0.047076
0.007624 0.089813 0.047076
0.004005 0.089374 0.047144
0.004005 0.089374 0.047144
0.004005 0.089374 0.047144
0.004005 0.089374 0.047144
0.004005 0.089374 0.047144
0.004005 0.089374 0.047144
0.004005 0.089374 0.047144
0.007463 0.089942 0.047198
0.007463 0.089942 0.047198
0.007463 0.089942 0.047198
0.007463 0.089942 0.047198
0.007463 0.089942 0.047198
0.012803 0.091192 0.047083
0.012803 0.091192 0.047083
0.012803 0.091192 0.047083
0.012803 0.091192 0.047083
0.012803 0.091192 0.047083
0.012803 0.091192 0.047083
0.012803 0.091192 0.047083
0.010860 0.090783 0.047146
0.010860 0.090783 0.047146
0.010860 0.090783 0.047146
0.010860 0.090783 0.047146
0.010860 0.090783 0.047146
0.017595 0.093439 0.047076
0.017595 0.093439 0.047076
0.017595 0.093439 0.047076
0.017595 0.093439 0.047076
0.017595 0.093439 0.047076
0.017595 0.093439 0.047076
0.017595 0.093439 0.047076
0.014228 0.091996 0.047147
0.014228 0.091996 0.047147
0.014228 0.091996 0.047147
0.014228 0.091996 0.047147
0.014228 0.091996 0.047147
0.014228 0.091996 0.047147
0.017411 0.093520 0.047196
0.017411 0.093520 0.047196
0.017411 0.093520 0.047196
0.017411 0.093520 0.047196
0.017411 0.093520 0.047196
0.023495 0.097362 0.047076
0.023495 0.097362 0.047076
0.023495 0.097362 0.047076
0.023495 0.097362 0.047076
0.023495 0.097362 0.047076
0.023495 0.097362 0.047076
0.023495 0.097362 0.047076
0.026152 0.099666 0.047083
0.026152 0.099666 0.047083
0.026152 0.099666 0.047083
0.026152 0.099666 0.047083
0.026152 0.099666 0.047083
0.025971 0.099748 0.047144
0.025971 0.099748 0.047144
0.025971 0.099748 0.047144
0.025971 0.099748 0.047144
0.025971 0.099748 0.047144
0.025971 0.099748 0.047144
0.025971 0.099748 0.047144
0.023320 0.097426 0.047198
0.023320 0.097426 0.047198
0.023320 0.097426 0.047198
0.023320 0.097426 0.047198
0.023320 0.097426 0.047198
0.032620 0.108116 0.047079
0.032620 0.108116 0.047079
0.032620 0.108116 0.047079
0.032620 0.108116 0.047079
0.032620 0.108116 0.047079
0.032620 0.108116 0.047079
0.032620 0.108116 0.047079
0.030720 0.105096 0.047083
0.030720 0.105096 0.047083
0.030720 0.105096 0.047083
0.030720 0.105096 0.047083
0.030492 0.105096 0.047145
0.030492 0.105096 0.047145
0.030492 0.105096 0.047145
0.030492 0.105096 0.047145
0.030492 0.105096 0.047145
0.030492 0.105096 0.047145
0.032385 0.108140 0.047164
0.032385 0.108140 0.047164
0.032385 0.108140 0.047164
0.032385 0.108140 0.047164
0.032385 0.108140 0.047164
0.032385 0.108140 0.047164
0.034143 0.111345 0.047076
0.034143 0.111345 0.047076
0.034143 0.111345 0.047076
0.034143 0.111345 0.047076
0.034143 0.111345 0.047076
0.034143 0.111345 0.047076
0.034143 0.111345 0.047076
0.036023 0.116365 0.047083
0.036023 0.116365 0.047083
0.036023 0.116365 0.047083
0.036023 0.116365 0.047083
0.036023 0.116365 0.047083
0.036023 0.116365 0.047083
0.036023 0.116365 0.047083
0.035259 0.114632 0.047145
0.035259 0.114632 0.047145
0.035259 0.114632 0.047145
0.035259 0.114632 0.047145
0.035259 0.114632 0.047145
0.033947 0.111294 0.047196
0.033947 0.111294 0.047196
0.033947 0.111294 0.047196
0.033947 0.111294 0.047196
0.033947 0.111294 0.047196
0.036197 0.118003 0.047148
0.036197 0.118003 0.047148
0.036197 0.118003 0.047148
0.036197 0.118003 0.047148
0.036197 0.118003 0.047148
0.036197 0.118003 0.047148
0.037242 0.123440 0.047080
0.037242 0.123440 0.047080
0.037242 0.123440 0.047080
0.037242 0.123440 0.047080
0.037242 0.123440 0.047080
0.037242 0.123440 0.047080
0.037242 0.123440 0.047080
0.037242 0.123440 0.047080
0.036827 0.121480 0.047144
0.036827 0.121480 0.047144
0.036827 0.121480 0.047144
0.036827 0.121480 0.047144
0.036827 0.121480 0.047144
0.037108 0.125019 0.047162
0.037108 0.125019 0.047162
0.037108 0.125019 0.047162
0.037108 0.125019 0.047162
0.037108 0.125019 0.047162
0.037199 0.128653 0.047076
0.037199 0.128653 0.047076
0.037199 0.128653 0.047076
0.037199 0.128653 0.047076
0.037199 0.128653 0.047076
0.037199 0.128653 0.047076
0.037199 0.128653 0.047076
0.037048 0.128527 0.047196
0.037048 0.128527 0.047196
0.037048 0.128527 0.047196
0.037048 0.128527 0.047196
0.037048 0.128527 0.047196
0.036571 0.133975 0.047083
0.036571 0.133975 0.047083
0.036571 0.133975 0.047083
0.036571 0.133975 0.047083
0.036571 0.133975 0.047083
0.036571 0.133975 0.047083
0.036571 0.133975 0.047083
0.036689 0.132075 0.047144
0.036689 0.132075 0.047144
0.036689 0.132075 0.047144
0.036689 0.132075 0.047144
0.036689 0.132075 0.047144
0.036689 0.132075 0.047144
0.035973 0.135522 0.047147
0.035973 0.135522 0.047147
0.035973 0.135522 0.047147
0.035973 0.135522 0.047147
0.035973 0.135522 0.047147
0.035973 0.135522 0.047147
0.032926 0.143968 0.047083
0.032926 0.143968 0.047083
0.032926 0.143968 0.047083
0.032926 0.143968 0.047083
0.032926 0.143968 0.047083
0.032926 0.143968 0.047083
0.032926 0.143968 0.047083
0.033581 0.142153 0.047148
0.033581 0.142153 0.047148
0.033581 0.142153 0.047148
0.033581 0.142153 0.047148
0.033581 0.142153 0.047148
0.033581 0.142153 0.047148
0.031928 0.145273 0.047144
0.031928 0.145273 0.047144
0.031928 0.145273 0.047144
0.031928 0.145273 0.047144
0.031928 0.145273 0.047144
0.031928 0.145273 0.047144
0.027812 0.151167 0.047080
0.027812 0.151167 0.047080
0.027812 0.151167 0.047080
0.027812 0.151167 0.047080
0.027812 0.151167 0.047080
0.027812 0.151167 0.047080
0.024001 0.154940 0.047083
0.024001 0.154940 0.047083
0.024001 0.154940 0.047083
0.024001 0.154940 0.047083
0.024001 0.154940 0.047083
0.024001 0.154940 0.047083
0.024001 0.154940 0.047083
0.025297 0.153487 0.047147
0.025297 0.153487 0.047147
0.025297 0.153487 0.047147
0.025297 0.153487 0.047147
0.025297 0.153487 0.047147
0.025297 0.153487 0.047147
0.027741 0.150971 0.047166
0.027741 0.150971 0.047166
0.027741 0.150971 0.047166
0.027741 0.150971 0.047166
0.027741 0.150971 0.047166
0.027741 0.150971 0.047166
0.018147 0.158964 0.047083
0.018147 0.158964 0.047083
0.018147 0.158964 0.047083
0.018147 0.158964 0.047083
0.018147 0.158964 0.047083
0.018147 0.158964 0.047083
0.018147 0.158964 0.047083
0.018147 0.158964 0.047083
0.022611 0.155763 0.047144
0.022611 0.155763 0.047144
0.022611 0.155763 0.047144
0.022611 0.155763 0.047144
0.022611 0.155763 0.047144
0.022611 0.155763 0.047144
0.019646 0.157816 0.047145
0.019646 0.157816 0.047145
0.019646 0.157816 0.047145
0.019646 0.157816 0.047145
0.016560 0.159542 0.047145
0.016560 0.159542 0.047145
0.016560 0.159542 0.047145
0.016560 0.159542 0.047145
0.016560 0.159542 0.047145
0.016560 0.159542 0.047145
0.013312 0.161114 0.047076
0.013312 0.161114 0.047076
0.013312 0.161114 0.047076
0.013312 0.161114 0.047076
0.013312 0.161114 0.047076
0.013312 0.161114 0.047076
0.008129 0.162754 0.047080
0.008129 0.162754 0.047080
0.008129 0.162754 0.047080
0.008129 0.162754 0.047080
0.008129 0.162754 0.047080
0.008129 0.162754 0.047080
0.008129 0.162754 0.047080
0.009989 0.162069 0.047145
0.009989 0.162069 0.047145
0.009989 0.162069 0.047145
0.009989 0.162069 0.047145
0.013365 0.160923 0.047197
0.013365 0.160923 0.047197
0.013365 0.160923 0.047197
0.013365 0.160923 0.047197
0.013365 0.160923 0.047197
0.006554 0.162841 0.047166
0.006554 0.162841 0.047166
0.006554 0.162841 0.047166
0.006554 0.162841 0.047166
0.006554 0.162841 0.047166
0.006554 0.162841 0.047166
-0.017438 0.159084 0.047149
-0.017438 0.159084 0.047149
-0.017438 0.159084 0.047149
-0.017438 0.159084 0.047149
-0.017438 0.159084 0.047149
-0.036831 0.131070 0.047145
-0.036831 0.131070 0.047145
-0.036831 0.131070 0.047145
-0.036831 0.131070 0.047145
-0.036831 0.131070 0.047145
-0.036687 0.120520 0.047145
-0.036687 0.120520 0.047145
-0.036687 0.120520 0.047145
-0.036687 0.120520 0.047145
-0.036687 0.120520 0.047145
-0.033660 0.110287 0.047076
-0.033660 0.110287 0.047076
-0.033660 0.110287 0.047076
-0.033660 0.110287 0.047076
-0.033660 0.110287 0.047076
-0.033660 0.110287 0.047076
-0.033660 0.110287 0.047076
-0.033571 0.110473 0.047197
-0.033571 0.110473 0.047197
-0.033571 0.110473 0.047197
-0.033571 0.110473 0.047197
-0.033571 0.110473 0.047197
-0.025264 0.099076 0.047145
-0.025264 0.099076 0.047145
-0.025264 0.099076 0.047145
-0.025264 0.099076 0.047145
-0.025264 0.099076 0.047145
-0.016604 0.093090 0.047164
-0.016604 0.093090 0.047164
-0.016604 0.093090 0.047164
-0.016604 0.093090 0.047164
-0.016604 0.093090 0.047164
-0.016604 0.093090 0.047164
0.020639 0.095198 0.047083
0.020639 0.095198 0.047083
0.020639 0.095198 0.047083
0.020639 0.095198 0.047083
0.020639 0.095198 0.047083
0.020502 0.095331 0.047145
0.020502 0.095331 0.047145
0.020502 0.095331 0.047145
0.020502 0.095331 0.047145
0.020502 0.095331 0.047145
0.020502 0.095331 0.047145
0.028547 0.102332 0.047076
0.028547 0.102332 0.047076
0.028547 0.102332 0.047076
0.028547 0.102332 0.047076
0.028547 0.102332 0.047076
0.028547 0.102332 0.047076
0.028547 0.102332 0.047076
0.028340 0.102333 0.047198
0.028340 0.102333 0.047198
0.028340 0.102333 0.047198
0.028340 0.102333 0.047198
0.028340 0.102333 0.047198
0.035063 0.139049 0.047080
0.035063 0.139049 0.047080
0.035063 0.139049 0.047080
0.035063 0.139049 0.047080
0.035063 0.139049 0.047080
0.035063 0.139049 0.047080
0.035063 0.139049 0.047080
0.034925 0.138904 0.047162
0.034925 0.138904 0.047162
0.034925 0.138904 0.047162
0.034925 0.138904 0.047162
0.030021 0.148390 0.047076
0.030021 0.148390 0.047076
0.030021 0.148390 0.047076
0.030021 0.148390 0.047076
0.030021 0.148390 0.047076
0.030021 0.148390 0.047076
0.030021 0.148390 0.047076
0.029967 0.148196 0.047196
0.029967 0.148196 0.047196
0.029967 0.148196 0.047196
0.029967 0.148196 0.047196
0.003105 0.163637 0.053028
0.003105 0.163637 0.053028
0.003105 0.163637 0.053028
0.003105 0.163637 0.053028
-0.000477 0.163783 0.052987
-0.000477 0.163783 0.052987
-0.000477 0.163783 0.052987
-0.000477 0.163783 0.052987
-0.000477 0.163783 0.052987
-0.007578 0.163017 0.052958
-0.007578 0.163017 0.052958
-0.007578 0.163017 0.052958
-0.007578 0.163017 0.052958
-0.007578 0.163017 0.052958
-0.020668 0.157578 0.052961
-0.020668 0.157578 0.052961
-0.020668 0.157578 0.052961
-0.020668 0.157578 0.052961
-0.020668 0.157578 0.052961
-0.036192 0.134580 0.053009
-0.036192 0.134580 0.053009
-0.036192 0.134580 0.053009
-0.036192 0.134580 0.053009
-0.036192 0.134580 0.053009
-0.036192 0.134580 0.053009
-0.035233 0.137970 0.052978
-0.035233 0.137970 0.052978
-0.035233 0.137970 0.052978
-0.035233 0.137970 0.052978
0.006719 0.162844 0.053057
0.006719 0.162844 0.053057
0.006719 0.162844 0.053057
0.006719 0.162844 0.053057
0.006719 0.162844 0.053057
0.006719 0.162844 0.053057
0.006719 0.162844 0.053057
0.027751 0.150951 0.052992
0.027751 0.150951 0.052992
0.027751 0.150951 0.052992
0.027751 0.150951 0.052992
0.027751 0.150951 0.052992
0.027751 0.150951 0.052992
0.033581 0.142139 0.053011
0.033581 0.142139 0.053011
0.033581 0.142139 0.053011
0.033581 0.142139 0.053011
0.033581 0.142139 0.053011
0.033581 0.142139 0.053011
0.030479 0.105083 0.053025
0.030479 0.105083 0.053025
0.030479 0.105083 0.053025
0.030479 0.105083 0.053025
0.030479 0.105083 0.053025
0.030479 0.105083 0.053025
0.030479 0.105083 0.053025
0.023310 0.097397 0.053011
0.023310 0.097397 0.053011
0.023310 0.097397 0.053011
0.023310 0.097397 0.053011
0.023310 0.097397 0.053011
0.014170 0.091945 0.053059
0.014170 0.091945 0.053059
0.014170 0.091945 0.053059
0.014170 0.091945 0.053059
0.014170 0.091945 0.053059
0.010762 0.090733 0.053057
0.010762 0.090733 0.053057
0.010762 0.090733 0.053057
0.010762 0.090733 0.053057
0.010762 0.090733 0.053057
0.010762 0.090733 0.053057
-0.013378 0.091673 0.052991
-0.013378 0.091673 0.052991
-0.013378 0.091673 0.052991
-0.013378 0.091673 0.052991
-0.013378 0.091673 0.052991
-0.013378 0.091673 0.052991
-0.022615 0.096839 0.053028
-0.022615 0.096839 0.053028
-0.022615 0.096839 0.053028
-0.022615 0.096839 0.053028
-0.022615 0.096839 0.053028
-0.029973 0.104385 0.053011
-0.029973 0.104385 0.053011
-0.029973 0.104385 0.053011
-0.029973 0.104385 0.053011
-0.029973 0.104385 0.053011
-0.029973 0.104385 0.053011
-0.035963 0.117092 0.052995
-0.035963 0.117092 0.052995
-0.035963 0.117092 0.052995
-0.035963 0.117092 0.052995
-0.035963 0.117092 0.052995
-0.004023 0.163236 0.053057
-0.004023 0.163236 0.053057
-0.004023 0.163236 0.053057
-0.004023 0.163236 0.053057
-0.004023 0.163236 0.053057
-0.004023 0.163236 0.053057
-0.004023 0.163236 0.053057
-0.010919 0.161798 0.053029
-0.010919 0.161798 0.053029
-0.010919 0.161798 0.053029
-0.010919 0.161798 0.053029
-0.010919 0.161798 0.053029
-0.010919 0.161798 0.053029
-0.010919 0.161798 0.053029
-0.014239 0.160587 0.053009
-0.014239 0.160587 0.053009
-0.014239 0.160587 0.053009
-0.014239 0.160587 0.053009
-0.014239 0.160587 0.053009
-0.014239 0.160587 0.053009
-0.020487 0.157257 0.052996
-0.020487 0.157257 0.052996
-0.020487 0.157257 0.052996
-0.020487 0.157257 0.052996
-0.020487 0.157257 0.052996
-0.023320 0.155180 0.052993
-0.023320 0.155180 0.052993
-0.023320 0.155180 0.052993
-0.023320 0.155180 0.052993
-0.023320 0.155180 0.052993
-0.023320 0.155180 0.052993
-0.025951 0.152838 0.052991
-0.025951 0.152838 0.052991
-0.025951 0.152838 0.052991
-0.025951 0.152838 0.052991
-0.025951 0.152838 0.052991
-0.025951 0.152838 0.052991
-0.030520 0.147447 0.053013
-0.030520 0.147447 0.053013
-0.030520 0.147447 0.053013
-0.030520 0.147447 0.053013
-0.030520 0.147447 0.053013
-0.030520 0.147447 0.053013
-0.032388 0.144449 0.053009
-0.032388 0.144449 0.053009
-0.032388 0.144449 0.053009
-0.032388 0.144449 0.053009
-0.032388 0.144449 0.053009
-0.032388 0.144449 0.053009
-0.036812 0.131115 0.053008
-0.036812 0.131115 0.053008
-0.036812 0.131115 0.053008
-0.036812 0.131115 0.053008
-0.036812 0.131115 0.053008
-0.036812 0.131115 0.053008
-0.037105 0.127457 0.052991
-0.037105 0.127457 0.052991
-0.037105 0.127457 0.052991
-0.037105 0.127457 0.052991
-0.036673 0.120552 0.052992
-0.036673 0.120552 0.052992
-0.036673 0.120552 0.052992
-0.036673 0.120552 0.052992
-0.036673 0.120552 0.052992
-0.036673 0.120552 0.052992
-0.037049 0.124032 0.052990
-0.037049 0.124032 0.052990
-0.037049 0.124032 0.052990
-0.037049 0.124032 0.052990
-0.037049 0.124032 0.052990
-0.037049 0.124032 0.052990
-0.033573 0.110424 0.053026
-0.033573 0.110424 0.053026
-0.033573 0.110424 0.053026
-0.033573 0.110424 0.053026
-0.033573 0.110424 0.053026
-0.033573 0.110424 0.053026
-0.034934 0.113687 0.053029
-0.034934 0.113687 0.053029
-0.034934 0.113687 0.053029
-0.034934 0.113687 0.053029
-0.034934 0.113687 0.053029
-0.034934 0.113687 0.053029
-0.031910 0.107336 0.052991
-0.031910 0.107336 0.052991
-0.031910 0.107336 0.052991
-0.031910 0.107336 0.052991
-0.031910 0.107336 0.052991
-0.025274 0.099112 0.052992
-0.025274 0.099112 0.052992
-0.025274 0.099112 0.052992
-0.025274 0.099112 0.052992
-0.025274 0.099112 0.052992
-0.025274 0.099112 0.052992
-0.027736 0.101635 0.052978
-0.027736 0.101635 0.052978
-0.027736 0.101635 0.052978
-0.027736 0.101635 0.052978
-0.027736 0.101635 0.052978
-0.016587 0.093090 0.052993
-0.016587 0.093090 0.052993
-0.016587 0.093090 0.052993
-0.016587 0.093090 0.052993
-0.016587 0.093090 0.052993
-0.016587 0.093090 0.052993
-0.019658 0.094808 0.052996
-0.019658 0.094808 0.052996
-0.019658 0.094808 0.052996
-0.019658 0.094808 0.052996
-0.019658 0.094808 0.052996
-0.010034 0.090541 0.053028
-0.010034 0.090541 0.053028
-0.010034 0.090541 0.053028
-0.010034 0.090541 0.053028
-0.010034 0.090541 0.053028
-0.003062 0.089305 0.052992
-0.003062 0.089305 0.052992
-0.003062 0.089305 0.052992
-0.003062 0.089305 0.052992
-0.003062 0.089305 0.052992
-0.006571 0.089743 0.053029
-0.006571 0.089743 0.053029
-0.006571 0.089743 0.053029
-0.006571 0.089743 0.053029
-0.006571 0.089743 0.053029
-0.006571 0.089743 0.053029
0.000435 0.089162 0.053028
0.000435 0.089162 0.053028
0.000435 0.089162 0.053028
0.000435 0.089162 0.053028
0.000435 0.089162 0.053028
0.000435 0.089162 0.053028
0.007489 0.089941 0.052993
0.007489 0.089941 0.052993
0.007489 0.089941 0.052993
0.007489 0.089941 0.052993
0.004014 0.089385 0.053013
0.004014 0.089385 0.053013
0.004014 0.089385 0.053013
0.004014 0.089385 0.053013
0.004014 0.089385 0.053013
0.004014 0.089385 0.053013
0.017409 0.093505 0.053009
0.017409 0.093505 0.053009
0.017409 0.093505 0.053009
0.017409 0.093505 0.053009
0.017409 0.093505 0.053009
0.020450 0.095317 0.052995
0.020450 0.095317 0.052995
0.020450 0.095317 0.052995
0.020450 0.095317 0.052995
0.020450 0.095317 0.052995
0.028361 0.102349 0.052993
0.028361 0.102349 0.052993
0.028361 0.102349 0.052993
0.028361 0.102349 0.052993
0.028361 0.102349 0.052993
0.025979 0.099755 0.053029
0.025979 0.099755 0.053029
0.025979 0.099755 0.053029
0.025979 0.099755 0.053029
0.025979 0.099755 0.053029
0.025979 0.099755 0.053029
0.032386 0.108140 0.053011
0.032386 0.108140 0.053011
0.032386 0.108140 0.053011
0.032386 0.108140 0.053011
0.035222 0.114600 0.052975
0.035222 0.114600 0.052975
0.035222 0.114600 0.052975
0.035222 0.114600 0.052975
0.035222 0.114600 0.052975
0.033967 0.111300 0.053013
0.033967 0.111300 0.053013
0.033967 0.111300 0.053013
0.033967 0.111300 0.053013
0.033967 0.111300 0.053013
0.033967 0.111300 0.053013
0.033967 0.111300 0.053013
0.036188 0.117990 0.053012
0.036188 0.117990 0.053012
0.036188 0.117990 0.053012
0.036188 0.117990 0.053012
0.036188 0.117990 0.053012
0.037105 0.125010 0.053009
0.037105 0.125010 0.053009
0.037105 0.125010 0.053009
0.037105 0.125010 0.053009
0.036828 0.121491 0.053029
0.036828 0.121491 0.053029
0.036828 0.121491 0.053029
0.036828 0.121491 0.053029
0.036828 0.121491 0.053029
0.036828 0.121491 0.053029
0.036828 0.121491 0.053029
0.037100 0.128377 0.053057
0.037100 0.128377 0.053057
0.037100 0.128377 0.053057
0.037100 0.128377 0.053057
0.037100 0.128377 0.053057
0.037100 0.128377 0.053057
0.037100 0.128377 0.053057
0.035958 0.135516 0.052993
0.035958 0.135516 0.052993
0.035958 0.135516 0.052993
0.035958 0.135516 0.052993
0.035958 0.135516 0.052993
0.035958 0.135516 0.052993
0.036673 0.132072 0.052997
0.036673 0.132072 0.052997
0.036673 0.132072 0.052997
0.036673 0.132072 0.052997
0.034927 0.138886 0.053008
0.034927 0.138886 0.053008
0.034927 0.138886 0.053008
0.034927 0.138886 0.053008
0.034927 0.138886 0.053008
0.034927 0.138886 0.053008
0.029961 0.148212 0.052993
0.029961 0.148212 0.052993
0.029961 0.148212 0.052993
0.029961 0.148212 0.052993
0.029961 0.148212 0.052993
0.029961 0.148212 0.052993
0.031905 0.145276 0.052996
0.031905 0.145276 0.052996
0.031905 0.145276 0.052996
0.031905 0.145276 0.052996
0.031905 0.145276 0.052996
0.025268 0.153523 0.053031
0.025268 0.153523 0.053031
0.025268 0.153523 0.053031
0.025268 0.153523 0.053031
0.025268 0.153523 0.053031
0.019672 0.157769 0.052975
0.019672 0.157769 0.052975
0.019672 0.157769 0.052975
0.019672 0.157769 0.052975
0.019672 0.157769 0.052975
0.019672 0.157769 0.052975
0.022561 0.155796 0.053026
0.022561 0.155796 0.053026
0.022561 0.155796 0.053026
0.022561 0.155796 0.053026
0.022561 0.155796 0.053026
0.022561 0.155796 0.053026
0.022561 0.155796 0.053026
0.016572 0.159503 0.052961
0.016572 0.159503 0.052961
0.016572 0.159503 0.052961
0.016572 0.159503 0.052961
0.009996 0.162064 0.053025
0.009996 0.162064 0.053025
0.009996 0.162064 0.053025
0.009996 0.162064 0.053025
0.009996 0.162064 0.053025
0.009996 0.162064 0.053025
0.013349 0.160938 0.052996
0.013349 0.160938 0.052996
0.013349 0.160938 0.052996
0.013349 0.160938 0.052996
0.013349 0.160938 0.052996
0.013349 0.160938 0.052996
0.003049 0.163294 0.052993
0.003049 0.163294 0.052993
0.003049 0.163294 0.052993
0.003049 0.163294 0.052993
-0.000462 0.163426 0.053013
-0.000462 0.163426 0.053013
-0.000462 0.163426 0.053013
-0.000462 0.163426 0.053013
-0.000462 0.163426 0.053013
-0.033956 0.141313 0.053009
-0.033956 0.141313 0.053009
-0.033956 0.141313 0.053009
-0.033956 0.141313 0.053009
-0.033956 0.141313 0.053009
-0.033956 0.141313 0.053009
-0.028421 0.150416 0.053092
-0.028421 0.150416 0.053092
-0.028421 0.150416 0.053092
-0.028421 0.150416 0.053092
-0.028421 0.150416 0.053092
-0.028364 0.150247 0.052995
-0.028364 0.150247 0.052995
-0.028364 0.150247 0.052995
-0.028364 0.150247 0.052995
-0.028364 0.150247 0.052995
-0.023358 0.155415 0.053101
-0.023358 0.155415 0.053101
-0.023358 0.155415 0.053101
-0.023358 0.155415 0.053101
-0.023358 0.155415 0.053101
-0.023358 0.155415 0.053101
-0.017423 0.159076 0.052992
-0.017423 0.159076 0.052992
-0.017423 0.159076 0.052992
-0.017423 0.159076 0.052992
-0.017423 0.159076 0.052992
-0.014236 0.160823 0.053095
-0.014236 0.160823 0.053095
-0.014236 0.160823 0.053095
-0.014236 0.160823 0.053095
-0.014236 0.160823 0.053095
-0.014236 0.160823 0.053095
-0.011011 0.162126 0.052994
-0.011011 0.162126 0.052994
-0.011011 0.162126 0.052994
-0.011011 0.162126 0.052994
-0.011011 0.162126 0.052994
-0.011011 0.162126 0.052994
-0.010900 0.161997 0.053090
-0.010900 0.161997 0.053090
-0.010900 0.161997 0.053090
-0.010900 0.161997 0.053090
-0.007444 0.162893 0.053095
-0.007444 0.162893 0.053095
-0.007444 0.162893 0.053095
-0.007444 0.162893 0.053095
-0.007444 0.162893 0.053095
-0.007444 0.162893 0.053095
-0.007444 0.162893 0.053095
-0.007479 0.162667 0.053011
-0.007479 0.162667 0.053011
-0.007479 0.162667 0.053011
-0.007479 0.162667 0.053011
-0.004017 0.163550 0.053028
-0.004017 0.163550 0.053028
-0.004017 0.163550 0.053028
-0.004017 0.163550 0.053028
-0.004017 0.163550 0.053028
-0.004017 0.163550 0.053028
-0.026213 0.153109 0.052943
-0.026213 0.153109 0.052943
-0.026213 0.153109 0.052943
-0.026213 0.153109 0.052943
-0.028664 0.150446 0.053007
-0.028664 0.150446 0.053007
-0.028664 0.150446 0.053007
-0.028664 0.150446 0.053007
-0.028664 0.150446 0.053007
-0.028664 0.150446 0.053007
-0.028664 0.150446 0.053007
-0.026038 0.153071 0.053102
-0.026038 0.153071 0.053102
-0.026038 0.153071 0.053102
-0.026038 0.153071 0.053102
-0.026038 0.153071 0.053102
-0.026038 0.153071 0.053102
-0.026038 0.153071 0.053102
0.001095 0.163607 0.053093
0.001095 0.163607 0.053093
0.001095 0.163607 0.053093
0.001095 0.163607 0.053093
0.001095 0.163607 0.053093
0.001095 0.163607 0.053093
0.001095 0.163607 0.053093
0.001095 0.163607 0.053093
-0.023539 0.155481 0.052958
-0.023539 0.155481 0.052958
-0.023539 0.155481 0.052958
-0.023539 0.155481 0.052958
-0.023539 0.155481 0.052958
-0.014363 0.160931 0.052958
-0.014363 0.160931 0.052958
-0.014363 0.160931 0.052958
-0.014363 0.160931 0.052958
-0.017616 0.159395 0.052958
-0.017616 0.159395 0.052958
-0.017616 0.159395 0.052958
-0.017616 0.159395 0.052958
-0.017616 0.159395 0.052958
-0.020485 0.157503 0.053101
-0.020485 0.157503 0.053101
-0.020485 0.157503 0.053101
-0.020485 0.157503 0.053101
-0.020485 0.157503 0.053101
-0.020485 0.157503 0.053101
-0.030642 0.147646 0.053095
-0.030642 0.147646 0.053095
-0.030642 0.147646 0.053095
-0.030642 0.147646 0.053095
-0.030642 0.147646 0.053095
-0.030642 0.147646 0.053095
-0.030642 0.147646 0.053095
-0.033377 0.143065 0.053094
-0.033377 0.143065 0.053094
-0.033377 0.143065 0.053094
-0.033377 0.143065 0.053094
-0.033377 0.143065 0.053094
-0.033377 0.143065 0.053094
-0.033377 0.143065 0.053094
-0.032680 0.144660 0.052991
-0.032680 0.144660 0.052991
-0.032680 0.144660 0.052991
-0.032680 0.144660 0.052991
-0.032680 0.144660 0.052991
-0.030813 0.147656 0.052961
-0.030813 0.147656 0.052961
-0.030813 0.147656 0.052961
-0.030813 0.147656 0.052961
-0.034307 0.141405 0.052990
-0.034307 0.141405 0.052990
-0.034307 0.141405 0.052990
-0.034307 0.141405 0.052990
-0.035334 0.138112 0.053092
-0.035334 0.138112 0.053092
-0.035334 0.138112 0.053092
-0.035334 0.138112 0.053092
-0.035334 0.138112 0.053092
-0.035334 0.138112 0.053092
-0.036747 0.132987 0.053094
-0.036747 0.132987 0.053094
-0.036747 0.132987 0.053094
-0.036747 0.132987 0.053094
-0.036747 0.132987 0.053094
-0.036747 0.132987 0.053094
-0.036747 0.132987 0.053094
-0.035564 0.138114 0.053011
-0.035564 0.138114 0.053011
-0.035564 0.138114 0.053011
-0.035564 0.138114 0.053011
-0.035564 0.138114 0.053011
-0.035564 0.138114 0.053011
-0.036529 0.134709 0.052991
-0.036529 0.134709 0.052991
-0.036529 0.134709 0.052991
-0.036529 0.134709 0.052991
-0.037265 0.127711 0.053096
-0.037265 0.127711 0.053096
-0.037265 0.127711 0.053096
-0.037265 0.127711 0.053096
-0.037265 0.127711 0.053096
-0.037265 0.127711 0.053096
-0.037265 0.127711 0.053096
-0.037231 0.124163 0.053096
-0.037231 0.124163 0.053096
-0.037231 0.124163 0.053096
-0.037231 0.124163 0.053096
-0.037231 0.124163 0.053096
-0.037231 0.124163 0.053096
-0.037461 0.127582 0.052993
-0.037461 0.127582 0.052993
-0.037461 0.127582 0.052993
-0.037461 0.127582 0.052993
-0.037461 0.127582 0.052993
-0.037413 0.124039 0.052995
-0.037413 0.124039 0.052995
-0.037413 0.124039 0.052995
-0.037413 0.124039 0.052995
-0.037413 0.124039 0.052995
-0.037413 0.124039 0.052995
-0.036188 0.117146 0.053101
-0.036188 0.117146 0.053101
-0.036188 0.117146 0.053101
-0.036188 0.117146 0.053101
-0.036188 0.117146 0.053101
-0.036188 0.117146 0.053101
-0.036188 0.117146 0.053101
-0.034735 0.112501 0.053089
-0.034735 0.112501 0.053089
-0.034735 0.112501 0.053089
-0.034735 0.112501 0.053089
-0.034735 0.112501 0.053089
-0.034735 0.112501 0.053089
-0.035267 0.113590 0.052978
-0.035267 0.113590 0.052978
-0.035267 0.113590 0.052978
-0.035267 0.113590 0.052978
-0.035267 0.113590 0.052978
-0.036317 0.116982 0.052958
-0.036317 0.116982 0.052958
-0.036317 0.116982 0.052958
-0.036317 0.116982 0.052958
-0.027899 0.101606 0.053092
-0.027899 0.101606 0.053092
-0.027899 0.101606 0.053092
-0.027899 0.101606 0.053092
-0.027899 0.101606 0.053092
-0.027899 0.101606 0.053092
-0.030178 0.104361 0.053094
-0.030178 0.104361 0.053094
-0.030178 0.104361 0.053094
-0.030178 0.104361 0.053094
-0.030178 0.104361 0.053094
-0.030178 0.104361 0.053094
-0.028015 0.101407 0.053011
-0.028015 0.101407 0.053011
-0.028015 0.101407 0.053011
-0.028015 0.101407 0.053011
-0.028015 0.101407 0.053011
-0.028015 0.101407 0.053011
-0.030236 0.104142 0.052990
-0.030236 0.104142 0.052990
-0.030236 0.104142 0.052990
-0.030236 0.104142 0.052990
-0.019856 0.094733 0.053096
-0.019856 0.094733 0.053096
-0.019856 0.094733 0.053096
-0.019856 0.094733 0.053096
-0.019856 0.094733 0.053096
-0.019856 0.094733 0.053096
-0.019856 0.094733 0.053096
-0.024167 0.097853 0.053095
-0.024167 0.097853 0.053095
-0.024167 0.097853 0.053095
-0.024167 0.097853 0.053095
-0.024167 0.097853 0.053095
-0.024167 0.097853 0.053095
-0.024167 0.097853 0.053095
-0.022769 0.096521 0.052990
-0.022769 0.096521 0.052990
-0.022769 0.096521 0.052990
-0.022769 0.096521 0.052990
-0.022769 0.096521 0.052990
-0.019835 0.094491 0.052990
-0.019835 0.094491 0.052990
-0.019835 0.094491 0.052990
-0.019835 0.094491 0.052990
-0.019835 0.094491 0.052990
-0.013536 0.091491 0.053102
-0.013536 0.091491 0.053102
-0.013536 0.091491 0.053102
-0.013536 0.091491 0.053102
-0.013536 0.091491 0.053102
-0.013536 0.091491 0.053102
-0.013536 0.091491 0.053102
-0.010127 0.090336 0.053087
-0.010127 0.090336 0.053087
-0.010127 0.090336 0.053087
-0.010127 0.090336 0.053087
-0.010127 0.090336 0.053087
-0.010127 0.090336 0.053087
-0.010090 0.090189 0.052958
-0.010090 0.090189 0.052958
-0.010090 0.090189 0.052958
-0.010090 0.090189 0.052958
-0.010090 0.090189 0.052958
-0.010090 0.090189 0.052958
-0.013484 0.091311 0.052942
-0.013484 0.091311 0.052942
-0.013484 0.091311 0.052942
-0.013484 0.091311 0.052942
-0.013484 0.091311 0.052942
-0.005353 0.089323 0.053092
-0.005353 0.089323 0.053092
-0.005353 0.089323 0.053092
-0.005353 0.089323 0.053092
-0.005353 0.089323 0.053092
-0.005353 0.089323 0.053092
-0.005353 0.089323 0.053092
-0.003145 0.088951 0.053007
-0.003145 0.088951 0.053007
-0.003145 0.088951 0.053007
-0.003145 0.088951 0.053007
-0.003145 0.088951 0.053007
-0.006628 0.089402 0.052978
-0.006628 0.089402 0.052978
-0.006628 0.089402 0.052978
-0.006628 0.089402 0.052978
-0.006628 0.089402 0.052978
0.000415 0.088939 0.053087
0.000415 0.088939 0.053087
0.000415 0.088939 0.053087
0.000415 0.088939 0.053087
0.000415 0.088939 0.053087
0.000492 0.088809 0.052958
0.000492 0.088809 0.052958
0.000492 0.088809 0.052958
0.000492 0.088809 0.052958
0.000492 0.088809 0.052958
0.007411 0.089750 0.053096
0.007411 0.089750 0.053096
0.007411 0.089750 0.053096
0.007411 0.089750 0.053096
0.007411 0.089750 0.053096
0.007411 0.089750 0.053096
0.003932 0.089161 0.053095
0.003932 0.089161 0.053095
0.003932 0.089161 0.053095
0.003932 0.089161 0.053095
0.003932 0.089161 0.053095
0.003932 0.089161 0.053095
0.007555 0.089586 0.052994
0.007555 0.089586 0.052994
0.007555 0.089586 0.052994
0.007555 0.089586 0.052994
0.007555 0.089586 0.052994
0.004053 0.089025 0.052958
0.004053 0.089025 0.052958
0.004053 0.089025 0.052958
0.004053 0.089025 0.052958
0.011070 0.090497 0.053023
0.011070 0.090497 0.053023
0.011070 0.090497 0.053023
0.011070 0.090497 0.053023
0.011070 0.090497 0.053023
0.011070 0.090497 0.053023
0.019141 0.094237 0.053096
0.019141 0.094237 0.053096
0.019141 0.094237 0.053096
0.019141 0.094237 0.053096
0.019141 0.094237 0.053096
0.019141 0.094237 0.053096
0.019141 0.094237 0.053096
0.019141 0.094237 0.053096
0.014422 0.091711 0.053023
0.014422 0.091711 0.053023
0.014422 0.091711 0.053023
0.014422 0.091711 0.053023
0.017592 0.093202 0.052995
0.017592 0.093202 0.052995
0.017592 0.093202 0.052995
0.017592 0.093202 0.052995
0.023386 0.097183 0.053095
0.023386 0.097183 0.053095
0.023386 0.097183 0.053095
0.023386 0.097183 0.053095
0.023386 0.097183 0.053095
0.023386 0.097183 0.053095
0.023386 0.097183 0.053095
0.027309 0.100829 0.053094
0.027309 0.100829 0.053094
0.027309 0.100829 0.053094
0.027309 0.100829 0.053094
0.027309 0.100829 0.053094
0.027309 0.100829 0.053094
0.027309 0.100829 0.053094
0.026204 0.099499 0.052995
0.026204 0.099499 0.052995
0.026204 0.099499 0.052995
0.026204 0.099499 0.052995
0.026204 0.099499 0.052995
0.023561 0.097133 0.052958
0.023561 0.097133 0.052958
0.023561 0.097133 0.052958
0.023561 0.097133 0.052958
0.032532 0.107960 0.053095
0.032532 0.107960 0.053095
0.032532 0.107960 0.053095
0.032532 0.107960 0.053095
0.032532 0.107960 0.053095
0.032532 0.107960 0.053095
0.032532 0.107960 0.053095
0.030673 0.104966 0.053087
0.030673 0.104966 0.053087
0.030673 0.104966 0.053087
0.030673 0.104966 0.053087
0.030673 0.104966 0.053087
0.030824 0.104953 0.052958
0.030824 0.104953 0.052958
0.030824 0.104953 0.052958
0.030824 0.104953 0.052958
0.032713 0.107980 0.052958
0.032713 0.107980 0.052958
0.032713 0.107980 0.052958
0.032713 0.107980 0.052958
0.035342 0.114454 0.053098
0.035342 0.114454 0.053098
0.035342 0.114454 0.053098
0.035342 0.114454 0.053098
0.035342 0.114454 0.053098
0.035342 0.114454 0.053098
0.035342 0.114454 0.053098
0.034088 0.111133 0.053094
0.034088 0.111133 0.053094
0.034088 0.111133 0.053094
0.034088 0.111133 0.053094
0.034287 0.111158 0.052995
0.034287 0.111158 0.052995
0.034287 0.111158 0.052995
0.034287 0.111158 0.052995
0.034287 0.111158 0.052995
0.034287 0.111158 0.052995
0.035564 0.114454 0.052991
0.035564 0.114454 0.052991
0.035564 0.114454 0.052991
0.035564 0.114454 0.052991
0.035564 0.114454 0.052991
0.036381 0.117868 0.053095
0.036381 0.117868 0.053095
0.036381 0.117868 0.053095
0.036381 0.117868 0.053095
0.036381 0.117868 0.053095
0.036381 0.117868 0.053095
0.036381 0.117868 0.053095
0.036549 0.117938 0.052958
0.036549 0.117938 0.052958
0.036549 0.117938 0.052958
0.036549 0.117938 0.052958
0.037318 0.124906 0.053095
0.037318 0.124906 0.053095
0.037318 0.124906 0.053095
0.037318 0.124906 0.053095
0.037318 0.124906 0.053095
0.037318 0.124906 0.053095
0.037318 0.124906 0.053095
0.037001 0.121383 0.053090
0.037001 0.121383 0.053090
0.037001 0.121383 0.053090
0.037001 0.121383 0.053090
0.037164 0.121431 0.052995
0.037164 0.121431 0.052995
0.037164 0.121431 0.052995
0.037164 0.121431 0.052995
0.037164 0.121431 0.052995
0.037164 0.121431 0.052995
0.037164 0.121431 0.052995
0.037470 0.124977 0.052958
0.037470 0.124977 0.052958
0.037470 0.124977 0.052958
0.037470 0.124977 0.052958
0.037470 0.124977 0.052958
0.037402 0.128615 0.053023
0.037402 0.128615 0.053023
0.037402 0.128615 0.053023
0.037402 0.128615 0.053023
0.037402 0.128615 0.053023
0.037402 0.128615 0.053023
0.037402 0.128615 0.053023
0.036894 0.131969 0.053101
0.036894 0.131969 0.053101
0.036894 0.131969 0.053101
0.036894 0.131969 0.053101
0.036894 0.131969 0.053101
0.036894 0.131969 0.053101
0.036188 0.135450 0.053101
0.036188 0.135450 0.053101
0.036188 0.135450 0.053101
0.036188 0.135450 0.053101
0.036188 0.135450 0.053101
0.036188 0.135450 0.053101
0.036188 0.135450 0.053101
0.037039 0.132105 0.052961
0.037039 0.132105 0.052961
0.037039 0.132105 0.052961
0.037039 0.132105 0.052961
0.037039 0.132105 0.052961
0.037039 0.132105 0.052961
0.036324 0.135587 0.052958
0.036324 0.135587 0.052958
0.036324 0.135587 0.052958
0.036324 0.135587 0.052958
0.032086 0.145269 0.053092
0.032086 0.145269 0.053092
0.032086 0.145269 0.053092
0.032086 0.145269 0.053092
0.032086 0.145269 0.053092
0.032086 0.145269 0.053092
0.033808 0.142160 0.053095
0.033808 0.142160 0.053095
0.033808 0.142160 0.053095
0.033808 0.142160 0.053095
0.033808 0.142160 0.053095
0.033808 0.142160 0.053095
0.032219 0.145438 0.053011
0.032219 0.145438 0.053011
0.032219 0.145438 0.053011
0.032219 0.145438 0.053011
0.032219 0.145438 0.053011
0.032219 0.145438 0.053011
0.033898 0.142320 0.052958
0.033898 0.142320 0.052958
0.033898 0.142320 0.052958
0.033898 0.142320 0.052958
0.027972 0.151015 0.053101
0.027972 0.151015 0.053101
0.027972 0.151015 0.053101
0.027972 0.151015 0.053101
0.027972 0.151015 0.053101
0.027972 0.151015 0.053101
0.027972 0.151015 0.053101
0.025466 0.153587 0.053090
0.025466 0.153587 0.053090
0.025466 0.153587 0.053090
0.025466 0.153587 0.053090
0.025466 0.153587 0.053090
0.025497 0.153777 0.052990
0.025497 0.153777 0.052990
0.025497 0.153777 0.052990
0.025497 0.153777 0.052990
0.025497 0.153777 0.052990
0.025497 0.153777 0.052990
0.028011 0.151221 0.052958
0.028011 0.151221 0.052958
0.028011 0.151221 0.052958
0.028011 0.151221 0.052958
0.019811 0.157851 0.053092
0.019811 0.157851 0.053092
0.019811 0.157851 0.053092
0.019811 0.157851 0.053092
0.019811 0.157851 0.053092
0.022767 0.155921 0.053087
0.022767 0.155921 0.053087
0.022767 0.155921 0.053087
0.022767 0.155921 0.053087
0.022767 0.155921 0.053087
0.022767 0.155921 0.053087
0.019909 0.158052 0.053007
0.019909 0.158052 0.053007
0.019909 0.158052 0.053007
0.019909 0.158052 0.053007
0.019909 0.158052 0.053007
0.019909 0.158052 0.053007
0.022800 0.156060 0.052961
0.022800 0.156060 0.052961
0.022800 0.156060 0.052961
0.022800 0.156060 0.052961
0.022800 0.156060 0.052961
0.016707 0.159579 0.053091
0.016707 0.159579 0.053091
0.016707 0.159579 0.053091
0.016707 0.159579 0.053091
0.016707 0.159579 0.053091
0.016707 0.159579 0.053091
0.016707 0.159579 0.053091
0.016709 0.159847 0.053007
0.016709 0.159847 0.053007
0.016709 0.159847 0.053007
0.016709 0.159847 0.053007
0.016709 0.159847 0.053007
0.013495 0.161044 0.053092
0.013495 0.161044 0.053092
0.013495 0.161044 0.053092
0.013495 0.161044 0.053092
0.013495 0.161044 0.053092
0.013495 0.161044 0.053092
0.010127 0.162243 0.053089
0.010127 0.162243 0.053089
0.010127 0.162243 0.053089
0.010127 0.162243 0.053089
0.010127 0.162243 0.053089
0.010127 0.162243 0.053089
0.013495 0.161259 0.053011
0.013495 0.161259 0.053011
0.013495 0.161259 0.053011
0.013495 0.161259 0.053011
0.013495 0.161259 0.053011
0.010127 0.162394 0.052974
0.010127 0.162394 0.052974
0.010127 0.162394 0.052974
0.010127 0.162394 0.052974
0.006566 0.163192 0.053023
0.006566 0.163192 0.053023
0.006566 0.163192 0.053023
0.006566 0.163192 0.053023
0.006566 0.163192 0.053023
0.006566 0.163192 0.053023
0.006566 0.163192 0.053023
-0.017426 0.159309 0.053101
-0.017426 0.159309 0.053101
-0.017426 0.159309 0.053101
-0.017426 0.159309 0.053101
-0.017426 0.159309 0.053101
-0.017426 0.159309 0.053101
-0.037163 0.131198 0.052991
-0.037163 0.131198 0.052991
-0.037163 0.131198 0.052991
-0.037163 0.131198 0.052991
-0.037163 0.131198 0.052991
-0.036859 0.120633 0.053096
-0.036859 0.120633 0.053096
-0.036859 0.120633 0.053096
-0.036859 0.120633 0.053096
-0.036859 0.120633 0.053096
-0.036859 0.120633 0.053096
-0.037039 0.120530 0.052991
-0.037039 0.120530 0.052991
-0.037039 0.120530 0.052991
-0.037039 0.120530 0.052991
-0.037039 0.120530 0.052991
-0.033913 0.110329 0.052991
-0.033913 0.110329 0.052991
-0.033913 0.110329 0.052991
-0.033913 0.110329 0.052991
-0.033913 0.110329 0.052991
-0.032113 0.107340 0.053096
-0.032113 0.107340 0.053096
-0.032113 0.107340 0.053096
-0.032113 0.107340 0.053096
-0.032113 0.107340 0.053096
-0.032113 0.107340 0.053096
-0.032113 0.107340 0.053096
-0.032242 0.107177 0.052991
-0.032242 0.107177 0.052991
-0.032242 0.107177 0.052991
-0.032242 0.107177 0.052991
-0.032242 0.107177 0.052991
-0.025559 0.098886 0.053007
-0.025559 0.098886 0.053007
-0.025559 0.098886 0.053007
-0.025559 0.098886 0.053007
-0.016766 0.092988 0.053096
-0.016766 0.092988 0.053096
-0.016766 0.092988 0.053096
-0.016766 0.092988 0.053096
-0.016766 0.092988 0.053096
-0.016766 0.092988 0.053096
-0.016755 0.092770 0.052995
-0.016755 0.092770 0.052995
-0.016755 0.092770 0.052995
-0.016755 0.092770 0.052995
-0.016755 0.092770 0.052995
0.020633 0.095003 0.052991
0.020633 0.095003 0.052991
0.020633 0.095003 0.052991
0.020633 0.095003 0.052991
0.020633 0.095003 0.052991
0.028598 0.102073 0.053007
0.028598 0.102073 0.053007
0.028598 0.102073 0.053007
0.028598 0.102073 0.053007
0.028598 0.102073 0.053007
0.035136 0.138844 0.053094
0.035136 0.138844 0.053094
0.035136 0.138844 0.053094
0.035136 0.138844 0.053094
0.035136 0.138844 0.053094
0.035277 0.138972 0.052991
0.035277 0.138972 0.052991
0.035277 0.138972 0.052991
0.035277 0.138972 0.052991
0.035277 0.138972 0.052991
0.035277 0.138972 0.052991
0.035277 0.138972 0.052991
0.030195 0.148244 0.053101
0.030195 0.148244 0.053101
0.030195 0.148244 0.053101
0.030195 0.148244 0.053101
0.030195 0.148244 0.053101
0.030195 0.148244 0.053101
0.030270 0.148422 0.052958
0.030270 0.148422 0.052958
0.030270 0.148422 0.052958
0.030270 0.148422 0.052958
0.030270 0.148422 0.052958
0.030270 0.148422 0.052958
-0.037106 0.126298 0.053587
-0.037106 0.126298 0.053587
-0.037106 0.126298 0.053587
-0.037106 0.126298 0.053587
-0.036775 0.121353 0.053587
-0.036775 0.121353 0.053587
-0.036775 0.121353 0.053587
-0.035788 0.116495 0.053587
-0.035788 0.116495 0.053587
-0.035788 0.116495 0.053587
-0.035788 0.116495 0.053587
-0.034162 0.111812 0.053587
-0.034162 0.111812 0.053587
-0.034162 0.111812 0.053587
-0.031926 0.107388 0.053587
-0.031926 0.107388 0.053587
-0.031926 0.107388 0.053587
-0.029121 0.103302 0.053587
-0.029121 0.103302 0.053587
-0.029121 0.103302 0.053587
-0.029121 0.103302 0.053587
-0.025796 0.099625 0.053587
-0.025796 0.099625 0.053587
-0.025796 0.099625 0.053587
-0.022011 0.096425 0.053587
-0.022011 0.096425 0.053587
-0.022011 0.096425 0.053587
-0.022011 0.096425 0.053587
-0.017833 0.093758 0.053587
-0.017833 0.093758 0.053587
-0.017833 0.093758 0.053587
-0.013336 0.091671 0.053587
-0.013336 0.091671 0.053587
-0.013336 0.091671 0.053587
-0.008602 0.090203 0.053587
-0.008602 0.090203 0.053587
-0.008602 0.090203 0.053587
-0.008602 0.090203 0.053587
-0.003714 0.089378 0.053587
-0.003714 0.089378 0.053587
-0.003714 0.089378 0.053587
0.001240 0.089213 0.053587
0.001240 0.089213 0.053587
0.001240 0.089213 0.053587
0.001240 0.089213 0.053587
0.006172 0.089709 0.053587
0.006172 0.089709 0.053587
0.006172 0.089709 0.053587
0.010994 0.090858 0.053587
0.010994 0.090858 0.053587
0.015619 0.092640 0.053587
0.015619 0.092640 0.053587
0.015619 0.092640 0.053587
0.015619 0.092640 0.053587
0.019966 0.095022 0.053587
0.019966 0.095022 0.053587
0.019966 0.095022 0.053587
0.023957 0.097962 0.053587
0.023957 0.097962 0.053587
0.023957 0.097962 0.053587
0.023957 0.097962 0.053587
0.027520 0.101408 0.053587
0.027520 0.101408 0.053587
0.027520 0.101408 0.053587
0.030592 0.105298 0.053587
0.030592 0.105298 0.053587
0.030592 0.105298 0.053587
0.033118 0.109563 0.053587
0.033118 0.109563 0.053587
0.033118 0.109563 0.053587
0.033118 0.109563 0.053587
0.035053 0.114127 0.053587
0.035053 0.114127 0.053587
0.035053 0.114127 0.053587
0.036363 0.118907 0.053587
0.036363 0.118907 0.053587
0.036363 0.118907 0.053587
0.036363 0.118907 0.053587
0.037023 0.123820 0.053587
0.037023 0.123820 0.053587
0.037023 0.123820 0.053587
0.037023 0.128777 0.053587
0.037023 0.128777 0.053587
0.036363 0.133689 0.053587
0.036363 0.133689 0.053587
0.036363 0.133689 0.053587
0.036363 0.133689 0.053587
0.035053 0.138470 0.053587
0.035053 0.138470 0.053587
0.035053 0.138470 0.053587
0.033118 0.143034 0.053587
0.033118 0.143034 0.053587
0.033118 0.143034 0.053587
0.033118 0.143034 0.053587
0.030592 0.147299 0.053587
0.030592 0.147299 0.053587
0.030592 0.147299 0.053587
0.027520 0.151189 0.053587
0.027520 0.151189 0.053587
0.027520 0.151189 0.053587
0.023957 0.154635 0.053587
0.023957 0.154635 0.053587
0.023957 0.154635 0.053587
0.023957 0.154635 0.053587
0.019966 0.157575 0.053587
0.019966 0.157575 0.053587
0.019966 0.157575 0.053587
0.015619 0.159957 0.053587
0.015619 0.159957 0.053587
0.015619 0.159957 0.053587
0.015619 0.159957 0.053587
0.010994 0.161739 0.053587
0.010994 0.161739 0.053587
0.010994 0.161739 0.053587
0.006172 0.162888 0.053587
0.006172 0.162888 0.053587
0.006172 0.162888 0.053587
0.001240 0.163384 0.053587
0.001240 0.163384 0.053587
0.001240 0.163384 0.053587
0.001240 0.163384 0.053587
-0.003714 0.163218 0.053587
-0.003714 0.163218 0.053587
-0.003714 0.163218 0.053587
-0.008602 0.162394 0.053587
-0.008602 0.162394 0.053587
-0.008602 0.162394 0.053587
-0.008602 0.162394 0.053587
-0.013336 0.160925 0.053587
-0.013336 0.160925 0.053587
-0.013336 0.160925 0.053587
-0.017833 0.158839 0.053587
-0.017833 0.158839 0.053587
-0.017833 0.158839 0.053587
-0.022011 0.156171 0.053587
-0.022011 0.156171 0.053587
-0.022011 0.156171 0.053587
-0.022011 0.156171 0.053587
-0.025796 0.152971 0.053587
-0.025796 0.152971 0.053587
-0.025796 0.152971 0.053587
-0.029121 0.149295 0.053587
-0.029121 0.149295 0.053587
-0.029121 0.149295 0.053587
-0.029121 0.149295 0.053587
-0.031926 0.145208 0.053587
-0.031926 0.145208 0.053587
-0.031926 0.145208 0.053587
-0.034162 0.140784 0.053587
-0.034162 0.140784 0.053587
-0.034162 0.140784 0.053587
-0.035788 0.136102 0.053587
-0.035788 0.136102 0.053587
-0.035788 0.136102 0.053587
-0.035788 0.136102 0.053587
-0.036775 0.131244 0.053587
-0.036775 0.131244 0.053587
-0.036775 0.131244 0.053587
-0.000000 0.157298 -0.050015
-0.000000 0.157298 -0.050015
-0.000000 0.157298 -0.050015
-0.000000 0.157298 -0.050015
-0.000000 0.157298 -0.050015
-0.000000 0.157298 -0.050015
-0.000000 0.157298 -0.050015
-0.000000 0.157298 -0.050015
-0.000000 0.157298 -0.050015
-0.000000 0.157298 -0.050015
-0.000000 0.157298 -0.050015
-0.001112 0.157923 -0.050743
-0.001112 0.157923 -0.050743
-0.001112 0.157923 -0.050743
-0.001112 0.157923 -0.050743
-0.001112 0.157923 -0.050743
-0.001112 0.157923 -0.050743
-0.000518 0.158480 -0.050742
-0.000518 0.158480 -0.050742
-0.000518 0.158480 -0.050742
-0.000518 0.158480 -0.050742
-0.000518 0.158480 -0.050742
0.000415 0.158523 -0.050742
0.000415 0.158523 -0.050742
0.000415 0.158523 -0.050742
0.001040 0.158020 -0.050742
0.001040 0.158020 -0.050742
0.001040 0.158020 -0.050742
0.001040 0.158020 -0.050742
0.001274 0.157425 -0.050741
0.001274 0.157425 -0.050741
0.001274 0.157425 -0.050741
0.001274 0.157425 -0.050741
0.001145 0.156759 -0.050743
0.001145 0.156759 -0.050743
0.001145 0.156759 -0.050743
0.001145 0.156759 -0.050743
0.001145 0.156759 -0.050743
0.000748 0.156259 -0.050741
0.000748 0.156259 -0.050741
0.000748 0.156259 -0.050741
0.000748 0.156259 -0.050741
0.000013 0.156023 -0.050743
0.000013 0.156023 -0.050743
0.000013 0.156023 -0.050743
0.000013 0.156023 -0.050743
0.000013 0.156023 -0.050743
0.000013 0.156023 -0.050743
-0.000614 0.156185 -0.050742
-0.000614 0.156185 -0.050742
-0.000614 0.156185 -0.050742
-0.001039 0.156575 -0.050742
-0.001039 0.156575 -0.050742
-0.001039 0.156575 -0.050742
-0.001039 0.156575 -0.050742
-0.001274 0.157170 -0.050741
-0.001274 0.157170 -0.050741
-0.001274 0.157170 -0.050741
-0.001274 0.157170 -0.050741
0.026846 0.110799 -0.050015
0.026846 0.110799 -0.050015
0.026846 0.110799 -0.050015
0.026846 0.110799 -0.050015
0.026846 0.110799 -0.050015
0.026846 0.110799 -0.050015
0.026846 0.110799 -0.050015
0.026846 0.110799 -0.050015
0.026846 0.110799 -0.050015
0.026846 0.110799 -0.050015
0.026846 0.110799 -0.050015
0.026846 0.110799 -0.050015
0.025702 0.111338 -0.050742
0.025702 0.111338 -0.050742
0.025702 0.111338 -0.050742
0.025702 0.111338 -0.050742
0.026090 0.111831 -0.050743
0.026090 0.111831 -0.050743
0.026090 0.111831 -0.050743
0.026742 0.112060 -0.050742
0.026742 0.112060 -0.050742
0.026742 0.112060 -0.050742
0.026742 0.112060 -0.050742
0.026742 0.112060 -0.050742
0.027373 0.111966 -0.050741
0.027373 0.111966 -0.050741
0.027373 0.111966 -0.050741
0.027373 0.111966 -0.050741
0.027943 0.111451 -0.050743
0.027943 0.111451 -0.050743
0.027943 0.111451 -0.050743
0.027943 0.111451 -0.050743
0.027943 0.111451 -0.050743
0.027943 0.111451 -0.050743
0.028117 0.110822 -0.050742
0.028117 0.110822 -0.050742
0.028117 0.110822 -0.050742
0.028117 0.110822 -0.050742
0.027992 0.110260 -0.050742
0.027992 0.110260 -0.050742
0.027992 0.110260 -0.050742
0.027992 0.110260 -0.050742
0.027992 0.110260 -0.050742
0.027593 0.109759 -0.050741
0.027593 0.109759 -0.050741
0.027593 0.109759 -0.050741
0.027593 0.109759 -0.050741
0.026952 0.109537 -0.050742
0.026952 0.109537 -0.050742
0.026952 0.109537 -0.050742
0.026952 0.109537 -0.050742
0.026952 0.109537 -0.050742
0.026952 0.109537 -0.050742
0.026319 0.109632 -0.050741
0.026319 0.109632 -0.050741
0.026319 0.109632 -0.050741
0.026319 0.109632 -0.050741
0.025786 0.110103 -0.050742
0.025786 0.110103 -0.050742
0.025786 0.110103 -0.050742
0.025786 0.110103 -0.050742
0.025786 0.110103 -0.050742
0.025786 0.110103 -0.050742
0.025574 0.110713 -0.050742
0.025574 0.110713 -0.050742
0.025574 0.110713 -0.050742
0.000948 0.156195 -0.050742
0.000948 0.156195 -0.050742
0.000948 0.156195 -0.050742
0.000948 0.156195 -0.050742
-0.000481 0.155925 -0.050742
-0.000481 0.155925 -0.050742
-0.000481 0.155925 -0.050742
-0.000481 0.155925 -0.050742
-0.001430 0.157028 -0.050742
-0.001430 0.157028 -0.050742
-0.001430 0.157028 -0.050742
-0.001430 0.157028 -0.050742
-0.000948 0.158401 -0.050742
-0.000948 0.158401 -0.050742
-0.000948 0.158401 -0.050742
-0.000948 0.158401 -0.050742
0.001430 0.157567 -0.050742
0.001430 0.157567 -0.050742
0.001430 0.157567 -0.050742
0.001430 0.157567 -0.050742
0.000481 0.158671 -0.050742
0.000481 0.158671 -0.050742
0.000481 0.158671 -0.050742
-0.026846 0.110799 -0.050015
-0.026846 0.110799 -0.050015
-0.026846 0.110799 -0.050015
-0.026846 0.110799 -0.050015
-0.026846 0.110799 -0.050015
-0.026846 0.110799 -0.050015
-0.026846 0.110799 -0.050015
-0.026846 0.110799 -0.050015
-0.026846 0.110799 -0.050015
-0.026846 0.110799 -0.050015
-0.026846 0.110799 -0.050015
-0.028072 0.111114 -0.050741
-0.028072 0.111114 -0.050741
-0.028072 0.111114 -0.050741
-0.028072 0.111114 -0.050741
-0.027764 0.111692 -0.050742
-0.027764 0.111692 -0.050742
-0.027764 0.111692 -0.050742
-0.027179 0.112019 -0.050741
-0.027179 0.112019 -0.050741
-0.027179 0.112019 -0.050741
-0.027179 0.112019 -0.050741
-0.027179 0.112019 -0.050741
-0.026529 0.112039 -0.050742
-0.026529 0.112039 -0.050742
-0.026529 0.112039 -0.050742
-0.025818 0.111547 -0.050739
-0.025818 0.111547 -0.050739
-0.025818 0.111547 -0.050739
-0.025818 0.111547 -0.050739
-0.025818 0.111547 -0.050739
-0.025818 0.111547 -0.050739
-0.025576 0.110820 -0.050742
-0.025576 0.110820 -0.050742
-0.025576 0.110820 -0.050742
-0.025702 0.110259 -0.050742
-0.025702 0.110259 -0.050742
-0.025702 0.110259 -0.050742
-0.025702 0.110259 -0.050742
-0.026094 0.109763 -0.050742
-0.026094 0.109763 -0.050742
-0.026094 0.109763 -0.050742
-0.026829 0.109523 -0.050743
-0.026829 0.109523 -0.050743
-0.026829 0.109523 -0.050743
-0.026829 0.109523 -0.050743
-0.026829 0.109523 -0.050743
-0.027611 0.109758 -0.050742
-0.027611 0.109758 -0.050742
-0.027611 0.109758 -0.050742
-0.027611 0.109758 -0.050742
-0.028079 0.110451 -0.050742
-0.028079 0.110451 -0.050742
-0.028079 0.110451 -0.050742
0.025417 0.110529 -0.050742
0.025417 0.110529 -0.050742
0.025417 0.110529 -0.050742
0.025417 0.110529 -0.050742
0.025898 0.111902 -0.050742
0.025898 0.111902 -0.050742
0.025898 0.111902 -0.050742
0.027328 0.112171 -0.050742
0.027328 0.112171 -0.050742
0.027328 0.112171 -0.050742
0.027328 0.112171 -0.050742
0.028276 0.111068 -0.050742
0.028276 0.111068 -0.050742
0.028276 0.111068 -0.050742
0.028276 0.111068 -0.050742
0.026365 0.109426 -0.050742
0.026365 0.109426 -0.050742
0.026365 0.109426 -0.050742
0.026365 0.109426 -0.050742
0.027795 0.109695 -0.050742
0.027795 0.109695 -0.050742
0.027795 0.109695 -0.050742
0.027795 0.109695 -0.050742
0.001430 0.157567 -0.051442
0.001430 0.157567 -0.051442
0.001430 0.157567 -0.051442
0.001430 0.157567 -0.051442
0.000948 0.156195 -0.051442
0.000948 0.156195 -0.051442
0.000948 0.156195 -0.051442
0.000948 0.156195 -0.051442
0.000948 0.156195 -0.051442
0.000948 0.156195 -0.051442
0.000948 0.156195 -0.051442
-0.000481 0.155925 -0.051442
-0.000481 0.155925 -0.051442
-0.000481 0.155925 -0.051442
-0.000481 0.155925 -0.051442
-0.000481 0.155925 -0.051442
-0.001430 0.157028 -0.051442
-0.001430 0.157028 -0.051442
-0.001430 0.157028 -0.051442
-0.001430 0.157028 -0.051442
-0.001430 0.157028 -0.051442
-0.001430 0.157028 -0.051442
-0.001430 0.157028 -0.051442
-0.000948 0.158401 -0.051442
-0.000948 0.158401 -0.051442
-0.000948 0.158401 -0.051442
-0.000948 0.158401 -0.051442
0.000481 0.158671 -0.051442
0.000481 0.158671 -0.051442
0.000481 0.158671 -0.051442
0.000481 0.158671 -0.051442
0.000481 0.158671 -0.051442
0.000481 0.158671 -0.051442
-0.026365 0.112171 -0.050742
-0.026365 0.112171 -0.050742
-0.026365 0.112171 -0.050742
-0.025417 0.111068 -0.050742
-0.025417 0.111068 -0.050742
-0.025417 0.111068 -0.050742
-0.025898 0.109695 -0.050742
-0.025898 0.109695 -0.050742
-0.025898 0.109695 -0.050742
-0.027328 0.109426 -0.050742
-0.027328 0.109426 -0.050742
-0.027328 0.109426 -0.050742
-0.027795 0.111902 -0.050742
-0.027795 0.111902 -0.050742
-0.027795 0.111902 -0.050742
-0.028276 0.110529 -0.050742
-0.028276 0.110529 -0.050742
-0.028276 0.110529 -0.050742
0.025417 0.110529 -0.051442
0.025417 0.110529 -0.051442
0.025417 0.110529 -0.051442
0.025417 0.110529 -0.051442
0.025417 0.110529 -0.051442
0.026365 0.109426 -0.051442
0.026365 0.109426 -0.051442
0.026365 0.109426 -0.051442
0.026365 0.109426 -0.051442
0.026365 0.109426 -0.051442
0.026365 0.109426 -0.051442
0.025898 0.111902 -0.051442
0.025898 0.111902 -0.051442
0.025898 0.111902 -0.051442
0.025898 0.111902 -0.051442
0.025898 0.111902 -0.051442
0.027328 0.112171 -0.051442
0.027328 0.112171 -0.051442
0.027328 0.112171 -0.051442
0.027328 0.112171 -0.051442
0.028276 0.111068 -0.051442
0.028276 0.111068 -0.051442
0.028276 0.111068 -0.051442
0.028276 0.111068 -0.051442
0.028276 0.111068 -0.051442
0.028276 0.111068 -0.051442
0.027795 0.109695 -0.051442
0.027795 0.109695 -0.051442
0.027795 0.109695 -0.051442
0.027795 0.109695 -0.051442
0.027795 0.109695 -0.051442
0.027795 0.109695 -0.051442
-0.001889 0.157063 -0.051440
-0.001889 0.157063 -0.051440
-0.001889 0.157063 -0.051440
-0.001889 0.157063 -0.051440
-0.001889 0.157063 -0.051440
-0.001889 0.157063 -0.051440
-0.001889 0.157063 -0.051440
-0.000206 0.159208 -0.051434
-0.000206 0.159208 -0.051434
-0.000206 0.159208 -0.051434
-0.000206 0.159208 -0.051434
-0.000206 0.159208 -0.051434
-0.000206 0.159208 -0.051434
0.001032 0.158917 -0.051435
0.001032 0.158917 -0.051435
0.001032 0.158917 -0.051435
0.001032 0.158917 -0.051435
0.001032 0.158917 -0.051435
0.001032 0.158917 -0.051435
-0.000428 0.155421 -0.051433
-0.000428 0.155421 -0.051433
-0.000428 0.155421 -0.051433
-0.000428 0.155421 -0.051433
-0.001062 0.155703 -0.051435
-0.001062 0.155703 -0.051435
-0.001062 0.155703 -0.051435
-0.001062 0.155703 -0.051435
-0.001062 0.155703 -0.051435
-0.001062 0.155703 -0.051435
0.001545 0.156174 -0.051438
0.001545 0.156174 -0.051438
0.001545 0.156174 -0.051438
0.001545 0.156174 -0.051438
0.001545 0.156174 -0.051438
0.001545 0.156174 -0.051438
0.001515 0.158482 -0.051433
0.001515 0.158482 -0.051433
0.001515 0.158482 -0.051433
0.001515 0.158482 -0.051433
0.001515 0.158482 -0.051433
0.001849 0.157525 -0.051440
0.001849 0.157525 -0.051440
0.001849 0.157525 -0.051440
0.001849 0.157525 -0.051440
0.001849 0.157525 -0.051440
-0.001242 0.158705 -0.051441
-0.001242 0.158705 -0.051441
-0.001242 0.158705 -0.051441
-0.001242 0.158705 -0.051441
-0.001242 0.158705 -0.051441
0.000267 0.155399 -0.051435
0.000267 0.155399 -0.051435
0.000267 0.155399 -0.051435
0.000267 0.155399 -0.051435
0.000267 0.155399 -0.051435
0.000267 0.155399 -0.051435
-0.027795 0.111902 -0.051442
-0.027795 0.111902 -0.051442
-0.027795 0.111902 -0.051442
-0.027795 0.111902 -0.051442
-0.027795 0.111902 -0.051442
-0.026365 0.112171 -0.051442
-0.026365 0.112171 -0.051442
-0.026365 0.112171 -0.051442
-0.026365 0.112171 -0.051442
-0.026365 0.112171 -0.051442
-0.026365 0.112171 -0.051442
-0.026365 0.112171 -0.051442
-0.025417 0.111068 -0.051442
-0.025417 0.111068 -0.051442
-0.025417 0.111068 -0.051442
-0.025417 0.111068 -0.051442
-0.025417 0.111068 -0.051442
-0.025898 0.109695 -0.051442
-0.025898 0.109695 -0.051442
-0.025898 0.109695 -0.051442
-0.025898 0.109695 -0.051442
-0.025898 0.109695 -0.051442
-0.025898 0.109695 -0.051442
-0.025898 0.109695 -0.051442
-0.027328 0.109426 -0.051442
-0.027328 0.109426 -0.051442
-0.027328 0.109426 -0.051442
-0.027328 0.109426 -0.051442
-0.027328 0.109426 -0.051442
-0.028276 0.110529 -0.051442
-0.028276 0.110529 -0.051442
-0.028276 0.110529 -0.051442
-0.028276 0.110529 -0.051442
-0.028276 0.110529 -0.051442
0.028735 0.111034 -0.051440
0.028735 0.111034 -0.051440
0.028735 0.111034 -0.051440
0.028735 0.111034 -0.051440
0.028735 0.111034 -0.051440
0.028735 0.111034 -0.051440
0.028735 0.111034 -0.051440
0.025017 0.111058 -0.051440
0.025017 0.111058 -0.051440
0.025017 0.111058 -0.051440
0.025017 0.111058 -0.051440
0.025017 0.111058 -0.051440
0.025017 0.111058 -0.051440
0.025017 0.111058 -0.051440
0.028214 0.109530 -0.051439
0.028214 0.109530 -0.051439
0.028214 0.109530 -0.051439
0.028214 0.109530 -0.051439
0.028214 0.109530 -0.051439
0.025568 0.112235 -0.051435
0.025568 0.112235 -0.051435
0.025568 0.112235 -0.051435
0.025568 0.112235 -0.051435
0.025568 0.112235 -0.051435
0.025568 0.112235 -0.051435
0.025180 0.109976 -0.051440
0.025180 0.109976 -0.051440
0.025180 0.109976 -0.051440
0.025180 0.109976 -0.051440
0.025180 0.109976 -0.051440
0.026790 0.112672 -0.051441
0.026790 0.112672 -0.051441
0.026790 0.112672 -0.051441
0.026790 0.112672 -0.051441
0.026790 0.112672 -0.051441
0.026790 0.112672 -0.051441
0.026790 0.112672 -0.051441
0.027273 0.108932 -0.051437
0.027273 0.108932 -0.051437
0.027273 0.108932 -0.051437
0.027273 0.108932 -0.051437
0.027273 0.108932 -0.051437
0.027273 0.108932 -0.051437
0.025937 0.109091 -0.051433
0.025937 0.109091 -0.051433
0.025937 0.109091 -0.051433
0.025937 0.109091 -0.051433
0.025937 0.109091 -0.051433
0.025937 0.109091 -0.051433
0.025937 0.109091 -0.051433
0.028265 0.112122 -0.051433
0.028265 0.112122 -0.051433
0.028265 0.112122 -0.051433
0.028265 0.112122 -0.051433
0.028265 0.112122 -0.051433
0.028265 0.112122 -0.051433
-0.002696 0.157766 -0.050676
-0.002696 0.157766 -0.050676
-0.002696 0.157766 -0.050676
-0.002696 0.157766 -0.050676
-0.002696 0.157766 -0.050676
-0.002738 0.157279 -0.050673
-0.002738 0.157279 -0.050673
-0.002738 0.157279 -0.050673
-0.002738 0.157279 -0.050673
-0.002738 0.157279 -0.050673
-0.002694 0.156813 -0.050675
-0.002694 0.156813 -0.050675
-0.002694 0.156813 -0.050675
-0.002694 0.156813 -0.050675
-0.002694 0.156813 -0.050675
-0.002568 0.156352 -0.050675
-0.002568 0.156352 -0.050675
-0.002568 0.156352 -0.050675
-0.002568 0.156352 -0.050675
-0.002568 0.156352 -0.050675
-0.002365 0.155921 -0.050675
-0.002365 0.155921 -0.050675
-0.002365 0.155921 -0.050675
-0.002365 0.155921 -0.050675
-0.002365 0.155921 -0.050675
-0.002090 0.155531 -0.050675
-0.002090 0.155531 -0.050675
-0.002090 0.155531 -0.050675
-0.002090 0.155531 -0.050675
-0.002090 0.155531 -0.050675
-0.002090 0.155531 -0.050675
-0.002090 0.155531 -0.050675
-0.001746 0.155182 -0.050598
-0.001746 0.155182 -0.050598
-0.001746 0.155182 -0.050598
-0.001746 0.155182 -0.050598
-0.001746 0.155182 -0.050598
-0.001360 0.154923 -0.050675
-0.001360 0.154923 -0.050675
-0.001360 0.154923 -0.050675
-0.001360 0.154923 -0.050675
-0.001360 0.154923 -0.050675
-0.001360 0.154923 -0.050675
-0.000927 0.154723 -0.050675
-0.000927 0.154723 -0.050675
-0.000927 0.154723 -0.050675
-0.000927 0.154723 -0.050675
-0.000927 0.154723 -0.050675
-0.000445 0.154586 -0.050515
-0.000445 0.154586 -0.050515
-0.000445 0.154586 -0.050515
-0.000445 0.154586 -0.050515
0.000010 0.154561 -0.050675
0.000010 0.154561 -0.050675
0.000010 0.154561 -0.050675
0.000010 0.154561 -0.050675
0.000010 0.154561 -0.050675
0.000010 0.154561 -0.050675
0.000485 0.154604 -0.050675
0.000485 0.154604 -0.050675
0.000485 0.154604 -0.050675
0.000485 0.154604 -0.050675
0.000485 0.154604 -0.050675
0.000946 0.154729 -0.050675
0.000946 0.154729 -0.050675
0.000946 0.154729 -0.050675
0.000946 0.154729 -0.050675
0.000946 0.154729 -0.050675
0.000946 0.154729 -0.050675
0.001377 0.154933 -0.050675
0.001377 0.154933 -0.050675
0.001377 0.154933 -0.050675
0.001377 0.154933 -0.050675
0.001377 0.154933 -0.050675
0.001377 0.154933 -0.050675
0.001767 0.155208 -0.050675
0.001767 0.155208 -0.050675
0.001767 0.155208 -0.050675
0.001767 0.155208 -0.050675
0.001767 0.155208 -0.050675
0.001767 0.155208 -0.050675
0.001767 0.155208 -0.050675
0.002116 0.155552 -0.050598
0.002116 0.155552 -0.050598
0.002116 0.155552 -0.050598
0.002116 0.155552 -0.050598
0.002116 0.155552 -0.050598
0.002375 0.155938 -0.050675
0.002375 0.155938 -0.050675
0.002375 0.155938 -0.050675
0.002375 0.155938 -0.050675
0.002375 0.155938 -0.050675
0.002375 0.155938 -0.050675
0.002575 0.156371 -0.050675
0.002575 0.156371 -0.050675
0.002575 0.156371 -0.050675
0.002575 0.156371 -0.050675
0.002575 0.156371 -0.050675
0.002575 0.156371 -0.050675
0.002575 0.156371 -0.050675
0.002706 0.156844 -0.050598
0.002706 0.156844 -0.050598
0.002706 0.156844 -0.050598
0.002706 0.156844 -0.050598
0.002743 0.157321 -0.050598
0.002743 0.157321 -0.050598
0.002743 0.157321 -0.050598
0.002743 0.157321 -0.050598
0.002743 0.157321 -0.050598
0.002698 0.157797 -0.050598
0.002698 0.157797 -0.050598
0.002698 0.157797 -0.050598
0.002698 0.157797 -0.050598
0.002698 0.157797 -0.050598
0.002570 0.158258 -0.050598
0.002570 0.158258 -0.050598
0.002570 0.158258 -0.050598
0.002570 0.158258 -0.050598
0.002570 0.158258 -0.050598
0.002570 0.158258 -0.050598
0.002365 0.158675 -0.050675
0.002365 0.158675 -0.050675
0.002365 0.158675 -0.050675
0.002365 0.158675 -0.050675
0.002365 0.158675 -0.050675
0.002365 0.158675 -0.050675
0.002090 0.159065 -0.050675
0.002090 0.159065 -0.050675
0.002090 0.159065 -0.050675
0.002090 0.159065 -0.050675
0.002090 0.159065 -0.050675
0.001751 0.159401 -0.050675
0.001751 0.159401 -0.050675
0.001751 0.159401 -0.050675
0.001751 0.159401 -0.050675
0.001360 0.159673 -0.050675
0.001360 0.159673 -0.050675
0.001360 0.159673 -0.050675
