cold-deuu/summit_ur5_project/robot_description/universal_robots_ur5e/sca_meshes/wrist2.txt
wrist2
V
-0.035326 0.045598 0.103907
-0.035326 0.045598 0.103907
-0.035326 0.045598 0.103907
-0.035573 0.045610 0.101110
-0.035573 0.045610 0.101110
-0.035573 0.045610 0.101110
-0.035573 0.045610 0.101110
-0.035573 0.045610 0.101110
-0.000000 0.045598 0.099436
-0.000000 0.045598 0.099436
-0.000000 0.045598 0.099436
-0.000000 0.045598 0.099436
-0.000000 0.045598 0.099436
-0.035602 0.045605 0.098511
-0.035602 0.045605 0.098511
-0.035602 0.045605 0.098511
-0.035602 0.045605 0.098511
-0.033305 0.045598 0.112032
-0.033305 0.045598 0.112032
-0.033305 0.045598 0.112032
-0.033305 0.045598 0.112032
-0.034191 0.045598 0.109380
-0.034191 0.045598 0.109380
-0.034191 0.045598 0.109380
-0.034191 0.045598 0.109380
-0.034866 0.045598 0.106667
-0.034866 0.045598 0.106667
-0.034866 0.045598 0.106667
-0.034866 0.045598 0.106667
-0.029445 0.045598 0.119459
-0.029445 0.045598 0.119459
-0.029445 0.045598 0.119459
-0.029445 0.045598 0.119459
-0.030917 0.045618 0.117105
-0.030917 0.045618 0.117105
-0.030917 0.045618 0.117105
-0.030917 0.045618 0.117105
-0.030917 0.045618 0.117105
-0.030917 0.045618 0.117105
-0.032214 0.045598 0.114607
-0.032214 0.045598 0.114607
-0.032214 0.045598 0.114607
-0.032214 0.045598 0.114607
-0.032214 0.045598 0.114607
-0.023957 0.045598 0.125779
-0.023957 0.045598 0.125779
-0.023957 0.045598 0.125779
-0.023957 0.045598 0.125779
-0.025950 0.045598 0.123819
-0.025950 0.045598 0.123819
-0.025950 0.045598 0.123819
-0.025950 0.045598 0.123819
-0.027783 0.045598 0.121708
-0.027783 0.045598 0.121708
-0.027783 0.045598 0.121708
-0.027783 0.045598 0.121708
-0.017145 0.045598 0.130645
-0.017145 0.045598 0.130645
-0.017145 0.045598 0.130645
-0.017145 0.045598 0.130645
-0.019541 0.045598 0.129203
-0.019541 0.045598 0.129203
-0.019541 0.045598 0.129203
-0.019541 0.045598 0.129203
-0.021816 0.045598 0.127578
-0.021816 0.045598 0.127578
-0.021816 0.045598 0.127578
-0.021816 0.045598 0.127578
-0.009386 0.045598 0.133784
-0.009386 0.045598 0.133784
-0.009386 0.045598 0.133784
-0.009386 0.045598 0.133784
-0.012052 0.045598 0.132942
-0.012052 0.045598 0.132942
-0.012052 0.045598 0.132942
-0.012052 0.045598 0.132942
-0.014644 0.045598 0.131893
-0.014644 0.045598 0.131893
-0.014644 0.045598 0.131893
-0.014644 0.045598 0.131893
-0.001109 0.045598 0.135026
-0.001109 0.045598 0.135026
-0.001109 0.045598 0.135026
-0.001109 0.045598 0.135026
-0.003897 0.045598 0.134830
-0.003897 0.045598 0.134830
-0.003897 0.045598 0.134830
-0.003897 0.045598 0.134830
-0.006662 0.045598 0.134415
-0.006662 0.045598 0.134415
-0.006662 0.045598 0.134415
-0.006662 0.045598 0.134415
0.007231 0.045598 0.134302
0.007231 0.045598 0.134302
0.007231 0.045598 0.134302
0.007231 0.045598 0.134302
0.004473 0.045598 0.134762
0.004473 0.045598 0.134762
0.004473 0.045598 0.134762
0.004473 0.045598 0.134762
0.001688 0.045598 0.135004
0.001688 0.045598 0.135004
0.001688 0.045598 0.135004
0.001688 0.045598 0.135004
0.015170 0.045598 0.131650
0.015170 0.045598 0.131650
0.015170 0.045598 0.131650
0.015170 0.045598 0.131650
0.012596 0.045598 0.132741
0.012596 0.045598 0.132741
0.012596 0.045598 0.132741
0.012596 0.045598 0.132741
0.009944 0.045598 0.133627
0.009944 0.045598 0.133627
0.009944 0.045598 0.133627
0.009944 0.045598 0.133627
0.022271 0.045598 0.127219
0.022271 0.045598 0.127219
0.022271 0.045598 0.127219
0.022271 0.045598 0.127219
0.020023 0.045598 0.128881
0.020023 0.045598 0.128881
0.020023 0.045598 0.128881
0.020023 0.045598 0.128881
0.017651 0.045598 0.130361
0.017651 0.045598 0.130361
0.017651 0.045598 0.130361
0.017651 0.045598 0.130361
0.028142 0.045598 0.121252
0.028142 0.045598 0.121252
0.028142 0.045598 0.121252
0.028142 0.045598 0.121252
0.026343 0.045598 0.123393
0.026343 0.045598 0.123393
0.026343 0.045598 0.123393
0.026343 0.045598 0.123393
0.024383 0.045598 0.125386
0.024383 0.045598 0.125386
0.024383 0.045598 0.125386
0.032467 0.045619 0.114063
0.032467 0.045619 0.114063
0.032467 0.045619 0.114063
0.032467 0.045619 0.114063
0.032467 0.045619 0.114063
0.032467 0.045619 0.114063
0.031208 0.045598 0.116581
0.031208 0.045598 0.116581
0.031208 0.045598 0.116581
0.031208 0.045598 0.116581
0.031208 0.045598 0.116581
0.029767 0.045598 0.118977
0.029767 0.045598 0.118977
0.029767 0.045598 0.118977
0.029767 0.045598 0.118977
0.034979 0.045598 0.106098
0.034979 0.045598 0.106098
0.034979 0.045598 0.106098
0.034979 0.045598 0.106098
0.034355 0.045619 0.108804
0.034355 0.045619 0.108804
0.034355 0.045619 0.108804
0.034355 0.045619 0.108804
0.034355 0.045619 0.108804
0.034355 0.045619 0.108804
0.033506 0.045598 0.111488
0.033506 0.045598 0.111488
0.033506 0.045598 0.111488
0.033506 0.045598 0.111488
0.035568 0.045598 0.097748
0.035568 0.045598 0.097748
0.035568 0.045598 0.097748
0.035568 0.045598 0.097748
0.035590 0.045598 0.100544
0.035590 0.045598 0.100544
0.035590 0.045598 0.100544
0.035590 0.045598 0.100544
0.035397 0.045619 0.103314
0.035397 0.045619 0.103314
0.035397 0.045619 0.103314
0.035397 0.045619 0.103314
0.035397 0.045619 0.103314
0.035397 0.045619 0.103314
0.034191 0.045598 0.089492
0.034191 0.045598 0.089492
0.034191 0.045598 0.089492
0.034191 0.045598 0.089492
0.034866 0.045598 0.092205
0.034866 0.045598 0.092205
0.034866 0.045598 0.092205
0.034866 0.045598 0.092205
0.035325 0.045598 0.094963
0.035325 0.045598 0.094963
0.035325 0.045598 0.094963
0.035325 0.045598 0.094963
0.030925 0.045598 0.081785
0.030925 0.045598 0.081785
0.030925 0.045598 0.081785
0.030925 0.045598 0.081785
0.032214 0.045598 0.084266
0.032214 0.045598 0.084266
0.032214 0.045598 0.084266
0.032214 0.045598 0.084266
0.033305 0.045598 0.086840
0.033305 0.045598 0.086840
0.033305 0.045598 0.086840
0.033305 0.045598 0.086840
0.025950 0.045598 0.075053
0.025950 0.045598 0.075053
0.025950 0.045598 0.075053
0.025950 0.045598 0.075053
0.025950 0.045598 0.075053
0.027783 0.045598 0.077164
0.027783 0.045598 0.077164
0.027783 0.045598 0.077164
0.027783 0.045598 0.077164
0.029444 0.045598 0.079413
0.029444 0.045598 0.079413
0.029444 0.045598 0.079413
0.029444 0.045598 0.079413
0.019541 0.045598 0.069669
0.019541 0.045598 0.069669
0.019541 0.045598 0.069669
0.019541 0.045598 0.069669
0.021816 0.045598 0.071294
0.021816 0.045598 0.071294
0.021816 0.045598 0.071294
0.021816 0.045598 0.071294
0.023944 0.045618 0.073079
0.023944 0.045618 0.073079
0.023944 0.045618 0.073079
0.023944 0.045618 0.073079
0.023944 0.045618 0.073079
0.023944 0.045618 0.073079
0.012051 0.045598 0.065930
0.012051 0.045598 0.065930
0.012051 0.045598 0.065930
0.012051 0.045598 0.065930
0.014644 0.045598 0.066979
0.014644 0.045598 0.066979
0.014644 0.045598 0.066979
0.014644 0.045598 0.066979
0.017145 0.045598 0.068228
0.017145 0.045598 0.068228
0.017145 0.045598 0.068228
0.017145 0.045598 0.068228
0.003897 0.045598 0.064042
0.003897 0.045598 0.064042
0.003897 0.045598 0.064042
0.003897 0.045598 0.064042
0.003897 0.045598 0.064042
0.006661 0.045598 0.064457
0.006661 0.045598 0.064457
0.006661 0.045598 0.064457
0.006661 0.045598 0.064457
0.009386 0.045598 0.065088
0.009386 0.045598 0.065088
0.009386 0.045598 0.065088
0.009386 0.045598 0.065088
-0.004473 0.045598 0.064110
-0.004473 0.045598 0.064110
-0.004473 0.045598 0.064110
-0.004473 0.045598 0.064110
-0.001688 0.045598 0.063868
-0.001688 0.045598 0.063868
-0.001688 0.045598 0.063868
-0.001688 0.045598 0.063868
0.001089 0.045619 0.063843
0.001089 0.045619 0.063843
0.001089 0.045619 0.063843
0.001089 0.045619 0.063843
0.001089 0.045619 0.063843
0.001089 0.045619 0.063843
-0.012615 0.045619 0.066136
-0.012615 0.045619 0.066136
-0.012615 0.045619 0.066136
-0.012615 0.045619 0.066136
-0.012615 0.045619 0.066136
-0.012615 0.045619 0.066136
-0.009944 0.045598 0.065245
-0.009944 0.045598 0.065245
-0.009944 0.045598 0.065245
-0.009944 0.045598 0.065245
-0.009944 0.045598 0.065245
-0.007231 0.045598 0.064570
-0.007231 0.045598 0.064570
-0.007231 0.045598 0.064570
-0.007231 0.045598 0.064570
-0.020023 0.045598 0.069992
-0.020023 0.045598 0.069992
-0.020023 0.045598 0.069992
-0.020023 0.045598 0.069992
-0.017651 0.045598 0.068511
-0.017651 0.045598 0.068511
-0.017651 0.045598 0.068511
-0.017651 0.045598 0.068511
-0.015170 0.045598 0.067222
-0.015170 0.045598 0.067222
-0.015170 0.045598 0.067222
-0.015170 0.045598 0.067222
-0.026344 0.045598 0.075479
-0.026344 0.045598 0.075479
-0.026344 0.045598 0.075479
-0.026344 0.045598 0.075479
-0.024383 0.045598 0.073486
-0.024383 0.045598 0.073486
-0.024383 0.045598 0.073486
-0.024383 0.045598 0.073486
-0.022272 0.045598 0.071653
-0.022272 0.045598 0.071653
-0.022272 0.045598 0.071653
-0.022272 0.045598 0.071653
-0.031208 0.045598 0.082291
-0.031208 0.045598 0.082291
-0.031208 0.045598 0.082291
-0.031208 0.045598 0.082291
-0.031208 0.045598 0.082291
-0.029767 0.045598 0.079895
-0.029767 0.045598 0.079895
-0.029767 0.045598 0.079895
-0.029767 0.045598 0.079895
-0.028142 0.045598 0.077620
-0.028142 0.045598 0.077620
-0.028142 0.045598 0.077620
-0.028142 0.045598 0.077620
-0.034348 0.045598 0.090050
-0.034348 0.045598 0.090050
-0.034348 0.045598 0.090050
-0.034348 0.045598 0.090050
-0.033506 0.045598 0.087384
-0.033506 0.045598 0.087384
-0.033506 0.045598 0.087384
-0.033506 0.045598 0.087384
-0.032467 0.045619 0.084809
-0.032467 0.045619 0.084809
-0.032467 0.045619 0.084809
-0.032467 0.045619 0.084809
-0.032467 0.045619 0.084809
-0.032467 0.045619 0.084809
-0.035393 0.045598 0.095535
-0.035393 0.045598 0.095535
-0.035393 0.045598 0.095535
-0.035393 0.045598 0.095535
-0.034979 0.045598 0.092774
-0.034979 0.045598 0.092774
-0.034979 0.045598 0.092774
-0.034979 0.045598 0.092774
-0.034416 0.045794 0.109374
-0.034416 0.045794 0.109374
-0.034416 0.045794 0.109374
-0.034416 0.045794 0.109374
-0.034416 0.045794 0.109374
-0.034416 0.045794 0.109374
-0.032992 0.045797 0.113574
-0.032992 0.045797 0.113574
-0.032992 0.045797 0.113574
-0.032992 0.045797 0.113574
-0.032992 0.045797 0.113574
-0.032992 0.045797 0.113574
-0.032992 0.045797 0.113574
-0.031126 0.045792 0.117124
-0.031126 0.045792 0.117124
-0.031126 0.045792 0.117124
-0.031126 0.045792 0.117124
-0.031126 0.045792 0.117124
-0.031126 0.045792 0.117124
-0.029656 0.045793 0.119523
-0.029656 0.045793 0.119523
-0.029656 0.045793 0.119523
-0.029656 0.045793 0.119523
-0.029656 0.045793 0.119523
-0.027986 0.045794 0.121797
-0.027986 0.045794 0.121797
-0.027986 0.045794 0.121797
-0.027986 0.045794 0.121797
-0.026154 0.045794 0.123913
-0.026154 0.045794 0.123913
-0.026154 0.045794 0.123913
-0.026154 0.045794 0.123913
-0.026154 0.045794 0.123913
-0.022925 0.045797 0.127052
-0.022925 0.045797 0.127052
-0.022925 0.045797 0.127052
-0.022925 0.045797 0.127052
-0.022925 0.045797 0.127052
-0.019714 0.045794 0.129345
-0.019714 0.045794 0.129345
-0.019714 0.045794 0.129345
-0.019714 0.045794 0.129345
-0.019714 0.045794 0.129345
-0.019714 0.045794 0.129345
-0.019714 0.045794 0.129345
-0.017318 0.045794 0.130795
-0.017318 0.045794 0.130795
-0.017318 0.045794 0.130795
-0.017318 0.045794 0.130795
-0.013344 0.045796 0.132733
-0.013344 0.045796 0.132733
-0.013344 0.045796 0.132733
-0.013344 0.045796 0.132733
-0.013344 0.045796 0.132733
-0.013344 0.045796 0.132733
-0.007708 0.045794 0.134447
-0.007708 0.045794 0.134447
-0.007708 0.045794 0.134447
-0.007708 0.045794 0.134447
-0.007708 0.045794 0.134447
-0.007708 0.045794 0.134447
-0.003989 0.045794 0.135035
-0.003989 0.045794 0.135035
-0.003989 0.045794 0.135035
-0.003989 0.045794 0.135035
0.000664 0.045794 0.135278
0.000664 0.045794 0.135278
0.000664 0.045794 0.135278
0.000664 0.045794 0.135278
0.000664 0.045794 0.135278
0.006460 0.045795 0.134715
0.006460 0.045795 0.134715
0.006460 0.045795 0.134715
0.006460 0.045795 0.134715
0.009936 0.045794 0.133854
0.009936 0.045794 0.133854
0.009936 0.045794 0.133854
0.009936 0.045794 0.133854
0.009936 0.045794 0.133854
0.009936 0.045794 0.133854
0.014337 0.045794 0.132293
0.014337 0.045794 0.132293
0.014337 0.045794 0.132293
0.014337 0.045794 0.132293
0.014337 0.045794 0.132293
0.017697 0.045794 0.130581
0.017697 0.045794 0.130581
0.017697 0.045794 0.130581
0.017697 0.045794 0.130581
0.017697 0.045794 0.130581
0.021781 0.045796 0.127932
0.021781 0.045796 0.127932
0.021781 0.045796 0.127932
0.021781 0.045796 0.127932
0.021781 0.045796 0.127932
0.025818 0.045794 0.124309
0.025818 0.045794 0.124309
0.025818 0.045794 0.124309
0.025818 0.045794 0.124309
0.025818 0.045794 0.124309
0.030451 0.045796 0.118496
0.030451 0.045796 0.118496
0.030451 0.045796 0.118496
0.030451 0.045796 0.118496
0.030451 0.045796 0.118496
0.030451 0.045796 0.118496
0.030451 0.045796 0.118496
0.032600 0.045792 0.114232
0.032600 0.045792 0.114232
0.032600 0.045792 0.114232
0.032600 0.045792 0.114232
0.032600 0.045792 0.114232
0.032600 0.045792 0.114232
0.032600 0.045792 0.114232
0.033684 0.045794 0.111624
0.033684 0.045794 0.111624
0.033684 0.045794 0.111624
0.033684 0.045794 0.111624
0.034513 0.045792 0.108949
0.034513 0.045792 0.108949
0.034513 0.045792 0.108949
0.034513 0.045792 0.108949
0.034513 0.045792 0.108949
0.034513 0.045792 0.108949
0.035176 0.045794 0.106205
0.035176 0.045794 0.106205
0.035176 0.045794 0.106205
0.035176 0.045794 0.106205
0.035577 0.045792 0.103432
0.035577 0.045792 0.103432
0.035577 0.045792 0.103432
0.035577 0.045792 0.103432
0.035577 0.045792 0.103432
0.035577 0.045792 0.103432
0.035888 0.045797 0.098920
0.035888 0.045797 0.098920
0.035888 0.045797 0.098920
0.035888 0.045797 0.098920
0.035888 0.045797 0.098920
0.035888 0.045797 0.098920
0.035366 0.045797 0.093317
0.035366 0.045797 0.093317
0.035366 0.045797 0.093317
0.035366 0.045797 0.093317
0.035366 0.045797 0.093317
0.035366 0.045797 0.093317
0.033971 0.045797 0.087850
0.033971 0.045797 0.087850
0.033971 0.045797 0.087850
0.033971 0.045797 0.087850
0.033971 0.045797 0.087850
0.033971 0.045797 0.087850
0.032438 0.045794 0.084237
0.032438 0.045794 0.084237
0.032438 0.045794 0.084237
0.032438 0.045794 0.084237
0.032438 0.045794 0.084237
0.032438 0.045794 0.084237
0.030358 0.045797 0.080289
0.030358 0.045797 0.080289
0.030358 0.045797 0.080289
0.030358 0.045797 0.080289
0.030358 0.045797 0.080289
0.030358 0.045797 0.080289
0.027986 0.045794 0.077075
0.027986 0.045794 0.077075
0.027986 0.045794 0.077075
0.027986 0.045794 0.077075
0.027986 0.045794 0.077075
0.026154 0.045794 0.074958
0.026154 0.045794 0.074958
0.026154 0.045794 0.074958
0.026154 0.045794 0.074958
0.024138 0.045791 0.073000
0.024138 0.045791 0.073000
0.024138 0.045791 0.073000
0.024138 0.045791 0.073000
0.024138 0.045791 0.073000
0.022014 0.045794 0.071175
0.022014 0.045794 0.071175
0.022014 0.045794 0.071175
0.022014 0.045794 0.071175
0.022014 0.045794 0.071175
0.022014 0.045794 0.071175
0.018314 0.045797 0.068569
0.018314 0.045797 0.068569
0.018314 0.045797 0.068569
0.018314 0.045797 0.068569
0.018314 0.045797 0.068569
0.018314 0.045797 0.068569
0.014794 0.045794 0.066812
0.014794 0.045794 0.066812
0.014794 0.045794 0.066812
0.014794 0.045794 0.066812
0.014794 0.045794 0.066812
0.012196 0.045794 0.065753
0.012196 0.045794 0.065753
0.012196 0.045794 0.065753
0.012196 0.045794 0.065753
0.007708 0.045794 0.064425
0.007708 0.045794 0.064425
0.007708 0.045794 0.064425
0.007708 0.045794 0.064425
0.007708 0.045794 0.064425
0.007708 0.045794 0.064425
0.003989 0.045794 0.063837
0.003989 0.045794 0.063837
0.003989 0.045794 0.063837
0.001190 0.045792 0.063655
0.001190 0.045792 0.063655
0.001190 0.045792 0.063655
0.001190 0.045792 0.063655
0.001190 0.045792 0.063655
-0.001634 0.045793 0.063655
-0.001634 0.045793 0.063655
-0.001634 0.045793 0.063655
-0.001634 0.045793 0.063655
-0.004428 0.045794 0.063887
-0.004428 0.045794 0.063887
-0.004428 0.045794 0.063887
-0.004428 0.045794 0.063887
-0.004428 0.045794 0.063887
-0.009031 0.045794 0.064743
-0.009031 0.045794 0.064743
-0.009031 0.045794 0.064743
-0.009031 0.045794 0.064743
-0.009031 0.045794 0.064743
-0.009031 0.045794 0.064743
-0.012595 0.045791 0.065926
-0.012595 0.045791 0.065926
-0.012595 0.045791 0.065926
-0.012595 0.045791 0.065926
-0.012595 0.045791 0.065926
-0.012595 0.045791 0.065926
-0.012595 0.045791 0.065926
-0.016701 0.045797 0.067665
-0.016701 0.045797 0.067665
-0.016701 0.045797 0.067665
-0.016701 0.045797 0.067665
-0.016701 0.045797 0.067665
-0.016701 0.045797 0.067665
-0.020089 0.045794 0.069776
-0.020089 0.045794 0.069776
-0.020089 0.045794 0.069776
-0.020089 0.045794 0.069776
-0.020089 0.045794 0.069776
-0.022420 0.045802 0.071174
-0.022420 0.045802 0.071174
-0.022420 0.045802 0.071174
-0.022420 0.045802 0.071174
-0.022420 0.045802 0.071174
-0.022420 0.045802 0.071174
-0.022420 0.045802 0.071174
-0.026454 0.045794 0.075283
-0.026454 0.045794 0.075283
-0.026454 0.045794 0.075283
-0.026454 0.045794 0.075283
-0.026454 0.045794 0.075283
-0.029546 0.045796 0.079106
-0.029546 0.045796 0.079106
-0.029546 0.045796 0.079106
-0.029546 0.045796 0.079106
-0.029546 0.045796 0.079106
-0.029546 0.045796 0.079106
-0.031363 0.045794 0.082129
-0.031363 0.045794 0.082129
-0.031363 0.045794 0.082129
-0.031363 0.045794 0.082129
-0.031363 0.045794 0.082129
-0.032600 0.045792 0.084640
-0.032600 0.045792 0.084640
-0.032600 0.045792 0.084640
-0.032600 0.045792 0.084640
-0.032600 0.045792 0.084640
-0.032600 0.045792 0.084640
-0.034288 0.045797 0.088830
-0.034288 0.045797 0.088830
-0.034288 0.045797 0.088830
-0.034288 0.045797 0.088830
-0.034288 0.045797 0.088830
-0.034288 0.045797 0.088830
-0.035176 0.045794 0.092668
-0.035176 0.045794 0.092668
-0.035176 0.045794 0.092668
-0.035176 0.045794 0.092668
-0.035176 0.045794 0.092668
-0.035176 0.045794 0.092668
-0.035599 0.045794 0.095438
-0.035599 0.045794 0.095438
-0.035599 0.045794 0.095438
-0.035599 0.045794 0.095438
-0.035743 0.045789 0.101050
-0.035743 0.045789 0.101050
-0.035743 0.045789 0.101050
-0.035743 0.045789 0.101050
-0.035743 0.045789 0.101050
-0.035743 0.045789 0.101050
-0.035751 0.045784 0.098251
-0.035751 0.045784 0.098251
-0.035751 0.045784 0.098251
-0.035751 0.045784 0.098251
-0.035751 0.045784 0.098251
-0.035751 0.045784 0.098251
-0.035366 0.045797 0.105555
-0.035366 0.045797 0.105555
-0.035366 0.045797 0.105555
-0.035366 0.045797 0.105555
-0.035366 0.045797 0.105555
-0.035366 0.045797 0.105555
0.034303 0.045750 0.089499
0.034303 0.045750 0.089499
0.034303 0.045750 0.089499
0.034303 0.045750 0.089499
0.034303 0.045750 0.089499
0.034303 0.045750 0.089499
0.033418 0.045750 0.086838
0.033418 0.045750 0.086838
0.033418 0.045750 0.086838
0.033418 0.045750 0.086838
0.033418 0.045750 0.086838
0.033418 0.045750 0.086838
0.031036 0.045750 0.081765
0.031036 0.045750 0.081765
0.031036 0.045750 0.081765
0.031036 0.045750 0.081765
0.031036 0.045750 0.081765
0.031036 0.045750 0.081765
0.029554 0.045750 0.079385
0.029554 0.045750 0.079385
0.029554 0.045750 0.079385
0.029554 0.045750 0.079385
0.029554 0.045750 0.079385
0.029554 0.045750 0.079385
0.019630 0.045750 0.069601
0.019630 0.045750 0.069601
0.019630 0.045750 0.069601
0.019630 0.045750 0.069601
0.019630 0.045750 0.069601
0.019630 0.045750 0.069601
0.017229 0.045750 0.068153
0.017229 0.045750 0.068153
0.017229 0.045750 0.068153
0.017229 0.045750 0.068153
0.017229 0.045750 0.068153
0.017229 0.045750 0.068153
-0.015182 0.045750 0.067110
-0.015182 0.045750 0.067110
-0.015182 0.045750 0.067110
-0.015182 0.045750 0.067110
-0.015182 0.045750 0.067110
-0.015182 0.045750 0.067110
-0.017671 0.045750 0.068400
-0.017671 0.045750 0.068400
-0.017671 0.045750 0.068400
-0.017671 0.045750 0.068400
-0.017671 0.045750 0.068400
-0.017671 0.045750 0.068400
-0.022309 0.045750 0.071547
-0.022309 0.045750 0.071547
-0.022309 0.045750 0.071547
-0.022309 0.045750 0.071547
-0.022309 0.045750 0.071547
-0.022309 0.045750 0.071547
-0.024428 0.045750 0.073383
-0.024428 0.045750 0.073383
-0.024428 0.045750 0.073383
-0.024428 0.045750 0.073383
-0.024428 0.045750 0.073383
-0.024428 0.045750 0.073383
-0.028203 0.045750 0.077525
-0.028203 0.045750 0.077525
-0.028203 0.045750 0.077525
-0.028203 0.045750 0.077525
-0.028203 0.045750 0.077525
-0.028203 0.045750 0.077525
-0.033593 0.045750 0.087313
-0.033593 0.045750 0.087313
-0.033593 0.045750 0.087313
-0.033593 0.045750 0.087313
-0.033593 0.045750 0.087313
-0.033593 0.045750 0.087313
-0.034441 0.045750 0.089986
-0.034441 0.045750 0.089986
-0.034441 0.045750 0.089986
-0.034441 0.045750 0.089986
-0.034441 0.045750 0.089986
-0.034441 0.045750 0.089986
-0.035436 0.045750 0.103885
-0.035436 0.045750 0.103885
-0.035436 0.045750 0.103885
-0.035436 0.045750 0.103885
-0.035436 0.045750 0.103885
-0.035436 0.045750 0.103885
-0.034977 0.045750 0.106652
-0.034977 0.045750 0.106652
-0.034977 0.045750 0.106652
-0.034977 0.045750 0.106652
-0.034977 0.045750 0.106652
-0.034977 0.045750 0.106652
-0.033418 0.045750 0.112034
-0.033418 0.045750 0.112034
-0.033418 0.045750 0.112034
-0.033418 0.045750 0.112034
-0.033418 0.045750 0.112034
-0.033418 0.045750 0.112034
-0.032327 0.045750 0.114618
-0.032327 0.045750 0.114618
-0.032327 0.045750 0.114618
-0.032327 0.045750 0.114618
-0.032327 0.045750 0.114618
-0.024056 0.045750 0.125833
-0.024056 0.045750 0.125833
-0.024056 0.045750 0.125833
-0.024056 0.045750 0.125833
-0.024056 0.045750 0.125833
-0.024056 0.045750 0.125833
-0.021911 0.045750 0.127639
-0.021911 0.045750 0.127639
-0.021911 0.045750 0.127639
-0.021911 0.045750 0.127639
-0.021911 0.045750 0.127639
-0.021911 0.045750 0.127639
0.004449 0.045750 0.134872
0.004449 0.045750 0.134872
0.004449 0.045750 0.134872
0.004449 0.045750 0.134872
0.004449 0.045750 0.134872
0.004449 0.045750 0.134872
0.020052 0.045750 0.128989
0.020052 0.045750 0.128989
0.020052 0.045750 0.128989
0.020052 0.045750 0.128989
0.020052 0.045750 0.128989
0.020052 0.045750 0.128989
0.028202 0.045750 0.121347
0.028202 0.045750 0.121347
0.028202 0.045750 0.121347
0.028202 0.045750 0.121347
0.028202 0.045750 0.121347
0.028202 0.045750 0.121347
0.029835 0.045750 0.119067
0.029835 0.045750 0.119067
0.029835 0.045750 0.119067
0.029835 0.045750 0.119067
0.029835 0.045750 0.119067
0.035695 0.045750 0.100585
0.035695 0.045750 0.100585
0.035695 0.045750 0.100585
0.035695 0.045750 0.100585
0.035695 0.045750 0.100585
0.035695 0.045750 0.100585
0.035675 0.045750 0.097781
0.035675 0.045750 0.097781
0.035675 0.045750 0.097781
0.035675 0.045750 0.097781
0.035675 0.045750 0.097781
0.035436 0.045750 0.094987
0.035436 0.045750 0.094987
0.035436 0.045750 0.094987
0.035436 0.045750 0.094987
0.035436 0.045750 0.094987
0.035436 0.045750 0.094987
0.034977 0.045750 0.092221
0.034977 0.045750 0.092221
0.034977 0.045750 0.092221
0.034977 0.045750 0.092221
0.034977 0.045750 0.092221
0.009432 0.045731 0.065009
0.009432 0.045731 0.065009
0.009432 0.045731 0.065009
0.009432 0.045731 0.065009
0.009432 0.045731 0.065009
0.009432 0.045731 0.065009
-0.007226 0.045731 0.064480
-0.007226 0.045731 0.064480
-0.007226 0.045731 0.064480
-0.007226 0.045731 0.064480
-0.007226 0.045731 0.064480
-0.007226 0.045731 0.064480
-0.029827 0.045731 0.079828
-0.029827 0.045731 0.079828
-0.029827 0.045731 0.079828
-0.029827 0.045731 0.079828
-0.029827 0.045731 0.079828
-0.029827 0.045731 0.079828
-0.014701 0.045731 0.131963
-0.014701 0.045731 0.131963
-0.014701 0.045731 0.131963
-0.014701 0.045731 0.131963
-0.014701 0.045731 0.131963
-0.014701 0.045731 0.131963
-0.012103 0.045731 0.133016
-0.012103 0.045731 0.133016
-0.012103 0.045731 0.133016
-0.012103 0.045731 0.133016
-0.012103 0.045731 0.133016
-0.009431 0.045731 0.133863
-0.009431 0.045731 0.133863
-0.009431 0.045731 0.133863
-0.009431 0.045731 0.133863
-0.009431 0.045731 0.133863
-0.009431 0.045731 0.133863
-0.001134 0.045731 0.135113
-0.001134 0.045731 0.135113
-0.001134 0.045731 0.135113
-0.001134 0.045731 0.135113
-0.001134 0.045731 0.135113
-0.001134 0.045731 0.135113
0.007226 0.045731 0.134392
0.007226 0.045731 0.134392
0.007226 0.045731 0.134392
0.007226 0.045731 0.134392
0.007226 0.045731 0.134392
0.007226 0.045731 0.134392
0.012605 0.045731 0.132831
0.012605 0.045731 0.132831
0.012605 0.045731 0.132831
0.012605 0.045731 0.132831
0.012605 0.045731 0.132831
0.012605 0.045731 0.132831
0.022308 0.045731 0.127302
0.022308 0.045731 0.127302
0.022308 0.045731 0.127302
0.022308 0.045731 0.127302
0.024425 0.045731 0.125466
0.024425 0.045731 0.125466
0.024425 0.045731 0.125466
0.024425 0.045731 0.125466
0.024425 0.045731 0.125466
0.024425 0.045731 0.125466
0.031274 0.045731 0.116644
0.031274 0.045731 0.116644
0.031274 0.045731 0.116644
0.031274 0.045731 0.116644
0.031274 0.045731 0.116644
0.032284 0.045712 0.084250
0.032284 0.045712 0.084250
0.032284 0.045712 0.084250
0.032284 0.045712 0.084250
0.032284 0.045712 0.084250
0.027847 0.045712 0.077132
0.027847 0.045712 0.077132
0.027847 0.045712 0.077132
0.027847 0.045712 0.077132
0.027847 0.045712 0.077132
0.026011 0.045712 0.075016
0.026011 0.045712 0.075016
0.026011 0.045712 0.075016
0.026011 0.045712 0.075016
0.026011 0.045712 0.075016
0.026011 0.045712 0.075016
0.021871 0.045712 0.071248
0.021871 0.045712 0.071248
0.021871 0.045712 0.071248
0.021871 0.045712 0.071248
0.021871 0.045712 0.071248
0.021871 0.045712 0.071248
0.014686 0.045712 0.066921
0.014686 0.045712 0.066921
0.014686 0.045712 0.066921
0.014686 0.045712 0.066921
0.014686 0.045712 0.066921
0.012090 0.045712 0.065869
0.012090 0.045712 0.065869
0.012090 0.045712 0.065869
0.012090 0.045712 0.065869
0.012090 0.045712 0.065869
0.012090 0.045712 0.065869
0.006690 0.045712 0.064391
0.006690 0.045712 0.064391
0.006690 0.045712 0.064391
0.006690 0.045712 0.064391
0.006690 0.045712 0.064391
0.003920 0.045712 0.063974
0.003920 0.045712 0.063974
0.003920 0.045712 0.063974
0.003920 0.045712 0.063974
0.003920 0.045712 0.063974
0.003920 0.045712 0.063974
-0.001676 0.045712 0.063797
-0.001676 0.045712 0.063797
-0.001676 0.045712 0.063797
-0.001676 0.045712 0.063797
-0.001676 0.045712 0.063797
-0.001676 0.045712 0.063797
-0.004467 0.045712 0.064039
-0.004467 0.045712 0.064039
-0.004467 0.045712 0.064039
-0.004467 0.045712 0.064039
-0.004467 0.045712 0.064039
-0.004467 0.045712 0.064039
-0.009949 0.045712 0.065174
-0.009949 0.045712 0.065174
-0.009949 0.045712 0.065174
-0.009949 0.045712 0.065174
-0.009949 0.045712 0.065174
-0.020050 0.045712 0.069925
-0.020050 0.045712 0.069925
-0.020050 0.045712 0.069925
-0.020050 0.045712 0.069925
-0.020050 0.045712 0.069925
-0.026385 0.045712 0.075421
-0.026385 0.045712 0.075421
-0.026385 0.045712 0.075421
-0.026385 0.045712 0.075421
-0.026385 0.045712 0.075421
-0.031262 0.045712 0.082244
-0.031262 0.045712 0.082244
-0.031262 0.045712 0.082244
-0.031262 0.045712 0.082244
-0.031262 0.045712 0.082244
-0.035045 0.045712 0.092746
-0.035045 0.045712 0.092746
-0.035045 0.045712 0.092746
-0.035045 0.045712 0.092746
-0.035045 0.045712 0.092746
-0.035461 0.045711 0.095514
-0.035461 0.045711 0.095514
-0.035461 0.045711 0.095514
-0.035461 0.045711 0.095514
-0.035461 0.045711 0.095514
-0.035461 0.045711 0.095514
-0.034263 0.045712 0.109385
-0.034263 0.045712 0.109385
-0.034263 0.045712 0.109385
-0.034263 0.045712 0.109385
-0.034263 0.045712 0.109385
-0.029511 0.045712 0.119486
-0.029511 0.045712 0.119486
-0.029511 0.045712 0.119486
-0.029511 0.045712 0.119486
-0.029511 0.045712 0.119486
-0.029511 0.045712 0.119486
-0.027847 0.045712 0.121740
-0.027847 0.045712 0.121740
-0.027847 0.045712 0.121740
-0.027847 0.045712 0.121740
-0.027847 0.045712 0.121740
-0.027847 0.045712 0.121740
-0.026011 0.045712 0.123856
-0.026011 0.045712 0.123856
-0.026011 0.045712 0.123856
-0.026011 0.045712 0.123856
-0.026011 0.045712 0.123856
-0.026011 0.045712 0.123856
-0.019592 0.045712 0.129253
-0.019592 0.045712 0.129253
-0.019592 0.045712 0.129253
-0.019592 0.045712 0.129253
-0.019592 0.045712 0.129253
-0.017192 0.045712 0.130699
-0.017192 0.045712 0.130699
-0.017192 0.045712 0.130699
-0.017192 0.045712 0.130699
-0.017192 0.045712 0.130699
-0.017192 0.045712 0.130699
-0.006690 0.045712 0.134481
-0.006690 0.045712 0.134481
-0.006690 0.045712 0.134481
-0.006690 0.045712 0.134481
-0.006690 0.045712 0.134481
-0.003920 0.045712 0.134898
-0.003920 0.045712 0.134898
-0.003920 0.045712 0.134898
-0.003920 0.045712 0.134898
-0.003920 0.045712 0.134898
-0.003920 0.045712 0.134898
0.001676 0.045712 0.135075
0.001676 0.045712 0.135075
0.001676 0.045712 0.135075
0.001676 0.045712 0.135075
0.001676 0.045712 0.135075
0.009949 0.045712 0.133698
0.009949 0.045712 0.133698
0.009949 0.045712 0.133698
0.009949 0.045712 0.133698
0.009949 0.045712 0.133698
0.015187 0.045712 0.131720
0.015187 0.045712 0.131720
0.015187 0.045712 0.131720
0.015187 0.045712 0.131720
0.015187 0.045712 0.131720
0.017673 0.045712 0.130430
0.017673 0.045712 0.130430
0.017673 0.045712 0.130430
0.017673 0.045712 0.130430
0.017673 0.045712 0.130430
0.017673 0.045712 0.130430
0.026385 0.045712 0.123451
0.026385 0.045712 0.123451
0.026385 0.045712 0.123451
0.026385 0.045712 0.123451
0.026385 0.045712 0.123451
0.033567 0.045712 0.111526
0.033567 0.045712 0.111526
0.033567 0.045712 0.111526
0.033567 0.045712 0.111526
0.033567 0.045712 0.111526
0.033567 0.045712 0.111526
0.035045 0.045712 0.106126
0.035045 0.045712 0.106126
0.035045 0.045712 0.106126
0.035045 0.045712 0.106126
0.035045 0.045712 0.106126
0.035045 0.045712 0.106126
0.007317 0.045795 0.134783
0.007317 0.045795 0.134783
0.007317 0.045795 0.134783
0.007317 0.045795 0.134783
-0.035339 0.045793 0.106788
-0.035339 0.045793 0.106788
-0.035339 0.045793 0.106788
-0.035339 0.045793 0.106788
-0.035339 0.045793 0.106788
-0.035339 0.045793 0.106788
-0.035803 0.045796 0.104015
-0.035803 0.045796 0.104015
-0.035803 0.045796 0.104015
-0.035803 0.045796 0.104015
-0.035803 0.045796 0.104015
-0.030212 0.045793 0.079681
-0.030212 0.045793 0.079681
-0.030212 0.045793 0.079681
-0.030212 0.045793 0.079681
-0.030212 0.045793 0.079681
-0.030212 0.045793 0.079681
-0.028529 0.045795 0.077323
-0.028529 0.045795 0.077323
-0.028529 0.045795 0.077323
-0.028529 0.045795 0.077323
-0.024843 0.045797 0.073260
-0.024843 0.045797 0.073260
-0.024843 0.045797 0.073260
-0.024843 0.045797 0.073260
0.009509 0.045794 0.064614
0.009509 0.045794 0.064614
0.009509 0.045794 0.064614
0.009509 0.045794 0.064614
0.009509 0.045794 0.064614
0.019792 0.045794 0.069248
0.019792 0.045794 0.069248
0.019792 0.045794 0.069248
0.019792 0.045794 0.069248
0.019792 0.045794 0.069248
0.019792 0.045794 0.069248
0.028168 0.045794 0.076860
0.028168 0.045794 0.076860
0.028168 0.045794 0.076860
0.028168 0.045794 0.076860
0.028168 0.045794 0.076860
0.001527 0.045794 0.135500
0.001527 0.045794 0.135500
0.001527 0.045794 0.135500
0.001527 0.045794 0.135500
0.001527 0.045794 0.135500
-0.022270 0.045794 0.127839
-0.022270 0.045794 0.127839
-0.022270 0.045794 0.127839
-0.022270 0.045794 0.127839
-0.022270 0.045794 0.127839
-0.024350 0.045792 0.126082
-0.024350 0.045792 0.126082
-0.024350 0.045792 0.126082
-0.024350 0.045792 0.126082
-0.031345 0.045794 0.117341
-0.031345 0.045794 0.117341
-0.031345 0.045794 0.117341
-0.031345 0.045794 0.117341
0.024858 0.045797 0.125599
0.024858 0.045797 0.125599
0.024858 0.045797 0.125599
0.024858 0.045797 0.125599
0.031696 0.045794 0.116712
0.031696 0.045794 0.116712
0.031696 0.045794 0.116712
0.031696 0.045794 0.116712
0.035468 0.045794 0.106152
0.035468 0.045794 0.106152
0.035468 0.045794 0.106152
0.035468 0.045794 0.106152
0.035468 0.045794 0.106152
0.035790 0.045796 0.094774
0.035790 0.045796 0.094774
0.035790 0.045796 0.094774
0.035790 0.045796 0.094774
0.035790 0.045796 0.094774
0.036058 0.045795 0.097780
0.036058 0.045795 0.097780
0.036058 0.045795 0.097780
0.036058 0.045795 0.097780
0.034801 0.045795 0.109021
0.034801 0.045795 0.109021
0.034801 0.045795 0.109021
0.034801 0.045795 0.109021
0.034801 0.045795 0.109021
0.030142 0.045795 0.119294
0.030142 0.045795 0.119294
0.030142 0.045795 0.119294
0.030142 0.045795 0.119294
0.030142 0.045795 0.119294
0.022468 0.045796 0.127680
0.022468 0.045796 0.127680
0.022468 0.045796 0.127680
0.022468 0.045796 0.127680
-0.006933 0.045797 0.134851
-0.006933 0.045797 0.134851
-0.006933 0.045797 0.134851
-0.014947 0.045795 0.132298
-0.014947 0.045795 0.132298
-0.014947 0.045795 0.132298
-0.014947 0.045795 0.132298
-0.017530 0.045794 0.130985
-0.017530 0.045794 0.130985
-0.017530 0.045794 0.130985
-0.017530 0.045794 0.130985
-0.017530 0.045794 0.130985
-0.026341 0.045794 0.124115
-0.026341 0.045794 0.124115
-0.026341 0.045794 0.124115
-0.026341 0.045794 0.124115
-0.026341 0.045794 0.124115
-0.032666 0.045794 0.114792
-0.032666 0.045794 0.114792
-0.032666 0.045794 0.114792
-0.032666 0.045794 0.114792
-0.032666 0.045794 0.114792
-0.032666 0.045794 0.114792
-0.036079 0.045796 0.098384
-0.036079 0.045796 0.098384
-0.036079 0.045796 0.098384
-0.036079 0.045796 0.098384
-0.036079 0.045796 0.098384
-0.036079 0.045796 0.098384
-0.035868 0.045796 0.095390
-0.035868 0.045796 0.095390
-0.035868 0.045796 0.095390
-0.035868 0.045796 0.095390
-0.035868 0.045796 0.095390
-0.032851 0.045796 0.084484
-0.032851 0.045796 0.084484
-0.032851 0.045796 0.084484
-0.032851 0.045796 0.084484
-0.032851 0.045796 0.084484
-0.026719 0.045792 0.075164
-0.026719 0.045792 0.075164
-0.026719 0.045792 0.075164
-0.026719 0.045792 0.075164
-0.026719 0.045792 0.075164
-0.020457 0.045797 0.069699
-0.020457 0.045797 0.069699
-0.020457 0.045797 0.069699
-0.020457 0.045797 0.069699
-0.020457 0.045797 0.069699
-0.017873 0.045794 0.068080
-0.017873 0.045794 0.068080
-0.017873 0.045794 0.068080
-0.017873 0.045794 0.068080
-0.017873 0.045794 0.068080
0.012336 0.045795 0.065516
0.012336 0.045795 0.065516
0.012336 0.045795 0.065516
0.012336 0.045795 0.065516
0.022130 0.045793 0.070914
0.022130 0.045793 0.070914
0.022130 0.045793 0.070914
0.022130 0.045793 0.070914
0.029845 0.045795 0.079128
0.029845 0.045795 0.079128
0.029845 0.045795 0.079128
0.029845 0.045795 0.079128
0.029845 0.045795 0.079128
0.004533 0.045795 0.135247
0.004533 0.045795 0.135247
0.004533 0.045795 0.135247
0.004533 0.045795 0.135247
-0.010196 0.045793 0.064805
-0.010196 0.045793 0.064805
-0.010196 0.045793 0.064805
-0.010196 0.045793 0.064805
-0.010196 0.045793 0.064805
-0.010196 0.045793 0.064805
-0.007298 0.045795 0.064084
-0.007298 0.045795 0.064084
-0.007298 0.045795 0.064084
-0.007298 0.045795 0.064084
0.034684 0.045794 0.089421
0.034684 0.045794 0.089421
0.034684 0.045794 0.089421
0.034684 0.045794 0.089421
0.034684 0.045794 0.089421
0.035346 0.045794 0.092105
0.035346 0.045794 0.092105
0.035346 0.045794 0.092105
0.035346 0.045794 0.092105
0.015499 0.045797 0.132029
0.015499 0.045797 0.132029
0.015499 0.045797 0.132029
0.015499 0.045797 0.132029
0.012646 0.045796 0.133240
0.012646 0.045796 0.133240
0.012646 0.045796 0.133240
0.012646 0.045796 0.133240
0.012646 0.045796 0.133240
0.010101 0.045795 0.134092
0.010101 0.045795 0.134092
0.010101 0.045795 0.134092
0.010101 0.045795 0.134092
-0.001074 0.045795 0.135519
-0.001074 0.045795 0.135519
-0.001074 0.045795 0.135519
-0.019858 0.045791 0.129586
-0.019858 0.045791 0.129586
-0.019858 0.045791 0.129586
-0.019858 0.045791 0.129586
-0.019858 0.045791 0.129586
-0.036056 0.045796 0.101019
-0.036056 0.045796 0.101019
-0.036056 0.045796 0.101019
-0.036056 0.045796 0.101019
-0.005250 0.045678 0.063510
-0.005250 0.045678 0.063510
-0.005250 0.045678 0.063510
-0.005250 0.045678 0.063510
-0.005250 0.045678 0.063510
-0.004528 0.045795 0.063624
-0.004528 0.045795 0.063624
-0.004528 0.045795 0.063624
-0.004528 0.045795 0.063624
0.001148 0.045795 0.063358
0.001148 0.045795 0.063358
0.001148 0.045795 0.063358
0.001148 0.045795 0.063358
0.003816 0.045796 0.063548
0.003816 0.045796 0.063548
0.003816 0.045796 0.063548
0.003816 0.045796 0.063548
0.017476 0.045795 0.067854
0.017476 0.045795 0.067854
0.017476 0.045795 0.067854
0.017476 0.045795 0.067854
0.017476 0.045795 0.067854
0.014806 0.045795 0.066516
0.014806 0.045795 0.066516
0.014806 0.045795 0.066516
0.014806 0.045795 0.066516
0.014806 0.045795 0.066516
0.033756 0.045794 0.086644
0.033756 0.045794 0.086644
0.033756 0.045794 0.086644
0.033756 0.045794 0.086644
0.033756 0.045794 0.086644
0.032670 0.045795 0.084085
0.032670 0.045795 0.084085
0.032670 0.045795 0.084085
0.032670 0.045795 0.084085
0.032670 0.045795 0.084085
0.032215 0.045685 0.082725
0.032215 0.045685 0.082725
0.032215 0.045685 0.082725
0.032215 0.045685 0.082725
0.032215 0.045685 0.082725
0.032215 0.045685 0.082725
0.031363 0.045794 0.081562
0.031363 0.045794 0.081562
0.031363 0.045794 0.081562
0.031363 0.045794 0.081562
0.031363 0.045794 0.081562
0.031363 0.045794 0.081562
0.027472 0.045685 0.075715
0.027472 0.045685 0.075715
0.027472 0.045685 0.075715
0.027472 0.045685 0.075715
0.027472 0.045685 0.075715
0.027472 0.045685 0.075715
0.026356 0.045795 0.074774
0.026356 0.045795 0.074774
0.026356 0.045795 0.074774
0.026356 0.045795 0.074774
0.024338 0.045795 0.072773
0.024338 0.045795 0.072773
0.024338 0.045795 0.072773
0.024338 0.045795 0.072773
0.024338 0.045795 0.072773
0.018964 0.045685 0.068496
0.018964 0.045685 0.068496
0.018964 0.045685 0.068496
0.018964 0.045685 0.068496
0.018964 0.045685 0.068496
0.018964 0.045685 0.068496
0.014078 0.045720 0.066057
0.014078 0.045720 0.066057
0.014078 0.045720 0.066057
0.014078 0.045720 0.066057
0.014078 0.045720 0.066057
0.007040 0.045797 0.064039
0.007040 0.045797 0.064039
0.007040 0.045797 0.064039
0.007040 0.045797 0.064039
0.011277 0.045681 0.064930
0.011277 0.045681 0.064930
0.011277 0.045681 0.064930
0.011277 0.045681 0.064930
0.011277 0.045681 0.064930
0.011277 0.045681 0.064930
-0.012553 0.045796 0.065597
-0.012553 0.045796 0.065597
-0.012553 0.045796 0.065597
-0.012553 0.045796 0.065597
-0.012553 0.045796 0.065597
-0.008145 0.045677 0.064051
-0.008145 0.045677 0.064051
-0.008145 0.045677 0.064051
-0.008145 0.045677 0.064051
-0.008145 0.045677 0.064051
-0.015529 0.045796 0.066859
-0.015529 0.045796 0.066859
-0.015529 0.045796 0.066859
-0.015529 0.045796 0.066859
-0.015529 0.045796 0.066859
-0.015529 0.045796 0.066859
-0.016121 0.045674 0.066889
-0.016121 0.045674 0.066889
-0.016121 0.045674 0.066889
-0.016121 0.045674 0.066889
-0.016121 0.045674 0.066889
-0.023093 0.045671 0.071391
-0.023093 0.045671 0.071391
-0.023093 0.045671 0.071391
-0.023093 0.045671 0.071391
-0.023093 0.045671 0.071391
-0.023093 0.045671 0.071391
-0.025234 0.045672 0.073311
-0.025234 0.045672 0.073311
-0.025234 0.045672 0.073311
-0.025234 0.045672 0.073311
-0.025234 0.045672 0.073311
-0.031645 0.045795 0.082073
-0.031645 0.045795 0.082073
-0.031645 0.045795 0.082073
-0.031645 0.045795 0.082073
-0.033992 0.045793 0.087290
-0.033992 0.045793 0.087290
-0.033992 0.045793 0.087290
-0.033992 0.045793 0.087290
-0.033992 0.045793 0.087290
-0.033992 0.045793 0.087290
-0.033992 0.045793 0.087290
-0.034818 0.045795 0.089912
-0.034818 0.045795 0.089912
-0.034818 0.045795 0.089912
-0.034818 0.045795 0.089912
-0.034818 0.045795 0.089912
-0.035456 0.045794 0.092652
-0.035456 0.045794 0.092652
-0.035456 0.045794 0.092652
-0.035456 0.045794 0.092652
-0.035456 0.045794 0.092652
-0.034668 0.045794 0.109493
-0.034668 0.045794 0.109493
-0.034668 0.045794 0.109493
-0.034668 0.045794 0.109493
-0.034668 0.045794 0.109493
-0.033770 0.045794 0.112191
-0.033770 0.045794 0.112191
-0.033770 0.045794 0.112191
-0.033770 0.045794 0.112191
-0.033770 0.045794 0.112191
-0.029876 0.045795 0.119692
-0.029876 0.045795 0.119692
-0.029876 0.045795 0.119692
-0.029876 0.045795 0.119692
-0.029876 0.045795 0.119692
-0.028166 0.045794 0.122012
-0.028166 0.045794 0.122012
-0.028166 0.045794 0.122012
-0.028166 0.045794 0.122012
-0.012426 0.045793 0.133325
-0.012426 0.045793 0.133325
-0.012426 0.045793 0.133325
-0.012426 0.045793 0.133325
-0.012426 0.045793 0.133325
-0.009392 0.045796 0.134286
-0.009392 0.045796 0.134286
-0.009392 0.045796 0.134286
-0.009392 0.045796 0.134286
-0.009392 0.045796 0.134286
-0.009392 0.045796 0.134286
-0.004116 0.045793 0.135295
-0.004116 0.045793 0.135295
-0.004116 0.045793 0.135295
-0.004116 0.045793 0.135295
-0.004116 0.045793 0.135295
-0.004116 0.045793 0.135295
0.006727 0.045675 0.135123
0.006727 0.045675 0.135123
0.006727 0.045675 0.135123
0.006727 0.045675 0.135123
0.006727 0.045675 0.135123
0.003834 0.045675 0.135547
0.003834 0.045675 0.135547
0.003834 0.045675 0.135547
0.003834 0.045675 0.135547
0.003834 0.045675 0.135547
0.017868 0.045796 0.130798
0.017868 0.045796 0.130798
0.017868 0.045796 0.130798
0.017868 0.045796 0.130798
0.020492 0.045797 0.129141
0.020492 0.045797 0.129141
0.020492 0.045797 0.129141
0.020492 0.045797 0.129141
0.020492 0.045797 0.129141
0.021902 0.045680 0.128390
0.021902 0.045680 0.128390
0.021902 0.045680 0.128390
0.021902 0.045680 0.128390
0.021902 0.045680 0.128390
0.021902 0.045680 0.128390
0.024199 0.045684 0.126484
0.024199 0.045684 0.126484
0.024199 0.045684 0.126484
0.024199 0.045684 0.126484
0.024199 0.045684 0.126484
0.026675 0.045795 0.123753
0.026675 0.045795 0.123753
0.026675 0.045795 0.123753
0.026675 0.045795 0.123753
0.027972 0.045718 0.122463
0.027972 0.045718 0.122463
0.027972 0.045718 0.122463
0.027972 0.045718 0.122463
0.027972 0.045718 0.122463
0.028621 0.045795 0.121423
0.028621 0.045795 0.121423
0.028621 0.045795 0.121423
0.028621 0.045795 0.121423
0.029804 0.045683 0.120161
0.029804 0.045683 0.120161
0.029804 0.045683 0.120161
0.029804 0.045683 0.120161
0.029804 0.045683 0.120161
0.029804 0.045683 0.120161
0.032888 0.045795 0.114313
0.032888 0.045795 0.114313
0.032888 0.045795 0.114313
0.032888 0.045795 0.114313
0.032888 0.045795 0.114313
0.032888 0.045795 0.114313
0.033663 0.045717 0.112845
0.033663 0.045717 0.112845
0.033663 0.045717 0.112845
0.033663 0.045717 0.112845
0.033663 0.045717 0.112845
0.033980 0.045794 0.111615
0.033980 0.045794 0.111615
0.033980 0.045794 0.111615
0.033980 0.045794 0.111615
0.033980 0.045794 0.111615
0.035846 0.045717 0.104716
0.035846 0.045717 0.104716
0.035846 0.045717 0.104716
0.035846 0.045717 0.104716
0.035846 0.045717 0.104716
0.035869 0.045795 0.103474
0.035869 0.045795 0.103474
0.035869 0.045795 0.103474
0.035869 0.045795 0.103474
0.035869 0.045795 0.103474
0.036080 0.045795 0.100541
0.036080 0.045795 0.100541
0.036080 0.045795 0.100541
0.036080 0.045795 0.100541
0.036080 0.045795 0.100541
0.036080 0.045795 0.100541
0.035816 0.045687 0.093585
0.035816 0.045687 0.093585
0.035816 0.045687 0.093585
0.035816 0.045687 0.093585
0.035816 0.045687 0.093585
0.035816 0.045687 0.093585
-0.001677 0.045795 0.063378
-0.001677 0.045795 0.063378
-0.001677 0.045795 0.063378
-0.001677 0.045795 0.063378
-0.001677 0.045795 0.063378
0.036207 0.045691 0.101730
0.036207 0.045691 0.101730
0.036207 0.045691 0.101730
0.036207 0.045691 0.101730
0.036207 0.045691 0.101730
0.036207 0.045691 0.101730
0.036290 0.045683 0.099065
0.036290 0.045683 0.099065
0.036290 0.045683 0.099065
0.036290 0.045683 0.099065
0.036290 0.045683 0.099065
0.036290 0.045683 0.099065
0.036137 0.045690 0.096299
0.036137 0.045690 0.096299
0.036137 0.045690 0.096299
0.036137 0.045690 0.096299
0.036137 0.045690 0.096299
0.035192 0.045690 0.090645
0.035192 0.045690 0.090645
0.035192 0.045690 0.090645
0.035192 0.045690 0.090645
0.035192 0.045690 0.090645
0.034441 0.045684 0.087997
0.034441 0.045684 0.087997
0.034441 0.045684 0.087997
0.034441 0.045684 0.087997
0.034441 0.045684 0.087997
0.033498 0.045691 0.085505
0.033498 0.045691 0.085505
0.033498 0.045691 0.085505
0.033498 0.045691 0.085505
0.033498 0.045691 0.085505
0.030873 0.045683 0.080359
0.030873 0.045683 0.080359
0.030873 0.045683 0.080359
0.030873 0.045683 0.080359
0.030873 0.045683 0.080359
0.030873 0.045683 0.080359
0.029285 0.045721 0.078113
0.029285 0.045721 0.078113
0.029285 0.045721 0.078113
0.029285 0.045721 0.078113
0.029285 0.045721 0.078113
0.025605 0.045680 0.073702
0.025605 0.045680 0.073702
0.025605 0.045680 0.073702
0.025605 0.045680 0.073702
0.025605 0.045680 0.073702
0.023610 0.045687 0.071883
0.023610 0.045687 0.071883
0.023610 0.045687 0.071883
0.023610 0.045687 0.071883
0.023610 0.045687 0.071883
0.023610 0.045687 0.071883
0.021370 0.045722 0.070184
0.021370 0.045722 0.070184
0.021370 0.045722 0.070184
0.021370 0.045722 0.070184
0.021370 0.045722 0.070184
0.016566 0.045682 0.067140
0.016566 0.045682 0.067140
0.016566 0.045682 0.067140
0.016566 0.045682 0.067140
0.016566 0.045682 0.067140
0.008636 0.045678 0.064173
0.008636 0.045678 0.064173
0.008636 0.045678 0.064173
0.008636 0.045678 0.064173
0.008636 0.045678 0.064173
0.008636 0.045678 0.064173
0.005905 0.045685 0.063630
0.005905 0.045685 0.063630
0.005905 0.045685 0.063630
0.005905 0.045685 0.063630
0.005905 0.045685 0.063630
0.003004 0.045680 0.063254
0.003004 0.045680 0.063254
0.003004 0.045680 0.063254
0.003004 0.045680 0.063254
0.003004 0.045680 0.063254
0.003004 0.045680 0.063254
0.000278 0.045681 0.063139
0.000278 0.045681 0.063139
0.000278 0.045681 0.063139
0.000278 0.045681 0.063139
0.000278 0.045681 0.063139
-0.002516 0.045678 0.063217
-0.002516 0.045678 0.063217
-0.002516 0.045678 0.063217
-0.002516 0.045678 0.063217
-0.002516 0.045678 0.063217
-0.002516 0.045678 0.063217
-0.013400 0.045713 0.065761
-0.013400 0.045713 0.065761
-0.013400 0.045713 0.065761
-0.013400 0.045713 0.065761
-0.013400 0.045713 0.065761
-0.028998 0.045675 0.077576
-0.028998 0.045675 0.077576
-0.028998 0.045675 0.077576
-0.028998 0.045675 0.077576
-0.028998 0.045675 0.077576
-0.032035 0.045664 0.082274
-0.032035 0.045664 0.082274
-0.032035 0.045664 0.082274
-0.032035 0.045664 0.082274
-0.032035 0.045664 0.082274
-0.032035 0.045664 0.082274
-0.033257 0.045669 0.084819
-0.033257 0.045669 0.084819
-0.033257 0.045669 0.084819
-0.033257 0.045669 0.084819
-0.036248 0.045631 0.095924
-0.036248 0.045631 0.095924
-0.036248 0.045631 0.095924
-0.036248 0.045631 0.095924
-0.036248 0.045631 0.095924
-0.036248 0.045631 0.095924
0.035398 0.045683 0.107449
0.035398 0.045683 0.107449
0.035398 0.045683 0.107449
0.035398 0.045683 0.107449
0.035398 0.045683 0.107449
0.034685 0.045687 0.110085
0.034685 0.045687 0.110085
0.034685 0.045687 0.110085
0.034685 0.045687 0.110085
0.034685 0.045687 0.110085
0.032580 0.045679 0.115453
0.032580 0.045679 0.115453
0.032580 0.045679 0.115453
0.032580 0.045679 0.115453
0.032580 0.045679 0.115453
0.032580 0.045679 0.115453
0.031283 0.045685 0.117828
0.031283 0.045685 0.117828
0.031283 0.045685 0.117828
0.031283 0.045685 0.117828
0.031283 0.045685 0.117828
0.026165 0.045680 0.124597
0.026165 0.045680 0.124597
0.026165 0.045680 0.124597
0.026165 0.045680 0.124597
0.026165 0.045680 0.124597
0.026165 0.045680 0.124597
0.019629 0.045711 0.129907
0.019629 0.045711 0.129907
0.019629 0.045711 0.129907
0.019629 0.045711 0.129907
0.019629 0.045711 0.129907
0.017226 0.045683 0.131383
0.017226 0.045683 0.131383
0.017226 0.045683 0.131383
0.017226 0.045683 0.131383
0.017226 0.045683 0.131383
0.017226 0.045683 0.131383
0.014650 0.045714 0.132587
0.014650 0.045714 0.132587
0.014650 0.045714 0.132587
0.014650 0.045714 0.132587
0.014650 0.045714 0.132587
0.011997 0.045671 0.133724
0.011997 0.045671 0.133724
0.011997 0.045671 0.133724
0.011997 0.045671 0.133724
0.011997 0.045671 0.133724
0.011997 0.045671 0.133724
0.009441 0.045679 0.134492
0.009441 0.045679 0.134492
0.009441 0.045679 0.134492
0.009441 0.045679 0.134492
0.009441 0.045679 0.134492
-0.001804 0.045678 0.135698
-0.001804 0.045678 0.135698
-0.001804 0.045678 0.135698
-0.001804 0.045678 0.135698
-0.001804 0.045678 0.135698
-0.007428 0.045634 0.135077
-0.007428 0.045634 0.135077
-0.007428 0.045634 0.135077
-0.007428 0.045634 0.135077
-0.007428 0.045634 0.135077
-0.007428 0.045634 0.135077
-0.007428 0.045634 0.135077
-0.010084 0.045673 0.134327
-0.010084 0.045673 0.134327
-0.010084 0.045673 0.134327
-0.010084 0.045673 0.134327
-0.028491 0.045633 0.122109
-0.028491 0.045633 0.122109
-0.028491 0.045633 0.122109
-0.028491 0.045633 0.122109
-0.028491 0.045633 0.122109
-0.028491 0.045633 0.122109
-0.030126 0.045631 0.119893
-0.030126 0.045631 0.119893
-0.030126 0.045631 0.119893
-0.030126 0.045631 0.119893
-0.030126 0.045631 0.119893
-0.034001 0.045661 0.112292
-0.034001 0.045661 0.112292
-0.034001 0.045661 0.112292
-0.034001 0.045661 0.112292
-0.034001 0.045661 0.112292
-0.036092 0.045632 0.104277
-0.036092 0.045632 0.104277
-0.036092 0.045632 0.104277
-0.036092 0.045632 0.104277
-0.036092 0.045632 0.104277
-0.036092 0.045632 0.104277
-0.036400 0.045632 0.098427
-0.036400 0.045632 0.098427
-0.036400 0.045632 0.098427
-0.036400 0.045632 0.098427
-0.036400 0.045632 0.098427
-0.036400 0.045632 0.098427
-0.035612 0.045606 0.107805
-0.035612 0.045606 0.107805
-0.035612 0.045606 0.107805
-0.035612 0.045606 0.107805
-0.034880 0.045612 0.110182
-0.034880 0.045612 0.110182
-0.034880 0.045612 0.110182
-0.034880 0.045612 0.110182
-0.034880 0.045612 0.110182
-0.034880 0.045612 0.110182
-0.034880 0.045612 0.110182
-0.032711 0.045604 0.115839
-0.032711 0.045604 0.115839
-0.032711 0.045604 0.115839
-0.032711 0.045604 0.115839
-0.032711 0.045604 0.115839
-0.032711 0.045604 0.115839
-0.032711 0.045604 0.115839
-0.028331 0.045591 0.123533
-0.028331 0.045591 0.123533
-0.028331 0.045591 0.123533
-0.028331 0.045591 0.123533
-0.028331 0.045591 0.123533
-0.028331 0.045591 0.123533
-0.028331 0.045591 0.123533
-0.028331 0.045591 0.123533
-0.026729 0.045604 0.124387
-0.026729 0.045604 0.124387
-0.026729 0.045604 0.124387
-0.026729 0.045604 0.124387
-0.025610 0.045588 0.126404
-0.025610 0.045588 0.126404
-0.025610 0.045588 0.126404
-0.025610 0.045588 0.126404
-0.025610 0.045588 0.126404
-0.025610 0.045588 0.126404
-0.023799 0.045612 0.127181
-0.023799 0.045612 0.127181
-0.023799 0.045612 0.127181
-0.023799 0.045612 0.127181
-0.023799 0.045612 0.127181
-0.023799 0.045612 0.127181
-0.019907 0.045604 0.130122
-0.019907 0.045604 0.130122
-0.019907 0.045604 0.130122
-0.019907 0.045604 0.130122
-0.019907 0.045604 0.130122
-0.019907 0.045604 0.130122
-0.019907 0.045604 0.130122
-0.019907 0.045604 0.130122
-0.016946 0.045606 0.131866
-0.016946 0.045606 0.131866
-0.016946 0.045606 0.131866
-0.016946 0.045606 0.131866
-0.016946 0.045606 0.131866
-0.016946 0.045606 0.131866
-0.011817 0.045604 0.134070
-0.011817 0.045604 0.134070
-0.011817 0.045604 0.134070
-0.011817 0.045604 0.134070
-0.011817 0.045604 0.134070
-0.011817 0.045604 0.134070
-0.011817 0.045604 0.134070
-0.003242 0.045604 0.135896
-0.003242 0.045604 0.135896
-0.003242 0.045604 0.135896
-0.003242 0.045604 0.135896
-0.003242 0.045604 0.135896
-0.003242 0.045604 0.135896
-0.003978 0.045589 0.136415
-0.003978 0.045589 0.136415
-0.003978 0.045589 0.136415
-0.003978 0.045589 0.136415
-0.003978 0.045589 0.136415
-0.003978 0.045589 0.136415
0.002155 0.045605 0.135962
0.002155 0.045605 0.135962
0.002155 0.045605 0.135962
0.002155 0.045605 0.135962
0.002155 0.045605 0.135962
0.002155 0.045605 0.135962
0.009663 0.045602 0.134849
0.009663 0.045602 0.134849
0.009663 0.045602 0.134849
0.009663 0.045602 0.134849
0.009663 0.045602 0.134849
0.009663 0.045602 0.134849
0.015769 0.045604 0.132454
0.015769 0.045604 0.132454
0.015769 0.045604 0.132454
0.015769 0.045604 0.132454
0.015769 0.045604 0.132454
0.015769 0.045604 0.132454
0.020705 0.045604 0.129612
0.020705 0.045604 0.129612
0.020705 0.045604 0.129612
0.020705 0.045604 0.129612
0.020705 0.045604 0.129612
0.020705 0.045604 0.129612
0.025357 0.045601 0.125907
0.025357 0.045601 0.125907
0.025357 0.045601 0.125907
0.025357 0.045601 0.125907
0.025357 0.045601 0.125907
0.025357 0.045601 0.125907
0.025357 0.045601 0.125907
0.028953 0.045604 0.121821
0.028953 0.045604 0.121821
0.028953 0.045604 0.121821
0.028953 0.045604 0.121821
0.028953 0.045604 0.121821
0.028953 0.045604 0.121821
0.032252 0.045600 0.116858
0.032252 0.045600 0.116858
0.032252 0.045600 0.116858
0.032252 0.045600 0.116858
0.032252 0.045600 0.116858
0.032252 0.045600 0.116858
0.034404 0.045604 0.111905
0.034404 0.045604 0.111905
0.034404 0.045604 0.111905
0.034404 0.045604 0.111905
0.034404 0.045604 0.111905
0.036030 0.045604 0.105806
0.036030 0.045604 0.105806
0.036030 0.045604 0.105806
0.036030 0.045604 0.105806
0.036030 0.045604 0.105806
0.036632 0.045601 0.100665
0.036632 0.045601 0.100665
0.036632 0.045601 0.100665
0.036632 0.045601 0.100665
0.036400 0.045601 0.095151
0.036400 0.045601 0.095151
0.036400 0.045601 0.095151
0.036400 0.045601 0.095151
0.036400 0.045601 0.095151
0.035340 0.045601 0.089685
0.035340 0.045601 0.089685
0.035340 0.045601 0.089685
0.035340 0.045601 0.089685
0.035340 0.045601 0.089685
0.035340 0.045601 0.089685
0.033254 0.045601 0.084016
0.033254 0.045601 0.084016
0.033254 0.045601 0.084016
0.033254 0.045601 0.084016
0.033254 0.045601 0.084016
0.030585 0.045600 0.079204
0.030585 0.045600 0.079204
0.030585 0.045600 0.079204
0.030585 0.045600 0.079204
0.030585 0.045600 0.079204
0.028873 0.045606 0.076969
0.028873 0.045606 0.076969
0.028873 0.045606 0.076969
0.028873 0.045606 0.076969
0.028873 0.045606 0.076969
0.028873 0.045606 0.076969
0.028873 0.045606 0.076969
0.024967 0.045600 0.072601
0.024967 0.045600 0.072601
0.024967 0.045600 0.072601
0.024967 0.045600 0.072601
0.024967 0.045600 0.072601
0.024967 0.045600 0.072601
0.020713 0.045604 0.069266
0.020713 0.045604 0.069266
0.020713 0.045604 0.069266
0.020713 0.045604 0.069266
0.020713 0.045604 0.069266
0.020713 0.045604 0.069266
0.015179 0.045604 0.066143
0.015179 0.045604 0.066143
0.015179 0.045604 0.066143
0.015179 0.045604 0.066143
0.015179 0.045604 0.066143
0.015179 0.045604 0.066143
0.010284 0.045601 0.064254
0.010284 0.045601 0.064254
0.010284 0.045601 0.064254
0.010284 0.045601 0.064254
0.010284 0.045601 0.064254
0.004712 0.045600 0.063084
0.004712 0.045600 0.063084
0.004712 0.045600 0.063084
0.004712 0.045600 0.063084
0.004712 0.045600 0.063084
0.004712 0.045600 0.063084
-0.000968 0.045601 0.062794
-0.000968 0.045601 0.062794
-0.000968 0.045601 0.062794
-0.000968 0.045601 0.062794
-0.000968 0.045601 0.062794
-0.000968 0.045601 0.062794
-0.006625 0.045600 0.063384
-0.006625 0.045600 0.063384
-0.006625 0.045600 0.063384
-0.006625 0.045600 0.063384
-0.006625 0.045600 0.063384
-0.006625 0.045600 0.063384
-0.011352 0.045604 0.064667
-0.011352 0.045604 0.064667
-0.011352 0.045604 0.064667
-0.011352 0.045604 0.064667
-0.014602 0.045606 0.065885
-0.014602 0.045606 0.065885
-0.014602 0.045606 0.065885
-0.014602 0.045606 0.065885
-0.014602 0.045606 0.065885
-0.019540 0.045604 0.068496
-0.019540 0.045604 0.068496
-0.019540 0.045604 0.068496
-0.019540 0.045604 0.068496
-0.019540 0.045604 0.068496
-0.019540 0.045604 0.068496
-0.024993 0.045601 0.072581
-0.024993 0.045601 0.072581
-0.024993 0.045601 0.072581
-0.024993 0.045601 0.072581
-0.024993 0.045601 0.072581
-0.024993 0.045601 0.072581
-0.024993 0.045601 0.072581
-0.028112 0.045605 0.076013
-0.028112 0.045605 0.076013
-0.028112 0.045605 0.076013
-0.028112 0.045605 0.076013
-0.028112 0.045605 0.076013
-0.031334 0.045604 0.080533
-0.031334 0.045604 0.080533
-0.031334 0.045604 0.080533
-0.031334 0.045604 0.080533
-0.031334 0.045604 0.080533
-0.031334 0.045604 0.080533
-0.034118 0.045605 0.086226
-0.034118 0.045605 0.086226
-0.034118 0.045605 0.086226
-0.034118 0.045605 0.086226
-0.034118 0.045605 0.086226
-0.034118 0.045605 0.086226
-0.035683 0.045601 0.091040
-0.035683 0.045601 0.091040
-0.035683 0.045601 0.091040
-0.035683 0.045601 0.091040
-0.035683 0.045601 0.091040
-0.035683 0.045601 0.091040
-0.036697 0.045591 0.093375
-0.036697 0.045591 0.093375
-0.036697 0.045591 0.093375
-0.036697 0.045591 0.093375
-0.036697 0.045591 0.093375
-0.036697 0.045591 0.093375
-0.036697 0.045591 0.093375
-0.036697 0.045591 0.093375
-0.036697 0.045591 0.093375
-0.036516 0.045599 0.103416
-0.036516 0.045599 0.103416
-0.036516 0.045599 0.103416
-0.036516 0.045599 0.103416
-0.036516 0.045599 0.103416
-0.036516 0.045599 0.103416
-0.036341 0.045650 0.101241
-0.036341 0.045650 0.101241
-0.036341 0.045650 0.101241
-0.036341 0.045650 0.101241
-0.035791 0.045649 0.092855
-0.035791 0.045649 0.092855
-0.035791 0.045649 0.092855
-0.035791 0.045649 0.092855
-0.035791 0.045649 0.092855
-0.035156 0.045650 0.090059
-0.035156 0.045650 0.090059
-0.035156 0.045650 0.090059
-0.035156 0.045650 0.090059
-0.035156 0.045650 0.090059
-0.020904 0.045650 0.069655
-0.020904 0.045650 0.069655
-0.020904 0.045650 0.069655
-0.020904 0.045650 0.069655
-0.020904 0.045650 0.069655
-0.015340 0.045650 0.132430
-0.015340 0.045650 0.132430
-0.015340 0.045650 0.132430
-0.015340 0.045650 0.132430
-0.015340 0.045650 0.132430
-0.031665 0.045650 0.117358
-0.031665 0.045650 0.117358
-0.031665 0.045650 0.117358
-0.031665 0.045650 0.117358
-0.032866 0.045598 0.116861
-0.032866 0.045598 0.116861
-0.032866 0.045598 0.116861
-0.032866 0.045598 0.116861
-0.032866 0.045598 0.116861
-0.030790 0.045598 0.078560
-0.030790 0.045598 0.078560
-0.030790 0.045598 0.078560
0.019178 0.045598 0.131311
0.019178 0.045598 0.131311
0.019178 0.045598 0.131311
0.019178 0.045598 0.131311
-0.019178 0.045598 0.067561
-0.019178 0.045598 0.067561
-0.019178 0.045598 0.067561
-0.019178 0.045598 0.067561
-0.022512 0.045598 0.069822
-0.022512 0.045598 0.069822
-0.022512 0.045598 0.069822
-0.022512 0.045598 0.069822
-0.025582 0.045598 0.072429
-0.025582 0.045598 0.072429
-0.025582 0.045598 0.072429
-0.025582 0.045598 0.072429
-0.028352 0.045598 0.075354
-0.028352 0.045598 0.075354
-0.028352 0.045598 0.075354
-0.028352 0.045598 0.075354
-0.034558 0.045598 0.113205
-0.034558 0.045598 0.113205
-0.034558 0.045598 0.113205
-0.034558 0.045598 0.113205
-0.034558 0.045598 0.113205
0.015620 0.045598 0.133197
0.015620 0.045598 0.133197
0.015620 0.045598 0.133197
0.015620 0.045598 0.133197
-0.015620 0.045598 0.065675
-0.015620 0.045598 0.065675
-0.015620 0.045598 0.065675
-0.015620 0.045598 0.065675
-0.030790 0.045598 0.120312
-0.030790 0.045598 0.120312
-0.030790 0.045598 0.120312
0.032866 0.045598 0.082011
0.032866 0.045598 0.082011
0.032866 0.045598 0.082011
0.032866 0.045598 0.082011
0.030790 0.045598 0.078560
0.030790 0.045598 0.078560
0.030790 0.045598 0.078560
-0.032866 0.045598 0.082011
-0.032866 0.045598 0.082011
-0.032866 0.045598 0.082011
-0.032866 0.045598 0.082011
-0.034558 0.045598 0.085667
-0.034558 0.045598 0.085667
-0.034558 0.045598 0.085667
-0.034558 0.045598 0.085667
0.022512 0.045598 0.129050
0.022512 0.045598 0.129050
0.022512 0.045598 0.129050
0.022512 0.045598 0.129050
0.022512 0.045598 0.129050
0.025582 0.045598 0.126443
0.025582 0.045598 0.126443
0.025582 0.045598 0.126443
0.030790 0.045598 0.120312
0.030790 0.045598 0.120312
0.030790 0.045598 0.120312
0.030790 0.045598 0.120312
0.030790 0.045598 0.120312
0.028352 0.045598 0.123519
0.028352 0.045598 0.123519
0.028352 0.045598 0.123519
0.028352 0.045598 0.123519
0.028352 0.045598 0.075354
0.028352 0.045598 0.075354
0.028352 0.045598 0.075354
0.028352 0.045598 0.075354
0.028352 0.045598 0.075354
-0.035844 0.045598 0.089484
-0.035844 0.045598 0.089484
-0.035844 0.045598 0.089484
-0.035844 0.045598 0.089484
-0.037145 0.045598 0.101450
-0.037145 0.045598 0.101450
-0.037145 0.045598 0.101450
-0.037145 0.045598 0.101450
-0.037145 0.045598 0.097422
-0.037145 0.045598 0.097422
-0.037145 0.045598 0.097422
0.025582 0.045598 0.072429
0.025582 0.045598 0.072429
0.025582 0.045598 0.072429
0.025582 0.045598 0.072429
-0.035844 0.045598 0.109388
-0.035844 0.045598 0.109388
-0.035844 0.045598 0.109388
-0.035844 0.045598 0.109388
-0.035844 0.045598 0.109388
-0.036710 0.045598 0.105454
-0.036710 0.045598 0.105454
-0.036710 0.045598 0.105454
-0.022512 0.045598 0.129050
-0.022512 0.045598 0.129050
-0.022512 0.045598 0.129050
-0.022512 0.045598 0.129050
0.032866 0.045598 0.116861
0.032866 0.045598 0.116861
0.032866 0.045598 0.116861
0.034557 0.045598 0.085667
0.034557 0.045598 0.085667
0.034557 0.045598 0.085667
0.034557 0.045598 0.085667
0.034557 0.045598 0.085667
0.022512 0.045598 0.069822
0.022512 0.045598 0.069822
0.022512 0.045598 0.069822
0.022512 0.045598 0.069822
0.022512 0.045598 0.069822
-0.019178 0.045598 0.131311
-0.019178 0.045598 0.131311
-0.019178 0.045598 0.131311
-0.019178 0.045598 0.131311
-0.015620 0.045598 0.133197
-0.015620 0.045598 0.133197
-0.015620 0.045598 0.133197
-0.015620 0.045598 0.133197
0.011878 0.045598 0.134688
0.011878 0.045598 0.134688
0.011878 0.045598 0.134688
0.034557 0.045598 0.113205
0.034557 0.045598 0.113205
0.034557 0.045598 0.113205
0.034557 0.045598 0.113205
0.037145 0.045598 0.097422
0.037145 0.045598 0.097422
0.037145 0.045598 0.097422
0.019178 0.045598 0.067561
0.019178 0.045598 0.067561
0.019178 0.045598 0.067561
0.019178 0.045598 0.067561
0.011878 0.045598 0.064184
0.011878 0.045598 0.064184
0.011878 0.045598 0.064184
0.015620 0.045598 0.065675
0.015620 0.045598 0.065675
0.015620 0.045598 0.065675
-0.007997 0.045598 0.063106
-0.007997 0.045598 0.063106
-0.007997 0.045598 0.063106
-0.007997 0.045598 0.063106
-0.011878 0.045598 0.134688
-0.011878 0.045598 0.134688
-0.011878 0.045598 0.134688
-0.011878 0.045598 0.064184
-0.011878 0.045598 0.064184
-0.011878 0.045598 0.064184
-0.011878 0.045598 0.064184
-0.007997 0.045598 0.135766
-0.007997 0.045598 0.135766
-0.007997 0.045598 0.135766
-0.007997 0.045598 0.135766
-0.007997 0.045598 0.135766
0.035844 0.045598 0.109388
0.035844 0.045598 0.109388
0.035844 0.045598 0.109388
0.036709 0.045598 0.105454
0.036709 0.045598 0.105454
0.036709 0.045598 0.105454
0.007997 0.045598 0.063106
0.007997 0.045598 0.063106
0.007997 0.045598 0.063106
0.007997 0.045598 0.063106
0.004022 0.045598 0.136418
0.004022 0.045598 0.136418
0.004022 0.045598 0.136418
0.004022 0.045598 0.136418
-0.000000 0.045598 0.136636
-0.000000 0.045598 0.136636
-0.000000 0.045598 0.136636
-0.000000 0.045598 0.136636
0.007997 0.045598 0.135766
0.007997 0.045598 0.135766
0.007997 0.045598 0.135766
0.007997 0.045598 0.135766
0.037145 0.045598 0.101450
0.037145 0.045598 0.101450
0.037145 0.045598 0.101450
0.035844 0.045598 0.089484
0.035844 0.045598 0.089484
0.035844 0.045598 0.089484
0.004022 0.045598 0.062455
0.004022 0.045598 0.062455
0.004022 0.045598 0.062455
0.004022 0.045598 0.062455
-0.000000 0.045598 0.062237
-0.000000 0.045598 0.062237
-0.000000 0.045598 0.062237
-0.000000 0.045598 0.062237
0.036709 0.045598 0.093418
0.036709 0.045598 0.093418
0.036709 0.045598 0.093418
-0.004022 0.045598 0.062455
-0.004022 0.045598 0.062455
-0.004022 0.045598 0.062455
-0.004022 0.045598 0.062455
0.000000 0.046113 0.061939
0.000000 0.046113 0.061939
0.000000 0.046113 0.061939
0.000000 0.046113 0.061939
0.000000 0.046113 0.061939
0.011973 0.046113 0.063902
0.011973 0.046113 0.063902
0.011973 0.046113 0.063902
0.011973 0.046113 0.063902
0.011973 0.046113 0.063902
0.004054 0.046113 0.062159
0.004054 0.046113 0.062159
0.004054 0.046113 0.062159
0.004054 0.046113 0.062159
0.004054 0.046113 0.062159
0.008061 0.046113 0.062816
0.008061 0.046113 0.062816
0.008061 0.046113 0.062816
0.008061 0.046113 0.062816
0.008061 0.046113 0.062816
0.015745 0.046113 0.065405
0.015745 0.046113 0.065405
0.015745 0.046113 0.065405
0.015745 0.046113 0.065405
0.015745 0.046113 0.065405
0.022692 0.046113 0.069585
0.022692 0.046113 0.069585
0.022692 0.046113 0.069585
0.022692 0.046113 0.069585
0.022692 0.046113 0.069585
0.019331 0.046113 0.067306
0.019331 0.046113 0.067306
0.019331 0.046113 0.067306
0.019331 0.046113 0.067306
0.019331 0.046113 0.067306
0.028579 0.046113 0.075161
0.028579 0.046113 0.075161
0.028579 0.046113 0.075161
0.028579 0.046113 0.075161
0.028579 0.046113 0.075161
0.025787 0.046113 0.072214
0.025787 0.046113 0.072214
0.025787 0.046113 0.072214
0.025787 0.046113 0.072214
0.025787 0.046113 0.072214
0.033129 0.046113 0.081872
0.033129 0.046113 0.081872
0.033129 0.046113 0.081872
0.033129 0.046113 0.081872
0.033129 0.046113 0.081872
0.031036 0.046113 0.078393
0.031036 0.046113 0.078393
0.031036 0.046113 0.078393
0.031036 0.046113 0.078393
0.031036 0.046113 0.078393
0.034834 0.046113 0.085557
0.034834 0.046113 0.085557
0.034834 0.046113 0.085557
0.034834 0.046113 0.085557
0.034834 0.046113 0.085557
0.036082 0.046106 0.089211
0.036082 0.046106 0.089211
0.036082 0.046106 0.089211
0.036082 0.046106 0.089211
0.036082 0.046106 0.089211
0.036082 0.046106 0.089211
0.037442 0.046113 0.101466
0.037442 0.046113 0.101466
0.037442 0.046113 0.101466
0.037442 0.046113 0.101466
0.037442 0.046113 0.101466
0.037003 0.046113 0.093370
0.037003 0.046113 0.093370
0.037003 0.046113 0.093370
0.037003 0.046113 0.093370
0.037003 0.046113 0.093370
0.037442 0.046113 0.097406
0.037442 0.046113 0.097406
0.037442 0.046113 0.097406
0.037442 0.046113 0.097406
0.037442 0.046113 0.097406
0.036130 0.046113 0.109467
0.036130 0.046113 0.109467
0.036130 0.046113 0.109467
0.036130 0.046113 0.109467
0.036130 0.046113 0.109467
0.037003 0.046113 0.105502
0.037003 0.046113 0.105502
0.037003 0.046113 0.105502
0.037003 0.046113 0.105502
0.037003 0.046113 0.105502
0.034834 0.046113 0.113315
0.034834 0.046113 0.113315
0.034834 0.046113 0.113315
0.034834 0.046113 0.113315
0.034834 0.046113 0.113315
0.033129 0.046113 0.117000
0.033129 0.046113 0.117000
0.033129 0.046113 0.117000
0.033129 0.046113 0.117000
0.033129 0.046113 0.117000
0.031036 0.046113 0.120479
0.031036 0.046113 0.120479
0.031036 0.046113 0.120479
0.031036 0.046113 0.120479
0.031036 0.046113 0.120479
0.028579 0.046113 0.123711
0.028579 0.046113 0.123711
0.028579 0.046113 0.123711
0.028579 0.046113 0.123711
0.028579 0.046113 0.123711
0.025787 0.046113 0.126659
0.025787 0.046113 0.126659
0.025787 0.046113 0.126659
0.025787 0.046113 0.126659
0.025787 0.046113 0.126659
0.022692 0.046113 0.129287
0.022692 0.046113 0.129287
0.022692 0.046113 0.129287
0.022692 0.046113 0.129287
0.022692 0.046113 0.129287
0.019331 0.046113 0.131566
0.019331 0.046113 0.131566
0.019331 0.046113 0.131566
0.019331 0.046113 0.131566
0.019331 0.046113 0.131566
0.015745 0.046113 0.133467
0.015745 0.046113 0.133467
0.015745 0.046113 0.133467
0.015745 0.046113 0.133467
0.015745 0.046113 0.133467
0.011973 0.046113 0.134970
0.011973 0.046113 0.134970
0.011973 0.046113 0.134970
0.011973 0.046113 0.134970
0.011973 0.046113 0.134970
0.004054 0.046113 0.136713
0.004054 0.046113 0.136713
0.004054 0.046113 0.136713
0.004054 0.046113 0.136713
0.004054 0.046113 0.136713
0.004054 0.046113 0.136713
0.008061 0.046113 0.136057
0.008061 0.046113 0.136057
0.008061 0.046113 0.136057
0.008061 0.046113 0.136057
0.008061 0.046113 0.136057
-0.004054 0.046113 0.136713
-0.004054 0.046113 0.136713
-0.004054 0.046113 0.136713
-0.004054 0.046113 0.136713
-0.004054 0.046113 0.136713
-0.004054 0.046113 0.136713
-0.000000 0.046113 0.136933
-0.000000 0.046113 0.136933
-0.000000 0.046113 0.136933
-0.000000 0.046113 0.136933
-0.000000 0.046113 0.136933
-0.008061 0.046113 0.136057
-0.008061 0.046113 0.136057
-0.008061 0.046113 0.136057
-0.008061 0.046113 0.136057
-0.008061 0.046113 0.136057
-0.011973 0.046113 0.134970
-0.011973 0.046113 0.134970
-0.011973 0.046113 0.134970
-0.011973 0.046113 0.134970
-0.011973 0.046113 0.134970
-0.015745 0.046113 0.133467
-0.015745 0.046113 0.133467
-0.015745 0.046113 0.133467
-0.015745 0.046113 0.133467
-0.015745 0.046113 0.133467
-0.019332 0.046113 0.131566
-0.019332 0.046113 0.131566
-0.019332 0.046113 0.131566
-0.019332 0.046113 0.131566
-0.019332 0.046113 0.131566
-0.022693 0.046113 0.129287
-0.022693 0.046113 0.129287
-0.022693 0.046113 0.129287
-0.022693 0.046113 0.129287
-0.022693 0.046113 0.129287
-0.022693 0.046113 0.129287
-0.025787 0.046113 0.126659
-0.025787 0.046113 0.126659
-0.025787 0.046113 0.126659
-0.025787 0.046113 0.126659
-0.025787 0.046113 0.126659
-0.028579 0.046113 0.123711
-0.028579 0.046113 0.123711
-0.028579 0.046113 0.123711
-0.028579 0.046113 0.123711
-0.028579 0.046113 0.123711
-0.031036 0.046113 0.120479
-0.031036 0.046113 0.120479
-0.031036 0.046113 0.120479
-0.031036 0.046113 0.120479
-0.031036 0.046113 0.120479
-0.033129 0.046113 0.117000
-0.033129 0.046113 0.117000
-0.033129 0.046113 0.117000
-0.033129 0.046113 0.117000
-0.033129 0.046113 0.117000
-0.034834 0.046113 0.113315
-0.034834 0.046113 0.113315
-0.034834 0.046113 0.113315
-0.034834 0.046113 0.113315
-0.034834 0.046113 0.113315
-0.036130 0.046113 0.109467
-0.036130 0.046113 0.109467
-0.036130 0.046113 0.109467
-0.036130 0.046113 0.109467
-0.036130 0.046113 0.109467
-0.037003 0.046113 0.105502
-0.037003 0.046113 0.105502
-0.037003 0.046113 0.105502
-0.037003 0.046113 0.105502
-0.037003 0.046113 0.105502
-0.037442 0.046113 0.101466
-0.037442 0.046113 0.101466
-0.037442 0.046113 0.101466
-0.037442 0.046113 0.101466
-0.037442 0.046113 0.101466
-0.037442 0.046113 0.097406
-0.037442 0.046113 0.097406
-0.037442 0.046113 0.097406
-0.037442 0.046113 0.097406
-0.037442 0.046113 0.097406
-0.037442 0.046113 0.097406
-0.037003 0.046113 0.093370
-0.037003 0.046113 0.093370
-0.037003 0.046113 0.093370
-0.037003 0.046113 0.093370
-0.037003 0.046113 0.093370
-0.036130 0.046113 0.089405
-0.036130 0.046113 0.089405
-0.036130 0.046113 0.089405
-0.036130 0.046113 0.089405
-0.036130 0.046113 0.089405
-0.034834 0.046113 0.085557
-0.034834 0.046113 0.085557
-0.034834 0.046113 0.085557
-0.034834 0.046113 0.085557
-0.034834 0.046113 0.085557
-0.033129 0.046113 0.081872
-0.033129 0.046113 0.081872
-0.033129 0.046113 0.081872
-0.033129 0.046113 0.081872
-0.033129 0.046113 0.081872
-0.031036 0.046113 0.078393
-0.031036 0.046113 0.078393
-0.031036 0.046113 0.078393
-0.031036 0.046113 0.078393
-0.031036 0.046113 0.078393
-0.028579 0.046113 0.075161
-0.028579 0.046113 0.075161
-0.028579 0.046113 0.075161
-0.028579 0.046113 0.075161
-0.028579 0.046113 0.075161
-0.025787 0.046113 0.072214
-0.025787 0.046113 0.072214
-0.025787 0.046113 0.072214
-0.025787 0.046113 0.072214
-0.025787 0.046113 0.072214
-0.022692 0.046113 0.069585
-0.022692 0.046113 0.069585
-0.022692 0.046113 0.069585
-0.022692 0.046113 0.069585
-0.022692 0.046113 0.069585
-0.015745 0.046113 0.065405
-0.015745 0.046113 0.065405
-0.015745 0.046113 0.065405
-0.015745 0.046113 0.065405
-0.015745 0.046113 0.065405
-0.019332 0.046113 0.067306
-0.019332 0.046113 0.067306
-0.019332 0.046113 0.067306
-0.019332 0.046113 0.067306
-0.019332 0.046113 0.067306
-0.004054 0.046113 0.062159
-0.004054 0.046113 0.062159
-0.004054 0.046113 0.062159
-0.004054 0.046113 0.062159
-0.004054 0.046113 0.062159
-0.011973 0.046113 0.063902
-0.011973 0.046113 0.063902
-0.011973 0.046113 0.063902
-0.011973 0.046113 0.063902
-0.011973 0.046113 0.063902
-0.008061 0.046113 0.062816
-0.008061 0.046113 0.062816
-0.008061 0.046113 0.062816
-0.008061 0.046113 0.062816
-0.008061 0.046113 0.062816
0.037280 0.046398 0.103490
0.037280 0.046398 0.103490
0.037280 0.046398 0.103490
0.037280 0.046398 0.103490
0.037499 0.046398 0.099436
0.037499 0.046398 0.099436
0.037499 0.046398 0.099436
0.037499 0.046398 0.099436
0.036623 0.046398 0.107497
0.036623 0.046398 0.107497
0.036623 0.046398 0.107497
0.036623 0.046398 0.107497
0.035536 0.046398 0.111410
0.035536 0.046398 0.111410
0.035536 0.046398 0.111410
0.035536 0.046398 0.111410
0.034034 0.046398 0.115182
0.034034 0.046398 0.115182
0.034034 0.046398 0.115182
0.034034 0.046398 0.115182
0.032132 0.046398 0.118769
0.032132 0.046398 0.118769
0.032132 0.046398 0.118769
0.032132 0.046398 0.118769
0.029853 0.046398 0.122130
0.029853 0.046398 0.122130
0.029853 0.046398 0.122130
0.029853 0.046398 0.122130
0.027224 0.046398 0.125224
0.027224 0.046398 0.125224
0.027224 0.046398 0.125224
0.027224 0.046398 0.125224
0.024277 0.046398 0.128017
0.024277 0.046398 0.128017
0.024277 0.046398 0.128017
0.024277 0.046398 0.128017
0.021044 0.046398 0.130474
0.021044 0.046398 0.130474
0.021044 0.046398 0.130474
0.021044 0.046398 0.130474
0.017565 0.046398 0.132567
0.017565 0.046398 0.132567
0.017565 0.046398 0.132567
0.017565 0.046398 0.132567
0.013880 0.046398 0.134272
0.013880 0.046398 0.134272
0.013880 0.046398 0.134272
0.013880 0.046398 0.134272
0.010032 0.046398 0.135569
0.010032 0.046398 0.135569
0.010032 0.046398 0.135569
0.010032 0.046398 0.135569
0.006067 0.046398 0.136442
0.006067 0.046398 0.136442
0.006067 0.046398 0.136442
0.006067 0.046398 0.136442
0.002030 0.046398 0.136881
0.002030 0.046398 0.136881
0.002030 0.046398 0.136881
0.002030 0.046398 0.136881
-0.002030 0.046398 0.136881
-0.002030 0.046398 0.136881
-0.002030 0.046398 0.136881
-0.002030 0.046398 0.136881
-0.006067 0.046398 0.136442
-0.006067 0.046398 0.136442
-0.006067 0.046398 0.136442
-0.006067 0.046398 0.136442
-0.010032 0.046398 0.135569
-0.010032 0.046398 0.135569
-0.010032 0.046398 0.135569
-0.010032 0.046398 0.135569
-0.013880 0.046398 0.134272
-0.013880 0.046398 0.134272
-0.013880 0.046398 0.134272
-0.013880 0.046398 0.134272
-0.017565 0.046398 0.132567
-0.017565 0.046398 0.132567
-0.017565 0.046398 0.132567
-0.017565 0.046398 0.132567
-0.021044 0.046398 0.130474
-0.021044 0.046398 0.130474
-0.021044 0.046398 0.130474
-0.021044 0.046398 0.130474
-0.024277 0.046398 0.128017
-0.024277 0.046398 0.128017
-0.024277 0.046398 0.128017
-0.024277 0.046398 0.128017
-0.027225 0.046398 0.125224
-0.027225 0.046398 0.125224
-0.027225 0.046398 0.125224
-0.027225 0.046398 0.125224
-0.029853 0.046398 0.122130
-0.029853 0.046398 0.122130
-0.029853 0.046398 0.122130
-0.029853 0.046398 0.122130
-0.032132 0.046398 0.118769
-0.032132 0.046398 0.118769
-0.032132 0.046398 0.118769
-0.032132 0.046398 0.118769
-0.034034 0.046398 0.115182
-0.034034 0.046398 0.115182
-0.034034 0.046398 0.115182
-0.034034 0.046398 0.115182
-0.035537 0.046398 0.111410
-0.035537 0.046398 0.111410
-0.035537 0.046398 0.111410
-0.035537 0.046398 0.111410
-0.036623 0.046398 0.107497
-0.036623 0.046398 0.107497
-0.036623 0.046398 0.107497
-0.036623 0.046398 0.107497
-0.037280 0.046398 0.103490
-0.037280 0.046398 0.103490
-0.037280 0.046398 0.103490
-0.037280 0.046398 0.103490
-0.037500 0.046398 0.099436
-0.037500 0.046398 0.099436
-0.037500 0.046398 0.099436
-0.037500 0.046398 0.099436
-0.037280 0.046398 0.095382
-0.037280 0.046398 0.095382
-0.037280 0.046398 0.095382
-0.037280 0.046398 0.095382
-0.036623 0.046398 0.091375
-0.036623 0.046398 0.091375
-0.036623 0.046398 0.091375
-0.036623 0.046398 0.091375
-0.035537 0.046398 0.087462
-0.035537 0.046398 0.087462
-0.035537 0.046398 0.087462
-0.035537 0.046398 0.087462
-0.034034 0.046398 0.083690
-0.034034 0.046398 0.083690
-0.034034 0.046398 0.083690
-0.034034 0.046398 0.083690
-0.032132 0.046398 0.080103
-0.032132 0.046398 0.080103
-0.032132 0.046398 0.080103
-0.032132 0.046398 0.080103
-0.029853 0.046398 0.076742
-0.029853 0.046398 0.076742
-0.029853 0.046398 0.076742
-0.029853 0.046398 0.076742
-0.027225 0.046398 0.073648
-0.027225 0.046398 0.073648
-0.027225 0.046398 0.073648
-0.027225 0.046398 0.073648
-0.024277 0.046398 0.070855
-0.024277 0.046398 0.070855
-0.024277 0.046398 0.070855
-0.024277 0.046398 0.070855
-0.021044 0.046398 0.068398
-0.021044 0.046398 0.068398
-0.021044 0.046398 0.068398
-0.021044 0.046398 0.068398
-0.017565 0.046398 0.066305
-0.017565 0.046398 0.066305
-0.017565 0.046398 0.066305
-0.017565 0.046398 0.066305
-0.013880 0.046398 0.064600
-0.013880 0.046398 0.064600
-0.013880 0.046398 0.064600
-0.013880 0.046398 0.064600
-0.010032 0.046398 0.063303
-0.010032 0.046398 0.063303
-0.010032 0.046398 0.063303
-0.010032 0.046398 0.063303
-0.006067 0.046398 0.062431
-0.006067 0.046398 0.062431
-0.006067 0.046398 0.062431
-0.006067 0.046398 0.062431
-0.002030 0.046398 0.061991
-0.002030 0.046398 0.061991
-0.002030 0.046398 0.061991
-0.002030 0.046398 0.061991
0.002030 0.046398 0.061991
0.002030 0.046398 0.061991
0.002030 0.046398 0.061991
0.002030 0.046398 0.061991
0.006067 0.046398 0.062431
0.006067 0.046398 0.062431
0.006067 0.046398 0.062431
0.006067 0.046398 0.062431
0.010032 0.046398 0.063303
0.010032 0.046398 0.063303
0.010032 0.046398 0.063303
0.010032 0.046398 0.063303
0.013880 0.046398 0.064600
0.013880 0.046398 0.064600
0.013880 0.046398 0.064600
0.013880 0.046398 0.064600
0.017565 0.046398 0.066305
0.017565 0.046398 0.066305
0.017565 0.046398 0.066305
0.017565 0.046398 0.066305
0.021044 0.046398 0.068398
0.021044 0.046398 0.068398
0.021044 0.046398 0.068398
0.021044 0.046398 0.068398
0.024277 0.046398 0.070855
0.024277 0.046398 0.070855
0.024277 0.046398 0.070855
0.024277 0.046398 0.070855
0.027224 0.046398 0.073648
0.027224 0.046398 0.073648
0.027224 0.046398 0.073648
0.027224 0.046398 0.073648
0.029853 0.046398 0.076742
0.029853 0.046398 0.076742
0.029853 0.046398 0.076742
0.029853 0.046398 0.076742
0.032132 0.046398 0.080103
0.032132 0.046398 0.080103
0.032132 0.046398 0.080103
0.032132 0.046398 0.080103
0.034034 0.046398 0.083690
0.034034 0.046398 0.083690
0.034034 0.046398 0.083690
0.034034 0.046398 0.083690
0.035536 0.046398 0.087462
0.035536 0.046398 0.087462
0.035536 0.046398 0.087462
0.035536 0.046398 0.087462
0.036623 0.046398 0.091375
0.036623 0.046398 0.091375
0.036623 0.046398 0.091375
0.036623 0.046398 0.091375
0.037280 0.046398 0.095382
0.037280 0.046398 0.095382
0.037280 0.046398 0.095382
0.037280 0.046398 0.095382
-0.036575 0.046398 0.101454
-0.036575 0.046398 0.101454
-0.036575 0.046398 0.101454
-0.036575 0.046398 0.101454
-0.036131 0.046398 0.105465
-0.036131 0.046398 0.105465
-0.036131 0.046398 0.105465
-0.036131 0.046398 0.105465
-0.036131 0.046398 0.105465
-0.035249 0.046398 0.109403
-0.035249 0.046398 0.109403
-0.035249 0.046398 0.109403
-0.035249 0.046398 0.109403
-0.033938 0.046398 0.113221
-0.033938 0.046398 0.113221
-0.033938 0.046398 0.113221
-0.033938 0.046398 0.113221
-0.033938 0.046398 0.113221
-0.032216 0.046398 0.116870
-0.032216 0.046398 0.116870
-0.032216 0.046398 0.116870
-0.032216 0.046398 0.116870
-0.030102 0.046398 0.120309
-0.030102 0.046398 0.120309
-0.030102 0.046398 0.120309
-0.030102 0.046398 0.120309
-0.027623 0.046398 0.123493
-0.027623 0.046398 0.123493
-0.027623 0.046398 0.123493
-0.027623 0.046398 0.123493
-0.027623 0.046398 0.123493
-0.024809 0.046398 0.126386
-0.024809 0.046398 0.126386
-0.024809 0.046398 0.126386
-0.024809 0.046398 0.126386
-0.021694 0.046398 0.128952
-0.021694 0.046398 0.128952
-0.021694 0.046398 0.128952
-0.021694 0.046398 0.128952
-0.021694 0.046398 0.128952
-0.018315 0.046398 0.131159
-0.018315 0.046398 0.131159
-0.018315 0.046398 0.131159
-0.018315 0.046398 0.131159
-0.014714 0.046398 0.132981
-0.014714 0.046398 0.132981
-0.014714 0.046398 0.132981
-0.014714 0.046398 0.132981
-0.014714 0.046398 0.132981
-0.010935 0.046398 0.134397
-0.010935 0.046398 0.134397
-0.010935 0.046398 0.134397
-0.010935 0.046398 0.134397
-0.007023 0.046398 0.135387
-0.007023 0.046398 0.135387
-0.007023 0.046398 0.135387
-0.007023 0.046398 0.135387
-0.003025 0.046398 0.135942
-0.003025 0.046398 0.135942
-0.003025 0.046398 0.135942
-0.003025 0.046398 0.135942
-0.003025 0.046398 0.135942
0.001009 0.046398 0.136053
0.001009 0.046398 0.136053
0.001009 0.046398 0.136053
0.001009 0.046398 0.136053
0.005031 0.046398 0.135719
0.005031 0.046398 0.135719
0.005031 0.046398 0.135719
0.005031 0.046398 0.135719
0.005031 0.046398 0.135719
0.008992 0.046398 0.134946
0.008992 0.046398 0.134946
0.008992 0.046398 0.134946
0.008992 0.046398 0.134946
0.012844 0.046398 0.133741
0.012844 0.046398 0.133741
0.012844 0.046398 0.133741
0.012844 0.046398 0.133741
0.016540 0.046398 0.132120
0.016540 0.046398 0.132120
0.016540 0.046398 0.132120
0.016540 0.046398 0.132120
0.016540 0.046398 0.132120
0.020035 0.046398 0.130102
0.020035 0.046398 0.130102
0.020035 0.046398 0.130102
0.020035 0.046398 0.130102
0.023287 0.046398 0.127712
0.023287 0.046398 0.127712
0.023287 0.046398 0.127712
0.023287 0.046398 0.127712
0.023287 0.046398 0.127712
0.026256 0.046398 0.124979
0.026256 0.046398 0.124979
0.026256 0.046398 0.124979
0.026256 0.046398 0.124979
0.028907 0.046398 0.121935
0.028907 0.046398 0.121935
0.028907 0.046398 0.121935
0.028907 0.046398 0.121935
0.028907 0.046398 0.121935
0.031206 0.046398 0.118619
0.031206 0.046398 0.118619
0.031206 0.046398 0.118619
0.031206 0.046398 0.118619
0.033127 0.046398 0.115069
0.033127 0.046398 0.115069
0.033127 0.046398 0.115069
0.033127 0.046398 0.115069
0.034646 0.046398 0.111330
0.034646 0.046398 0.111330
0.034646 0.046398 0.111330
0.034646 0.046398 0.111330
0.034646 0.046398 0.111330
0.035744 0.046398 0.107446
0.035744 0.046398 0.107446
0.035744 0.046398 0.107446
0.035744 0.046398 0.107446
0.036408 0.046398 0.103466
0.036408 0.046398 0.103466
0.036408 0.046398 0.103466
0.036408 0.046398 0.103466
0.036408 0.046398 0.103466
0.036631 0.046398 0.099436
0.036631 0.046398 0.099436
0.036631 0.046398 0.099436
0.036631 0.046398 0.099436
0.036408 0.046398 0.095406
0.036408 0.046398 0.095406
0.036408 0.046398 0.095406
0.036408 0.046398 0.095406
0.036408 0.046398 0.095406
0.035744 0.046398 0.091426
0.035744 0.046398 0.091426
0.035744 0.046398 0.091426
0.035744 0.046398 0.091426
0.034646 0.046398 0.087542
0.034646 0.046398 0.087542
0.034646 0.046398 0.087542
0.034646 0.046398 0.087542
0.033127 0.046398 0.083803
0.033127 0.046398 0.083803
0.033127 0.046398 0.083803
0.033127 0.046398 0.083803
0.033127 0.046398 0.083803
0.031206 0.046398 0.080254
0.031206 0.046398 0.080254
0.031206 0.046398 0.080254
0.031206 0.046398 0.080254
0.028907 0.046398 0.076937
0.028907 0.046398 0.076937
0.028907 0.046398 0.076937
0.028907 0.046398 0.076937
0.028907 0.046398 0.076937
0.026256 0.046398 0.073894
0.026256 0.046398 0.073894
0.026256 0.046398 0.073894
0.026256 0.046398 0.073894
0.023287 0.046398 0.071160
0.023287 0.046398 0.071160
0.023287 0.046398 0.071160
0.023287 0.046398 0.071160
0.020035 0.046398 0.068770
0.020035 0.046398 0.068770
0.020035 0.046398 0.068770
0.020035 0.046398 0.068770
0.020035 0.046398 0.068770
0.016540 0.046398 0.066752
0.016540 0.046398 0.066752
0.016540 0.046398 0.066752
0.016540 0.046398 0.066752
0.012844 0.046398 0.065131
0.012844 0.046398 0.065131
0.012844 0.046398 0.065131
0.012844 0.046398 0.065131
0.012844 0.046398 0.065131
0.008992 0.046398 0.063926
0.008992 0.046398 0.063926
0.008992 0.046398 0.063926
0.008992 0.046398 0.063926
0.005031 0.046398 0.063153
0.005031 0.046398 0.063153
0.005031 0.046398 0.063153
0.005031 0.046398 0.063153
0.005031 0.046398 0.063153
0.001009 0.046398 0.062819
0.001009 0.046398 0.062819
0.001009 0.046398 0.062819
0.001009 0.046398 0.062819
-0.003025 0.046398 0.062931
-0.003025 0.046398 0.062931
-0.003025 0.046398 0.062931
-0.003025 0.046398 0.062931
-0.007023 0.046398 0.063485
-0.007023 0.046398 0.063485
-0.007023 0.046398 0.063485
-0.007023 0.046398 0.063485
-0.007023 0.046398 0.063485
-0.010935 0.046398 0.064476
-0.010935 0.046398 0.064476
-0.010935 0.046398 0.064476
-0.010935 0.046398 0.064476
-0.014714 0.046398 0.065891
-0.014714 0.046398 0.065891
-0.014714 0.046398 0.065891
-0.014714 0.046398 0.065891
-0.014714 0.046398 0.065891
-0.018315 0.046398 0.067713
-0.018315 0.046398 0.067713
-0.018315 0.046398 0.067713
-0.018315 0.046398 0.067713
-0.021694 0.046398 0.069920
-0.021694 0.046398 0.069920
-0.021694 0.046398 0.069920
-0.021694 0.046398 0.069920
-0.021694 0.046398 0.069920
-0.024809 0.046398 0.072486
-0.024809 0.046398 0.072486
-0.024809 0.046398 0.072486
-0.024809 0.046398 0.072486
-0.027623 0.046398 0.075379
-0.027623 0.046398 0.075379
-0.027623 0.046398 0.075379
-0.027623 0.046398 0.075379
-0.030102 0.046398 0.078564
-0.030102 0.046398 0.078564
-0.030102 0.046398 0.078564
-0.030102 0.046398 0.078564
-0.030102 0.046398 0.078564
-0.032216 0.046398 0.082002
-0.032216 0.046398 0.082002
-0.032216 0.046398 0.082002
-0.032216 0.046398 0.082002
-0.033938 0.046398 0.085652
-0.033938 0.046398 0.085652
-0.033938 0.046398 0.085652
-0.033938 0.046398 0.085652
-0.033938 0.046398 0.085652
-0.035249 0.046398 0.089469
-0.035249 0.046398 0.089469
-0.035249 0.046398 0.089469
-0.035249 0.046398 0.089469
-0.036131 0.046398 0.093407
-0.036131 0.046398 0.093407
-0.036131 0.046398 0.093407
-0.036131 0.046398 0.093407
-0.036575 0.046398 0.097418
-0.036575 0.046398 0.097418
-0.036575 0.046398 0.097418
-0.036575 0.046398 0.097418
-0.036575 0.046398 0.097418
0.036201 0.047065 0.105138
0.036201 0.047065 0.105138
0.036201 0.047065 0.105138
0.036201 0.047065 0.105138
0.036201 0.047065 0.105138
0.036201 0.047065 0.105138
0.036201 0.047065 0.105138
0.035648 0.047029 0.107899
0.035648 0.047029 0.107899
0.035648 0.047029 0.107899
0.035648 0.047029 0.107899
0.035648 0.047029 0.107899
0.035648 0.047029 0.107899
0.033933 0.047070 0.113288
0.033933 0.047070 0.113288
0.033933 0.047070 0.113288
0.033933 0.047070 0.113288
0.033933 0.047070 0.113288
0.033933 0.047070 0.113288
0.033933 0.047070 0.113288
0.031373 0.047013 0.118356
0.031373 0.047013 0.118356
0.031373 0.047013 0.118356
0.031373 0.047013 0.118356
0.031373 0.047013 0.118356
0.028047 0.047065 0.123024
0.028047 0.047065 0.123024
0.028047 0.047065 0.123024
0.028047 0.047065 0.123024
0.028047 0.047065 0.123024
0.028047 0.047065 0.123024
0.021895 0.047070 0.128829
0.021895 0.047070 0.128829
0.021895 0.047070 0.128829
0.021895 0.047070 0.128829
0.021895 0.047070 0.128829
0.021895 0.047070 0.128829
0.019526 0.047010 0.130434
0.019526 0.047010 0.130434
0.019526 0.047010 0.130434
0.019526 0.047010 0.130434
0.019526 0.047010 0.130434
0.019526 0.047010 0.130434
0.003558 0.047070 0.135914
0.003558 0.047070 0.135914
0.003558 0.047070 0.135914
0.003558 0.047070 0.135914
0.003558 0.047070 0.135914
0.003558 0.047070 0.135914
0.000698 0.047029 0.136068
0.000698 0.047029 0.136068
0.000698 0.047029 0.136068
0.000698 0.047029 0.136068
0.000698 0.047029 0.136068
-0.004950 0.047031 0.135740
-0.004950 0.047031 0.135740
-0.004950 0.047031 0.135740
-0.004950 0.047031 0.135740
-0.004950 0.047031 0.135740
-0.004950 0.047031 0.135740
-0.010502 0.047014 0.134536
-0.010502 0.047014 0.134536
-0.010502 0.047014 0.134536
-0.010502 0.047014 0.134536
-0.010502 0.047014 0.134536
-0.013170 0.047035 0.133630
-0.013170 0.047035 0.133630
-0.013170 0.047035 0.133630
-0.013170 0.047035 0.133630
-0.013170 0.047035 0.133630
-0.013170 0.047035 0.133630
-0.015812 0.047009 0.132483
-0.015812 0.047009 0.132483
-0.015812 0.047009 0.132483
-0.015812 0.047009 0.132483
-0.015812 0.047009 0.132483
-0.020663 0.047067 0.129705
-0.020663 0.047067 0.129705
-0.020663 0.047067 0.129705
-0.020663 0.047067 0.129705
-0.020663 0.047067 0.129705
-0.020663 0.047067 0.129705
-0.023002 0.047070 0.127970
-0.023002 0.047070 0.127970
-0.023002 0.047070 0.127970
-0.023002 0.047070 0.127970
-0.023002 0.047070 0.127970
-0.023002 0.047070 0.127970
-0.025148 0.047011 0.126077
-0.025148 0.047011 0.126077
-0.025148 0.047011 0.126077
-0.025148 0.047011 0.126077
-0.025148 0.047011 0.126077
-0.028953 0.047012 0.121886
-0.028953 0.047012 0.121886
-0.028953 0.047012 0.121886
-0.028953 0.047012 0.121886
-0.028953 0.047012 0.121886
-0.030620 0.047028 0.119555
-0.030620 0.047028 0.119555
-0.030620 0.047028 0.119555
-0.030620 0.047028 0.119555
-0.030620 0.047028 0.119555
-0.030620 0.047028 0.119555
-0.030620 0.047028 0.119555
-0.032068 0.047031 0.117160
-0.032068 0.047031 0.117160
-0.032068 0.047031 0.117160
-0.032068 0.047031 0.117160
-0.032068 0.047031 0.117160
-0.035314 0.047066 0.109236
-0.035314 0.047066 0.109236
-0.035314 0.047066 0.109236
-0.035314 0.047066 0.109236
-0.035314 0.047066 0.109236
-0.035314 0.047066 0.109236
-0.035943 0.047011 0.106527
-0.035943 0.047011 0.106527
-0.035943 0.047011 0.106527
-0.035943 0.047011 0.106527
-0.036402 0.047070 0.103701
-0.036402 0.047070 0.103701
-0.036402 0.047070 0.103701
-0.036402 0.047070 0.103701
-0.036402 0.047070 0.103701
-0.036402 0.047070 0.103701
-0.036402 0.047070 0.103701
-0.036405 0.047070 0.095192
-0.036405 0.047070 0.095192
-0.036405 0.047070 0.095192
-0.036405 0.047070 0.095192
-0.036405 0.047070 0.095192
-0.036405 0.047070 0.095192
-0.036405 0.047070 0.095192
-0.034467 0.047067 0.086979
-0.034467 0.047067 0.086979
-0.034467 0.047067 0.086979
-0.034467 0.047067 0.086979
-0.034467 0.047067 0.086979
-0.033370 0.047070 0.084279
-0.033370 0.047070 0.084279
-0.033370 0.047070 0.084279
-0.033370 0.047070 0.084279
-0.033370 0.047070 0.084279
-0.033370 0.047070 0.084279
-0.032073 0.047011 0.081730
-0.032073 0.047011 0.081730
-0.032073 0.047011 0.081730
-0.032073 0.047011 0.081730
-0.032073 0.047011 0.081730
-0.027113 0.047066 0.074780
-0.027113 0.047066 0.074780
-0.027113 0.047066 0.074780
-0.027113 0.047066 0.074780
-0.027113 0.047066 0.074780
-0.027113 0.047066 0.074780
-0.023040 0.047073 0.070929
-0.023040 0.047073 0.070929
-0.023040 0.047073 0.070929
-0.023040 0.047073 0.070929
-0.023040 0.047073 0.070929
-0.023040 0.047073 0.070929
-0.020713 0.047009 0.069219
-0.020713 0.047009 0.069219
-0.020713 0.047009 0.069219
-0.020713 0.047009 0.069219
-0.020713 0.047009 0.069219
-0.020713 0.047009 0.069219
-0.013211 0.047070 0.065248
-0.013211 0.047070 0.065248
-0.013211 0.047070 0.065248
-0.013211 0.047070 0.065248
-0.013211 0.047070 0.065248
-0.013211 0.047070 0.065248
-0.013211 0.047070 0.065248
-0.010499 0.047011 0.064337
-0.010499 0.047011 0.064337
-0.010499 0.047011 0.064337
-0.010499 0.047011 0.064337
-0.010499 0.047011 0.064337
-0.007796 0.047029 0.063636
-0.007796 0.047029 0.063636
-0.007796 0.047029 0.063636
-0.007796 0.047029 0.063636
-0.007796 0.047029 0.063636
-0.007796 0.047029 0.063636
-0.004968 0.047031 0.063134
-0.004968 0.047031 0.063134
-0.004968 0.047031 0.063134
-0.004968 0.047031 0.063134
-0.004968 0.047031 0.063134
-0.002091 0.047065 0.062848
-0.002091 0.047065 0.062848
-0.002091 0.047065 0.062848
-0.002091 0.047065 0.062848
-0.002091 0.047065 0.062848
-0.002091 0.047065 0.062848
-0.002091 0.047065 0.062848
0.003515 0.047073 0.062951
0.003515 0.047073 0.062951
0.003515 0.047073 0.062951
0.003515 0.047073 0.062951
0.003515 0.047073 0.062951
0.011819 0.047029 0.064756
0.011819 0.047029 0.064756
0.011819 0.047029 0.064756
0.011819 0.047029 0.064756
0.011819 0.047029 0.064756
0.014505 0.047031 0.065789
0.014505 0.047031 0.065789
0.014505 0.047031 0.065789
0.014505 0.047031 0.065789
0.014505 0.047031 0.065789
0.014505 0.047031 0.065789
0.017082 0.047011 0.067027
0.017082 0.047011 0.067027
0.017082 0.047011 0.067027
0.017082 0.047011 0.067027
0.017082 0.047011 0.067027
0.017082 0.047011 0.067027
0.019512 0.047011 0.068429
0.019512 0.047011 0.068429
0.019512 0.047011 0.068429
0.019512 0.047011 0.068429
0.021878 0.047070 0.070031
0.021878 0.047070 0.070031
0.021878 0.047070 0.070031
0.021878 0.047070 0.070031
0.021878 0.047070 0.070031
0.021878 0.047070 0.070031
0.024126 0.047065 0.071851
0.024126 0.047065 0.071851
0.024126 0.047065 0.071851
0.024126 0.047065 0.071851
0.024126 0.047065 0.071851
0.024126 0.047065 0.071851
0.029812 0.047070 0.078115
0.029812 0.047070 0.078115
0.029812 0.047070 0.078115
0.029812 0.047070 0.078115
0.029812 0.047070 0.078115
0.029812 0.047070 0.078115
0.036540 0.047065 0.096637
0.036540 0.047065 0.096637
0.036540 0.047065 0.096637
0.036540 0.047065 0.096637
0.036540 0.047065 0.096637
0.036540 0.047065 0.096637
0.036529 0.047016 0.102254
0.036529 0.047016 0.102254
0.036529 0.047016 0.102254
0.036529 0.047016 0.102254
-0.025435 0.047120 0.072521
-0.025435 0.047120 0.072521
-0.025435 0.047120 0.072521
-0.025435 0.047120 0.072521
-0.025435 0.047120 0.072521
-0.025435 0.047120 0.072521
-0.027420 0.047099 0.074524
-0.027420 0.047099 0.074524
-0.027420 0.047099 0.074524
-0.027420 0.047099 0.074524
-0.027420 0.047099 0.074524
-0.029318 0.047100 0.076790
-0.029318 0.047100 0.076790
-0.029318 0.047100 0.076790
-0.029318 0.047100 0.076790
-0.029318 0.047100 0.076790
-0.029318 0.047100 0.076790
-0.029033 0.047184 0.076742
-0.029033 0.047184 0.076742
-0.029033 0.047184 0.076742
-0.029033 0.047184 0.076742
-0.029033 0.047184 0.076742
-0.029033 0.047184 0.076742
-0.030816 0.047174 0.079086
-0.030816 0.047174 0.079086
-0.030816 0.047174 0.079086
-0.030816 0.047174 0.079086
-0.030816 0.047174 0.079086
-0.030816 0.047174 0.079086
-0.032300 0.047174 0.081536
-0.032300 0.047174 0.081536
-0.032300 0.047174 0.081536
-0.032300 0.047174 0.081536
-0.032300 0.047174 0.081536
-0.032300 0.047174 0.081536
-0.033484 0.047184 0.084049
-0.033484 0.047184 0.084049
-0.033484 0.047184 0.084049
-0.033484 0.047184 0.084049
-0.033484 0.047184 0.084049
-0.033484 0.047184 0.084049
-0.034591 0.047187 0.086675
-0.034591 0.047187 0.086675
-0.034591 0.047187 0.086675
-0.034591 0.047187 0.086675
-0.034591 0.047187 0.086675
-0.034591 0.047187 0.086675
-0.034591 0.047187 0.086675
-0.035453 0.047180 0.089458
-0.035453 0.047180 0.089458
-0.035453 0.047180 0.089458
-0.035453 0.047180 0.089458
-0.035453 0.047180 0.089458
-0.035953 0.047065 0.092334
-0.035953 0.047065 0.092334
-0.035953 0.047065 0.092334
-0.035953 0.047065 0.092334
-0.035953 0.047065 0.092334
-0.035953 0.047065 0.092334
-0.036613 0.047029 0.098053
-0.036613 0.047029 0.098053
-0.036613 0.047029 0.098053
-0.036613 0.047029 0.098053
-0.036622 0.047066 0.100820
-0.036622 0.047066 0.100820
-0.036622 0.047066 0.100820
-0.036622 0.047066 0.100820
-0.036622 0.047066 0.100820
-0.036622 0.047066 0.100820
-0.036120 0.047180 0.092235
-0.036120 0.047180 0.092235
-0.036120 0.047180 0.092235
-0.036120 0.047180 0.092235
-0.036120 0.047180 0.092235
-0.036120 0.047180 0.092235
-0.036726 0.047157 0.097987
-0.036726 0.047157 0.097987
-0.036726 0.047157 0.097987
-0.036726 0.047157 0.097987
-0.036726 0.047157 0.097987
-0.036726 0.047157 0.097987
0.026121 0.047067 0.073730
0.026121 0.047067 0.073730
0.026121 0.047067 0.073730
0.026121 0.047067 0.073730
0.026121 0.047067 0.073730
0.026121 0.047067 0.073730
0.028021 0.047067 0.075815
0.028021 0.047067 0.075815
0.028021 0.047067 0.075815
0.028021 0.047067 0.075815
0.028021 0.047067 0.075815
0.030025 0.047180 0.078105
0.030025 0.047180 0.078105
0.030025 0.047180 0.078105
0.030025 0.047180 0.078105
0.030025 0.047180 0.078105
0.030025 0.047180 0.078105
0.031587 0.047180 0.080496
0.031587 0.047180 0.080496
0.031587 0.047180 0.080496
0.031587 0.047180 0.080496
0.031587 0.047180 0.080496
0.031587 0.047180 0.080496
0.032915 0.047176 0.083001
0.032915 0.047176 0.083001
0.032915 0.047176 0.083001
0.032915 0.047176 0.083001
0.032915 0.047176 0.083001
0.032915 0.047176 0.083001
0.032915 0.047176 0.083001
0.034111 0.047179 0.085600
0.034111 0.047179 0.085600
0.034111 0.047179 0.085600
0.034111 0.047179 0.085600
0.034111 0.047179 0.085600
0.034111 0.047179 0.085600
0.035104 0.047180 0.088291
0.035104 0.047180 0.088291
0.035104 0.047180 0.088291
0.035104 0.047180 0.088291
0.035104 0.047180 0.088291
0.035931 0.047177 0.090996
0.035931 0.047177 0.090996
0.035931 0.047177 0.090996
0.035931 0.047177 0.090996
0.035931 0.047177 0.090996
0.035931 0.047177 0.090996
0.036582 0.047120 0.093684
0.036582 0.047120 0.093684
0.036582 0.047120 0.093684
0.036582 0.047120 0.093684
0.036582 0.047120 0.093684
0.036918 0.047117 0.096479
0.036918 0.047117 0.096479
0.036918 0.047117 0.096479
0.036918 0.047117 0.096479
0.036918 0.047117 0.096479
0.036918 0.047117 0.096479
0.037037 0.047116 0.099478
0.037037 0.047116 0.099478
0.037037 0.047116 0.099478
0.037037 0.047116 0.099478
0.037037 0.047116 0.099478
0.037037 0.047116 0.099478
0.037037 0.047116 0.099478
0.036942 0.047086 0.102287
0.036942 0.047086 0.102287
0.036942 0.047086 0.102287
0.036942 0.047086 0.102287
0.036942 0.047086 0.102287
0.036604 0.047117 0.105073
0.036604 0.047117 0.105073
0.036604 0.047117 0.105073
0.036604 0.047117 0.105073
0.036604 0.047117 0.105073
0.036604 0.047117 0.105073
0.036604 0.047117 0.105073
0.031393 0.047066 0.080528
0.031393 0.047066 0.080528
0.031393 0.047066 0.080528
0.031393 0.047066 0.080528
0.031393 0.047066 0.080528
0.031393 0.047066 0.080528
0.036063 0.047066 0.107985
0.036063 0.047066 0.107985
0.036063 0.047066 0.107985
0.036063 0.047066 0.107985
0.036063 0.047066 0.107985
0.036404 0.047180 0.093849
0.036404 0.047180 0.093849
0.036404 0.047180 0.093849
0.036404 0.047180 0.093849
0.036404 0.047180 0.093849
0.036404 0.047180 0.093849
0.036728 0.047180 0.096687
0.036728 0.047180 0.096687
0.036728 0.047180 0.096687
0.036728 0.047180 0.096687
0.036728 0.047180 0.096687
0.036728 0.047180 0.096687
0.036792 0.047177 0.102370
0.036792 0.047177 0.102370
0.036792 0.047177 0.102370
0.036792 0.047177 0.102370
0.036792 0.047177 0.102370
0.036792 0.047177 0.102370
0.035295 0.047069 0.110737
0.035295 0.047069 0.110737
0.035295 0.047069 0.110737
0.035295 0.047069 0.110737
0.035295 0.047069 0.110737
0.035295 0.047069 0.110737
0.034318 0.047117 0.113362
0.034318 0.047117 0.113362
0.034318 0.047117 0.113362
0.034318 0.047117 0.113362
0.034318 0.047117 0.113362
0.034318 0.047117 0.113362
0.034318 0.047117 0.113362
0.033919 0.047050 0.085568
0.033919 0.047050 0.085568
0.033919 0.047050 0.085568
0.033919 0.047050 0.085568
0.033919 0.047050 0.085568
0.033919 0.047050 0.085568
0.034909 0.047065 0.088283
0.034909 0.047065 0.088283
0.034909 0.047065 0.088283
0.034909 0.047065 0.088283
0.034909 0.047065 0.088283
0.034909 0.047065 0.088283
0.034909 0.047065 0.088283
0.033119 0.047066 0.116071
0.033119 0.047066 0.116071
0.033119 0.047066 0.116071
0.033119 0.047066 0.116071
0.033119 0.047066 0.116071
0.032723 0.047029 0.082955
0.032723 0.047029 0.082955
0.032723 0.047029 0.082955
0.032723 0.047029 0.082955
0.035752 0.047149 0.090990
0.035752 0.047149 0.090990
0.035752 0.047149 0.090990
0.035752 0.047149 0.090990
0.035752 0.047149 0.090990
0.035752 0.047149 0.090990
0.036830 0.047180 0.099541
0.036830 0.047180 0.099541
0.036830 0.047180 0.099541
0.036830 0.047180 0.099541
0.036830 0.047180 0.099541
0.036830 0.047180 0.099541
0.035917 0.047174 0.108019
0.035917 0.047174 0.108019
0.035917 0.047174 0.108019
0.035917 0.047174 0.108019
0.035917 0.047174 0.108019
0.035917 0.047174 0.108019
0.035144 0.047174 0.110777
0.035144 0.047174 0.110777
0.035144 0.047174 0.110777
0.035144 0.047174 0.110777
0.035144 0.047174 0.110777
0.035144 0.047174 0.110777
0.031720 0.047083 0.118590
0.031720 0.047083 0.118590
0.031720 0.047083 0.118590
0.031720 0.047083 0.118590
0.031720 0.047083 0.118590
0.031720 0.047083 0.118590
0.035648 0.047014 0.090981
0.035648 0.047014 0.090981
0.035648 0.047014 0.090981
0.035648 0.047014 0.090981
0.035648 0.047014 0.090981
0.036208 0.047073 0.093737
0.036208 0.047073 0.093737
0.036208 0.047073 0.093737
0.036208 0.047073 0.093737
0.036208 0.047073 0.093737
0.036208 0.047073 0.093737
0.036624 0.047149 0.102310
0.036624 0.047149 0.102310
0.036624 0.047149 0.102310
0.036624 0.047149 0.102310
0.036624 0.047149 0.102310
0.036624 0.047149 0.102310
0.036372 0.047180 0.105231
0.036372 0.047180 0.105231
0.036372 0.047180 0.105231
0.036372 0.047180 0.105231
0.036372 0.047180 0.105231
0.036372 0.047180 0.105231
0.032933 0.047182 0.116103
0.032933 0.047182 0.116103
0.032933 0.047182 0.116103
0.032933 0.047182 0.116103
0.032933 0.047182 0.116103
0.032933 0.047182 0.116103
0.032933 0.047182 0.116103
0.030145 0.047120 0.120945
0.030145 0.047120 0.120945
0.030145 0.047120 0.120945
0.030145 0.047120 0.120945
0.030145 0.047120 0.120945
0.030145 0.047120 0.120945
0.030145 0.047120 0.120945
0.028411 0.047083 0.123223
0.028411 0.047083 0.123223
0.028411 0.047083 0.123223
0.028411 0.047083 0.123223
0.028411 0.047083 0.123223
0.026412 0.047116 0.125400
0.026412 0.047116 0.125400
0.026412 0.047116 0.125400
0.026412 0.047116 0.125400
0.026412 0.047116 0.125400
0.026412 0.047116 0.125400
0.026412 0.047116 0.125400
0.036652 0.047071 0.099413
0.036652 0.047071 0.099413
0.036652 0.047071 0.099413
0.036652 0.047071 0.099413
0.036652 0.047071 0.099413
0.036652 0.047071 0.099413
0.035759 0.047157 0.107935
0.035759 0.047157 0.107935
0.035759 0.047157 0.107935
0.035759 0.047157 0.107935
0.035759 0.047157 0.107935
0.035759 0.047157 0.107935
0.034993 0.047157 0.110681
0.034993 0.047157 0.110681
0.034993 0.047157 0.110681
0.034993 0.047157 0.110681
0.034993 0.047157 0.110681
0.034993 0.047157 0.110681
0.034055 0.047180 0.113463
0.034055 0.047180 0.113463
0.034055 0.047180 0.113463
0.034055 0.047180 0.113463
0.034055 0.047180 0.113463
0.034055 0.047180 0.113463
0.031562 0.047177 0.118570
0.031562 0.047177 0.118570
0.031562 0.047177 0.118570
0.031562 0.047177 0.118570
0.031562 0.047177 0.118570
0.028140 0.047187 0.123259
0.028140 0.047187 0.123259
0.028140 0.047187 0.123259
0.028140 0.047187 0.123259
0.028140 0.047187 0.123259
0.028140 0.047187 0.123259
0.028140 0.047187 0.123259
0.024375 0.047103 0.127328
0.024375 0.047103 0.127328
0.024375 0.047103 0.127328
0.024375 0.047103 0.127328
0.034902 0.047029 0.110585
0.034902 0.047029 0.110585
0.034902 0.047029 0.110585
0.034902 0.047029 0.110585
0.032826 0.047145 0.115933
0.032826 0.047145 0.115933
0.032826 0.047145 0.115933
0.032826 0.047145 0.115933
0.032826 0.047145 0.115933
0.031438 0.047149 0.118441
0.031438 0.047149 0.118441
0.031438 0.047149 0.118441
0.031438 0.047149 0.118441
0.031438 0.047149 0.118441
0.031438 0.047149 0.118441
0.031438 0.047149 0.118441
0.029902 0.047180 0.120938
0.029902 0.047180 0.120938
0.029902 0.047180 0.120938
0.029902 0.047180 0.120938
0.029902 0.047180 0.120938
0.026221 0.047180 0.125300
0.026221 0.047180 0.125300
