cold-deuu/summit_ur5_project/robot_description/ur_description/meshes/ur5e/sca_meshes/wrist1.txt
wrist1
V
-0.002658 0.089874 0.045429
0.000006 0.089776 0.045430
-0.001899 0.088847 0.045437
0.002658 0.162723 0.045429
-0.000006 0.162820 0.045430
0.001899 0.163750 0.045437
0.001899 0.088847 0.045437
-0.001899 0.163750 0.045437
-0.037307 0.122505 0.045437
-0.036303 0.122299 0.045430
-0.036732 0.118750 0.045437
0.037307 0.130092 0.045437
0.036303 0.130298 0.045430
0.036732 0.133847 0.045437
0.005326 0.090166 0.045430
0.005678 0.089231 0.045437
0.002672 0.089875 0.045429
0.009399 0.089996 0.045437
0.007949 0.090656 0.045427
-0.005326 0.162431 0.045430
-0.005679 0.163365 0.045437
-0.002672 0.162722 0.045429
-0.009399 0.162601 0.045437
-0.007950 0.161941 0.045427
-0.036302 0.130287 0.045429
-0.036591 0.126146 0.045435
-0.037307 0.130092 0.045437
-0.037500 0.126298 0.045437
-0.036591 0.126146 0.045435
-0.037307 0.122505 0.045437
0.015507 0.093234 0.045429
0.016515 0.092631 0.045437
0.013053 0.092192 0.045428
0.013024 0.091133 0.045437
0.010532 0.091327 0.045430
0.036499 0.124967 0.045430
0.036497 0.127637 0.045430
0.037499 0.126298 0.045437
-0.015508 0.159363 0.045429
-0.016515 0.159966 0.045437
-0.013052 0.160408 0.045429
-0.013024 0.161464 0.045437
0.037307 0.122505 0.045437
-0.037307 0.130092 0.045437
-0.035909 0.119656 0.045427
-0.035333 0.117056 0.045430
-0.035780 0.115072 0.045437
-0.033611 0.112009 0.045430
-0.034461 0.111510 0.045437
-0.034564 0.114500 0.045430
0.035909 0.132941 0.045427
0.035333 0.135541 0.045430
0.035780 0.137524 0.045437
0.033611 0.140587 0.045430
0.034460 0.141086 0.045437
0.034563 0.138097 0.045430
-0.005679 0.089231 0.045437
-0.005311 0.090148 0.045432
-0.001899 0.088847 0.045437
-0.005311 0.090148 0.045432
0.005678 0.163365 0.045437
0.005313 0.162432 0.045430
-0.010529 0.161270 0.045430
-0.032788 0.108100 0.045437
-0.032476 0.109593 0.045429
-0.028069 0.102931 0.045430
-0.028453 0.101872 0.045437
-0.029699 0.105043 0.045429
-0.030778 0.104876 0.045437
0.032788 0.144497 0.045437
0.032476 0.143004 0.045429
0.028069 0.149665 0.045430
0.028453 0.150724 0.045437
0.029699 0.147554 0.045429
0.030778 0.147721 0.045437
-0.024368 0.099094 0.045430
-0.022954 0.096645 0.045437
-0.025836 0.099119 0.045437
-0.026286 0.100945 0.045429
0.017877 0.094450 0.045430
0.019836 0.094475 0.045437
0.022954 0.096645 0.045437
0.022321 0.097389 0.045431
0.025836 0.099119 0.045437
0.025836 0.099119 0.045437
0.022321 0.097389 0.045431
0.024376 0.099103 0.045429
0.034568 0.114510 0.045430
0.035334 0.117069 0.045428
0.035780 0.115072 0.045437
0.024368 0.153503 0.045430
0.022954 0.155952 0.045437
0.025836 0.153478 0.045437
0.026286 0.151652 0.045429
-0.017877 0.158146 0.045430
-0.019836 0.158122 0.045437
-0.022954 0.155952 0.045437
-0.022324 0.155204 0.045430
-0.025836 0.153478 0.045437
-0.025836 0.153478 0.045437
-0.022324 0.155204 0.045430
-0.024376 0.153494 0.045429
-0.034568 0.138087 0.045430
-0.035334 0.135527 0.045428
-0.035780 0.137524 0.045437
-0.028453 0.101872 0.045437
-0.028069 0.102931 0.045430
-0.025836 0.099119 0.045437
-0.025836 0.099119 0.045437
-0.028069 0.102931 0.045430
-0.026286 0.100945 0.045429
0.020157 0.095848 0.045427
0.019836 0.094475 0.045437
0.020157 0.095848 0.045427
0.022321 0.097389 0.045431
0.022954 0.096645 0.045437
0.026295 0.100951 0.045430
0.028453 0.101872 0.045437
0.025836 0.099119 0.045437
0.026295 0.100951 0.045430
0.031177 0.107278 0.045429
0.032482 0.109602 0.045430
0.032788 0.108100 0.045437
0.028453 0.150724 0.045437
0.028069 0.149665 0.045430
0.025836 0.153478 0.045437
0.025836 0.153478 0.045437
0.028069 0.149665 0.045430
0.026286 0.151652 0.045429
-0.017877 0.158146 0.045430
-0.020181 0.156775 0.045434
-0.019836 0.158122 0.045437
-0.022954 0.155952 0.045437
-0.020181 0.156775 0.045434
-0.026295 0.151645 0.045430
-0.028453 0.150724 0.045437
-0.025836 0.153478 0.045437
-0.026295 0.151645 0.045430
-0.031177 0.145318 0.045429
-0.032483 0.142995 0.045430
-0.032788 0.144497 0.045437
-0.031172 0.107267 0.045430
-0.022316 0.097388 0.045429
-0.019836 0.094475 0.045437
-0.020147 0.095836 0.045430
-0.017869 0.094447 0.045429
-0.016515 0.092631 0.045437
-0.015497 0.093226 0.045430
-0.013037 0.092186 0.045427
-0.013024 0.091133 0.045437
-0.013024 0.091133 0.045437
-0.013037 0.092186 0.045427
-0.010518 0.091291 0.045434
-0.013024 0.091133 0.045437
-0.010518 0.091291 0.045434
-0.009399 0.089996 0.045437
-0.007932 0.090634 0.045431
-0.009399 0.089996 0.045437
-0.007932 0.090634 0.045431
-0.005679 0.089231 0.045437
0.029705 0.105051 0.045430
0.030778 0.104876 0.045437
0.028075 0.102941 0.045429
0.028075 0.102941 0.045429
0.028453 0.101872 0.045437
0.036732 0.118750 0.045437
0.035916 0.119665 0.045430
0.036300 0.122313 0.045427
0.031172 0.145329 0.045430
0.022316 0.155209 0.045429
0.019836 0.158122 0.045437
0.020147 0.156761 0.045430
0.017869 0.158150 0.045429
0.016515 0.159966 0.045437
0.013024 0.161464 0.045437
0.013040 0.160412 0.045429
0.010518 0.161274 0.045430
0.009399 0.162601 0.045437
0.007933 0.161946 0.045428
-0.029705 0.147549 0.045431
-0.030778 0.147721 0.045437
-0.029705 0.147549 0.045431
-0.028453 0.150724 0.045437
-0.028076 0.149651 0.045427
-0.036732 0.133847 0.045437
-0.035916 0.132931 0.045430
0.034460 0.111510 0.045437
0.033614 0.112020 0.045429
-0.034461 0.141086 0.045437
-0.033614 0.140576 0.045429
-0.015497 0.093226 0.045430
0.032788 0.108100 0.045437
0.029705 0.105051 0.045430
0.031177 0.107278 0.045429
0.015497 0.159370 0.045430
-0.032788 0.144497 0.045437
-0.031177 0.145318 0.045429
-0.036378 0.127570 0.045260
-0.036400 0.126298 0.045237
-0.036373 0.124901 0.045260
-0.007827 0.090742 0.045316
-0.010453 0.091386 0.045368
-0.010430 0.091423 0.045270
-0.010430 0.091423 0.045270
-0.010453 0.091386 0.045368
-0.012953 0.092277 0.045298
-0.036178 0.122241 0.045300
-0.036428 0.124925 0.045382
-0.036373 0.124901 0.045260
-0.036373 0.124901 0.045260
-0.036428 0.124925 0.045382
-0.036431 0.127588 0.045382
-0.036373 0.124901 0.045260
-0.036431 0.127588 0.045382
-0.036378 0.127570 0.045260
-0.036378 0.127570 0.045260
-0.036431 0.127588 0.045382
-0.036192 0.130228 0.045300
-0.022310 0.155065 0.045298
-0.020149 0.156666 0.045368
-0.020135 0.156624 0.045270
-0.020135 0.156624 0.045270
-0.020149 0.156666 0.045368
-0.017865 0.158017 0.045298
0.005236 0.162325 0.045302
0.007933 0.161946 0.045428
0.007854 0.161845 0.045299
0.007854 0.161845 0.045299
0.007933 0.161946 0.045428
0.010518 0.161274 0.045430
0.010440 0.161174 0.045300
0.010440 0.161174 0.045300
0.010518 0.161274 0.045430
0.013040 0.160412 0.045429
0.010440 0.161174 0.045300
0.013040 0.160412 0.045429
0.012930 0.160329 0.045298
0.012930 0.160329 0.045298
0.013040 0.160412 0.045429
0.015497 0.159370 0.045430
0.012930 0.160329 0.045298
0.015497 0.159370 0.045430
0.015390 0.159291 0.045302
0.015390 0.159291 0.045302
0.015497 0.159370 0.045430
0.017869 0.158150 0.045429
0.015390 0.159291 0.045302
0.017869 0.158150 0.045429
0.017763 0.158074 0.045299
0.017763 0.158074 0.045299
0.017869 0.158150 0.045429
0.020147 0.156761 0.045430
0.017763 0.158074 0.045299
0.020147 0.156761 0.045430
0.020022 0.156702 0.045299
0.020022 0.156702 0.045299
0.020147 0.156761 0.045430
0.022316 0.155209 0.045429
0.020022 0.156702 0.045299
0.022316 0.155209 0.045429
0.022189 0.155159 0.045300
0.022189 0.155159 0.045300
0.022316 0.155209 0.045429
0.024368 0.153503 0.045430
0.022189 0.155159 0.045300
0.024368 0.153503 0.045430
0.024239 0.153462 0.045302
0.024239 0.153462 0.045302
0.024368 0.153503 0.045430
0.026286 0.151652 0.045429
0.024239 0.153462 0.045302
0.026286 0.151652 0.045429
0.026173 0.151602 0.045300
0.026173 0.151602 0.045300
0.026286 0.151652 0.045429
0.028069 0.149665 0.045430
0.026173 0.151602 0.045300
0.028069 0.149665 0.045430
0.027930 0.149647 0.045298
0.027930 0.149647 0.045298
0.028069 0.149665 0.045430
0.029699 0.147554 0.045429
0.027930 0.149647 0.045298
0.029699 0.147554 0.045429
0.029567 0.147539 0.045302
0.029567 0.147539 0.045302
0.029699 0.147554 0.045429
0.031172 0.145329 0.045430
0.029567 0.147539 0.045302
0.031172 0.145329 0.045430
0.031042 0.145315 0.045298
0.031042 0.145315 0.045298
0.031172 0.145329 0.045430
0.032476 0.143004 0.045429
0.031042 0.145315 0.045298
0.032476 0.143004 0.045429
0.032339 0.143014 0.045299
0.032339 0.143014 0.045299
0.032476 0.143004 0.045429
0.033611 0.140587 0.045430
0.032339 0.143014 0.045299
0.033611 0.140587 0.045430
0.033479 0.140598 0.045302
0.033479 0.140598 0.045302
0.033611 0.140587 0.045430
0.034563 0.138097 0.045430
0.033479 0.140598 0.045302
0.034563 0.138097 0.045430
0.034436 0.138104 0.045298
0.034436 0.138104 0.045298
0.034563 0.138097 0.045430
0.035333 0.135541 0.045430
0.034436 0.138104 0.045298
0.035333 0.135541 0.045430
0.035208 0.135556 0.045300
0.035208 0.135556 0.045300
0.035333 0.135541 0.045430
0.035909 0.132941 0.045427
0.035208 0.135556 0.045300
0.035909 0.132941 0.045427
0.035784 0.132990 0.045299
0.035784 0.132990 0.045299
0.035909 0.132941 0.045427
0.036303 0.130298 0.045430
0.035784 0.132990 0.045299
0.036303 0.130298 0.045430
0.036179 0.130351 0.045302
0.036179 0.130351 0.045302
0.036303 0.130298 0.045430
0.036497 0.127637 0.045430
0.036179 0.130351 0.045302
0.036497 0.127637 0.045430
0.036378 0.127677 0.045300
0.036378 0.127677 0.045300
0.036497 0.127637 0.045430
0.036499 0.124967 0.045430
0.036378 0.127677 0.045300
0.036499 0.124967 0.045430
0.036382 0.125046 0.045298
0.036382 0.125046 0.045298
0.036499 0.124967 0.045430
0.036300 0.122313 0.045427
0.036382 0.125046 0.045298
0.036300 0.122313 0.045427
0.036194 0.122384 0.045302
0.036194 0.122384 0.045302
0.036300 0.122313 0.045427
0.035916 0.119665 0.045430
0.036194 0.122384 0.045302
0.035916 0.119665 0.045430
0.035808 0.119741 0.045298
0.035808 0.119741 0.045298
0.035916 0.119665 0.045430
0.035334 0.117069 0.045428
0.035808 0.119741 0.045298
0.035334 0.117069 0.045428
0.035240 0.117164 0.045300
0.035240 0.117164 0.045300
0.035334 0.117069 0.045428
0.034568 0.114510 0.045430
0.035240 0.117164 0.045300
0.034568 0.114510 0.045430
0.034480 0.114620 0.045299
0.034480 0.114620 0.045299
0.034568 0.114510 0.045430
0.033614 0.112020 0.045429
0.034480 0.114620 0.045299
0.033614 0.112020 0.045429
0.033534 0.112127 0.045302
0.033534 0.112127 0.045302
0.033614 0.112020 0.045429
0.032482 0.109602 0.045430
0.033534 0.112127 0.045302
0.032482 0.109602 0.045430
0.032399 0.109697 0.045300
0.032399 0.109697 0.045300
0.032482 0.109602 0.045430
0.031177 0.107278 0.045429
0.032399 0.109697 0.045300
0.031177 0.107278 0.045429
0.031115 0.107402 0.045298
0.031115 0.107402 0.045298
0.031177 0.107278 0.045429
0.029705 0.105051 0.045430
0.031115 0.107402 0.045298
0.029705 0.105051 0.045430
0.029648 0.105171 0.045302
0.029648 0.105171 0.045302
0.029705 0.105051 0.045430
0.028075 0.102941 0.045429
0.029648 0.105171 0.045302
0.028075 0.102941 0.045429
0.028011 0.103047 0.045299
0.028011 0.103047 0.045299
0.028075 0.102941 0.045429
0.026295 0.100951 0.045430
0.028011 0.103047 0.045299
0.026295 0.100951 0.045430
0.026258 0.101084 0.045299
0.026258 0.101084 0.045299
0.026295 0.100951 0.045430
0.024376 0.099103 0.045429
0.026258 0.101084 0.045299
0.024376 0.099103 0.045429
0.024343 0.099228 0.045302
0.024343 0.099228 0.045302
0.024376 0.099103 0.045429
0.022321 0.097389 0.045431
0.024343 0.099228 0.045302
0.022321 0.097389 0.045431
0.022293 0.097518 0.045299
0.022293 0.097518 0.045299
0.022321 0.097389 0.045431
0.020157 0.095848 0.045427
0.022293 0.097518 0.045299
0.020157 0.095848 0.045427
0.020129 0.095965 0.045300
0.020129 0.095965 0.045300
0.020157 0.095848 0.045427
0.017877 0.094450 0.045430
0.020129 0.095965 0.045300
0.017877 0.094450 0.045430
0.017887 0.094592 0.045298
0.017887 0.094592 0.045298
0.017877 0.094450 0.045430
0.015507 0.093234 0.045429
0.017887 0.094592 0.045298
0.015507 0.093234 0.045429
0.015524 0.093370 0.045300
0.015524 0.093370 0.045300
0.015507 0.093234 0.045429
0.013053 0.092192 0.045428
0.015524 0.093370 0.045300
0.013053 0.092192 0.045428
0.013075 0.092322 0.045301
0.013075 0.092322 0.045301
0.013053 0.092192 0.045428
0.010532 0.091327 0.045430
0.013075 0.092322 0.045301
0.010532 0.091327 0.045430
0.010563 0.091460 0.045299
0.010563 0.091460 0.045299
0.010532 0.091327 0.045430
0.007949 0.090656 0.045427
0.010563 0.091460 0.045299
0.007949 0.090656 0.045427
0.007981 0.090778 0.045302
0.007981 0.090778 0.045302
0.007949 0.090656 0.045427
0.005326 0.090166 0.045430
0.007981 0.090778 0.045302
0.005326 0.090166 0.045430
0.005354 0.090290 0.045299
0.005354 0.090290 0.045299
0.005326 0.090166 0.045430
0.002672 0.089875 0.045429
0.005354 0.090290 0.045299
0.002672 0.089875 0.045429
0.002708 0.089995 0.045300
0.002708 0.089995 0.045300
0.002672 0.089875 0.045429
0.000006 0.089776 0.045430
0.002708 0.089995 0.045300
0.000006 0.089776 0.045430
0.000081 0.089894 0.045299
0.000081 0.089894 0.045299
0.000006 0.089776 0.045430
-0.002658 0.089874 0.045429
0.000081 0.089894 0.045299
-0.002658 0.089874 0.045429
-0.002587 0.089985 0.045302
-0.002587 0.089985 0.045302
-0.002658 0.089874 0.045429
-0.005240 0.090270 0.045315
-0.010453 0.091386 0.045368
-0.013037 0.092186 0.045427
-0.012953 0.092277 0.045298
-0.012953 0.092277 0.045298
-0.013037 0.092186 0.045427
-0.015497 0.093226 0.045430
-0.012953 0.092277 0.045298
-0.015497 0.093226 0.045430
-0.015383 0.093303 0.045300
-0.015383 0.093303 0.045300
-0.015497 0.093226 0.045430
-0.017869 0.094447 0.045429
-0.015383 0.093303 0.045300
-0.017869 0.094447 0.045429
-0.017746 0.094513 0.045299
-0.017746 0.094513 0.045299
-0.017869 0.094447 0.045429
-0.020147 0.095836 0.045430
-0.017746 0.094513 0.045299
-0.020147 0.095836 0.045430
-0.020028 0.095897 0.045302
-0.020028 0.095897 0.045302
-0.020147 0.095836 0.045430
-0.022316 0.097388 0.045429
-0.020028 0.095897 0.045302
-0.022316 0.097388 0.045429
-0.022210 0.097454 0.045300
-0.022210 0.097454 0.045300
-0.022316 0.097388 0.045429
-0.024368 0.099094 0.045430
-0.022210 0.097454 0.045300
-0.024368 0.099094 0.045430
-0.024235 0.099134 0.045298
-0.024235 0.099134 0.045298
-0.024368 0.099094 0.045430
-0.026286 0.100945 0.045429
-0.024235 0.099134 0.045298
-0.026286 0.100945 0.045429
-0.026161 0.100981 0.045302
-0.026161 0.100981 0.045302
-0.026286 0.100945 0.045429
-0.028069 0.102931 0.045430
-0.026161 0.100981 0.045302
-0.028069 0.102931 0.045430
-0.027952 0.102975 0.045300
-0.027952 0.102975 0.045300
-0.028069 0.102931 0.045430
-0.029699 0.105043 0.045429
-0.027952 0.102975 0.045300
-0.029699 0.105043 0.045429
-0.029565 0.105057 0.045299
-0.029565 0.105057 0.045299
-0.029699 0.105043 0.045429
-0.031172 0.107267 0.045430
-0.029565 0.105057 0.045299
-0.031172 0.107267 0.045430
-0.031041 0.107277 0.045302
-0.031041 0.107277 0.045302
-0.031172 0.107267 0.045430
-0.032476 0.109593 0.045429
-0.031041 0.107277 0.045302
-0.032476 0.109593 0.045429
-0.032350 0.109602 0.045300
-0.032350 0.109602 0.045300
-0.032476 0.109593 0.045429
-0.033611 0.112009 0.045430
-0.032350 0.109602 0.045300
-0.033611 0.112009 0.045430
-0.033485 0.112014 0.045300
-0.033485 0.112014 0.045300
-0.033611 0.112009 0.045430
-0.034564 0.114500 0.045430
-0.033485 0.112014 0.045300
-0.034564 0.114500 0.045430
-0.034428 0.114469 0.045298
-0.034428 0.114469 0.045298
-0.034564 0.114500 0.045430
-0.035333 0.117056 0.045430
-0.034428 0.114469 0.045298
-0.035333 0.117056 0.045430
-0.035204 0.117023 0.045302
-0.035204 0.117023 0.045302
-0.035333 0.117056 0.045430
-0.035909 0.119656 0.045427
-0.035204 0.117023 0.045302
-0.035909 0.119656 0.045427
-0.035788 0.119626 0.045299
-0.035788 0.119626 0.045299
-0.035909 0.119656 0.045427
-0.036303 0.122299 0.045430
-0.035788 0.119626 0.045299
-0.036303 0.122299 0.045430
-0.036178 0.122241 0.045300
-0.036178 0.122241 0.045300
-0.036303 0.122299 0.045430
-0.036428 0.124925 0.045382
-0.036431 0.127588 0.045382
-0.036302 0.130287 0.045429
-0.036192 0.130228 0.045300
-0.036192 0.130228 0.045300
-0.036302 0.130287 0.045429
-0.035916 0.132931 0.045430
-0.036192 0.130228 0.045300
-0.035916 0.132931 0.045430
-0.035813 0.132831 0.045298
-0.035813 0.132831 0.045298
-0.035916 0.132931 0.045430
-0.035334 0.135527 0.045428
-0.035813 0.132831 0.045298
-0.035334 0.135527 0.045428
-0.035240 0.135439 0.045302
-0.035240 0.135439 0.045302
-0.035334 0.135527 0.045428
-0.034568 0.138087 0.045430
-0.035240 0.135439 0.045302
-0.034568 0.138087 0.045430
-0.034474 0.137994 0.045299
-0.034474 0.137994 0.045299
-0.034568 0.138087 0.045430
-0.033614 0.140576 0.045429
-0.034474 0.137994 0.045299
-0.033614 0.140576 0.045429
-0.033535 0.140464 0.045299
-0.033535 0.140464 0.045299
-0.033614 0.140576 0.045429
-0.032483 0.142995 0.045430
-0.033535 0.140464 0.045299
-0.032483 0.142995 0.045430
-0.032410 0.142878 0.045301
-0.032410 0.142878 0.045301
-0.032483 0.142995 0.045430
-0.031177 0.145318 0.045429
-0.032410 0.142878 0.045301
-0.031177 0.145318 0.045429
-0.031115 0.145199 0.045302
-0.031115 0.145199 0.045302
-0.031177 0.145318 0.045429
-0.029705 0.147549 0.045431
-0.031115 0.145199 0.045302
-0.029705 0.147549 0.045431
-0.029637 0.147439 0.045300
-0.029637 0.147439 0.045300
-0.029705 0.147549 0.045431
-0.028076 0.149651 0.045427
-0.029637 0.147439 0.045300
-0.028076 0.149651 0.045427
-0.028034 0.149523 0.045299
-0.028034 0.149523 0.045299
-0.028076 0.149651 0.045427
-0.026295 0.151645 0.045430
-0.028034 0.149523 0.045299
-0.026295 0.151645 0.045430
-0.026258 0.151515 0.045302
-0.026258 0.151515 0.045302
-0.026295 0.151645 0.045430
-0.024376 0.153494 0.045429
-0.026258 0.151515 0.045302
-0.024376 0.153494 0.045429
-0.024330 0.153379 0.045300
-0.024330 0.153379 0.045300
-0.024376 0.153494 0.045429
-0.022324 0.155204 0.045430
-0.024330 0.153379 0.045300
-0.022324 0.155204 0.045430
-0.022310 0.155065 0.045298
-0.022310 0.155065 0.045298
-0.022324 0.155204 0.045430
-0.020149 0.156666 0.045368
-0.020149 0.156666 0.045368
-0.017877 0.158146 0.045430
-0.017865 0.158017 0.045298
-0.017865 0.158017 0.045298
-0.017877 0.158146 0.045430
-0.015508 0.159363 0.045429
-0.017865 0.158017 0.045298
-0.015508 0.159363 0.045429
-0.015521 0.159229 0.045300
-0.015521 0.159229 0.045300
-0.015508 0.159363 0.045429
-0.013052 0.160408 0.045429
-0.015521 0.159229 0.045300
-0.013052 0.160408 0.045429
-0.013080 0.160272 0.045299
-0.013080 0.160272 0.045299
-0.013052 0.160408 0.045429
-0.010529 0.161270 0.045430
-0.013080 0.160272 0.045299
-0.010529 0.161270 0.045430
-0.010566 0.161136 0.045300
-0.010566 0.161136 0.045300
-0.010529 0.161270 0.045430
-0.007950 0.161941 0.045427
-0.010566 0.161136 0.045300
-0.007950 0.161941 0.045427
-0.007977 0.161819 0.045302
-0.007977 0.161819 0.045302
-0.007950 0.161941 0.045427
-0.005326 0.162431 0.045430
-0.007977 0.161819 0.045302
-0.005326 0.162431 0.045430
-0.005378 0.162303 0.045298
-0.005378 0.162303 0.045298
-0.005326 0.162431 0.045430
-0.002672 0.162722 0.045429
-0.005378 0.162303 0.045298
-0.002672 0.162722 0.045429
-0.002726 0.162602 0.045302
-0.002726 0.162602 0.045302
-0.002672 0.162722 0.045429
-0.000006 0.162820 0.045430
-0.002726 0.162602 0.045302
-0.000006 0.162820 0.045430
-0.000057 0.162702 0.045298
-0.000057 0.162702 0.045298
-0.000006 0.162820 0.045430
0.002658 0.162723 0.045429
-0.000057 0.162702 0.045298
0.002658 0.162723 0.045429
0.002581 0.162611 0.045300
0.002581 0.162611 0.045300
0.002658 0.162723 0.045429
0.005313 0.162432 0.045430
0.002581 0.162611 0.045300
0.005313 0.162432 0.045430
0.005236 0.162325 0.045302
0.005236 0.162325 0.045302
0.005313 0.162432 0.045430
0.007933 0.161946 0.045428
-0.002658 0.089874 0.045429
-0.005311 0.090148 0.045432
-0.005240 0.090270 0.045315
-0.005240 0.090270 0.045315
-0.005311 0.090148 0.045432
-0.007932 0.090634 0.045431
-0.005240 0.090270 0.045315
-0.007932 0.090634 0.045431
-0.007827 0.090742 0.045316
-0.007827 0.090742 0.045316
-0.007932 0.090634 0.045431
-0.010453 0.091386 0.045368
-0.007932 0.090634 0.045431
-0.010518 0.091291 0.045434
-0.010453 0.091386 0.045368
-0.010453 0.091386 0.045368
-0.010518 0.091291 0.045434
-0.013037 0.092186 0.045427
-0.022324 0.155204 0.045430
-0.020181 0.156775 0.045434
-0.020149 0.156666 0.045368
-0.020149 0.156666 0.045368
-0.020181 0.156775 0.045434
-0.017877 0.158146 0.045430
-0.036303 0.122299 0.045430
-0.036591 0.126146 0.045435
-0.036428 0.124925 0.045382
-0.036428 0.124925 0.045382
-0.036591 0.126146 0.045435
-0.036431 0.127588 0.045382
-0.036431 0.127588 0.045382
-0.036591 0.126146 0.045435
-0.036302 0.130287 0.045429
-0.037307 0.122505 0.045437
-0.037203 0.121599 0.045867
-0.037445 0.124303 0.045867
-0.037307 0.122505 0.045437
-0.037445 0.124303 0.045867
-0.037500 0.126298 0.045437
-0.036732 0.118750 0.045437
-0.036770 0.118941 0.045866
-0.037307 0.122505 0.045437
-0.037307 0.122505 0.045437
-0.036770 0.118941 0.045866
-0.037203 0.121599 0.045867
-0.035780 0.115072 0.045437
-0.036142 0.116306 0.045867
-0.036732 0.118750 0.045437
-0.036732 0.118750 0.045437
-0.036142 0.116306 0.045867
-0.036770 0.118941 0.045866
-0.034461 0.111510 0.045437
-0.034325 0.111202 0.045869
-0.035323 0.113713 0.045867
-0.034461 0.111510 0.045437
-0.035323 0.113713 0.045867
-0.035780 0.115072 0.045437
-0.035780 0.115072 0.045437
-0.035323 0.113713 0.045867
-0.036142 0.116306 0.045867
-0.034325 0.111202 0.045869
-0.034461 0.111510 0.045437
-0.033148 0.108770 0.045883
-0.033148 0.108770 0.045883
-0.034461 0.111510 0.045437
-0.032788 0.108100 0.045437
-0.033148 0.108770 0.045883
-0.032788 0.108100 0.045437
-0.031795 0.106418 0.045867
-0.031795 0.106418 0.045867
-0.032788 0.108100 0.045437
-0.030778 0.104876 0.045437
-0.031795 0.106418 0.045867
-0.030778 0.104876 0.045437
-0.030272 0.104172 0.045884
-0.028453 0.101872 0.045437
-0.028608 0.102055 0.045866
-0.030778 0.104876 0.045437
-0.030778 0.104876 0.045437
-0.028608 0.102055 0.045866
-0.030272 0.104172 0.045884
-0.028608 0.102055 0.045866
-0.028453 0.101872 0.045437
-0.026782 0.100053 0.045867
-0.026782 0.100053 0.045867
-0.028453 0.101872 0.045437
-0.025836 0.099119 0.045437
-0.026782 0.100053 0.045867
-0.025836 0.099119 0.045437
-0.024810 0.098181 0.045867
-0.024810 0.098181 0.045867
-0.025836 0.099119 0.045437
-0.022954 0.096645 0.045437
-0.024810 0.098181 0.045867
-0.022954 0.096645 0.045437
-0.022721 0.096468 0.045869
-0.019836 0.094475 0.045437
-0.020516 0.094910 0.045867
-0.022954 0.096645 0.045437
-0.022954 0.096645 0.045437
-0.020516 0.094910 0.045867
-0.022721 0.096468 0.045869
-0.016515 0.092631 0.045437
-0.015771 0.092278 0.045867
-0.018190 0.093507 0.045867
-0.016515 0.092631 0.045437
-0.018190 0.093507 0.045867
-0.019836 0.094475 0.045437
-0.019836 0.094475 0.045437
-0.018190 0.093507 0.045867
-0.020516 0.094910 0.045867
-0.015771 0.092278 0.045867
-0.016515 0.092631 0.045437
-0.013289 0.091233 0.045866
-0.013289 0.091233 0.045866
-0.016515 0.092631 0.045437
-0.013024 0.091133 0.045437
-0.013289 0.091233 0.045866
-0.013024 0.091133 0.045437
-0.010722 0.090366 0.045867
-0.010722 0.090366 0.045867
-0.013024 0.091133 0.045437
-0.009399 0.089996 0.045437
-0.010722 0.090366 0.045867
-0.009399 0.089996 0.045437
-0.008089 0.089683 0.045867
-0.008089 0.089683 0.045867
-0.009399 0.089996 0.045437
-0.005679 0.089231 0.045437
-0.008089 0.089683 0.045867
-0.005679 0.089231 0.045437
-0.005435 0.089198 0.045885
-0.001899 0.088847 0.045437
-0.002749 0.088901 0.045867
-0.005679 0.089231 0.045437
-0.005679 0.089231 0.045437
-0.002749 0.088901 0.045867
-0.005435 0.089198 0.045885
-0.002749 0.088901 0.045867
-0.001899 0.088847 0.045437
-0.000030 0.088804 0.045901
-0.000030 0.088804 0.045901
-0.001899 0.088847 0.045437
0.001899 0.088847 0.045437
-0.000030 0.088804 0.045901
0.001899 0.088847 0.045437
0.002677 0.088896 0.045868
0.005678 0.089231 0.045437
0.005355 0.089184 0.045866
0.001899 0.088847 0.045437
0.001899 0.088847 0.045437
0.005355 0.089184 0.045866
0.002677 0.088896 0.045868
0.009399 0.089996 0.045437
0.008023 0.089673 0.045901
0.005678 0.089231 0.045437
0.005678 0.089231 0.045437
0.008023 0.089673 0.045901
0.005355 0.089184 0.045866
0.013024 0.091133 0.045437
0.013211 0.091206 0.045885
0.010654 0.090347 0.045883
0.013024 0.091133 0.045437
0.010654 0.090347 0.045883
0.009399 0.089996 0.045437
0.009399 0.089996 0.045437
0.010654 0.090347 0.045883
0.008023 0.089673 0.045901
0.013211 0.091206 0.045885
0.013024 0.091133 0.045437
0.015708 0.092251 0.045884
0.015708 0.092251 0.045884
0.013024 0.091133 0.045437
0.016515 0.092631 0.045437
0.015708 0.092251 0.045884
0.016515 0.092631 0.045437
0.018131 0.093475 0.045867
0.018131 0.093475 0.045867
0.016515 0.092631 0.045437
0.019836 0.094475 0.045437
0.018131 0.093475 0.045867
0.019836 0.094475 0.045437
0.020455 0.094871 0.045868
0.022954 0.096645 0.045437
0.022659 0.096420 0.045867
0.019836 0.094475 0.045437
0.019836 0.094475 0.045437
0.022659 0.096420 0.045867
0.020455 0.094871 0.045868
0.025836 0.099119 0.045437
0.024758 0.098135 0.045867
0.022954 0.096645 0.045437
0.022954 0.096645 0.045437
0.024758 0.098135 0.045867
0.022659 0.096420 0.045867
0.028453 0.101872 0.045437
0.028548 0.101992 0.045900
0.026734 0.100003 0.045867
0.028453 0.101872 0.045437
0.026734 0.100003 0.045867
0.025836 0.099119 0.045437
0.025836 0.099119 0.045437
0.026734 0.100003 0.045867
0.024758 0.098135 0.045867
0.028548 0.101992 0.045900
0.028453 0.101872 0.045437
0.030234 0.104123 0.045899
0.030234 0.104123 0.045899
0.028453 0.101872 0.045437
0.030778 0.104876 0.045437
0.030234 0.104123 0.045899
0.030778 0.104876 0.045437
0.031759 0.106361 0.045867
0.031759 0.106361 0.045867
0.030778 0.104876 0.045437
0.032788 0.108100 0.045437
0.031759 0.106361 0.045867
0.032788 0.108100 0.045437
0.033111 0.108705 0.045900
0.034460 0.111510 0.045437
0.034294 0.111130 0.045867
0.032788 0.108100 0.045437
0.032788 0.108100 0.045437
0.034294 0.111130 0.045867
0.033111 0.108705 0.045900
0.034294 0.111130 0.045867
0.034460 0.111510 0.045437
0.035299 0.113651 0.045884
0.035299 0.113651 0.045884
0.034460 0.111510 0.045437
0.035780 0.115072 0.045437
0.035299 0.113651 0.045884
0.035780 0.115072 0.045437
0.036124 0.116244 0.045882
0.036732 0.118750 0.045437
0.036751 0.118854 0.045881
0.035780 0.115072 0.045437
0.035780 0.115072 0.045437
0.036751 0.118854 0.045881
0.036124 0.116244 0.045882
0.036751 0.118854 0.045881
0.036732 0.118750 0.045437
0.037193 0.121533 0.045884
0.037193 0.121533 0.045884
0.036732 0.118750 0.045437
0.037307 0.122505 0.045437
0.037193 0.121533 0.045884
0.037307 0.122505 0.045437
0.037441 0.124236 0.045867
0.037441 0.124236 0.045867
0.037307 0.122505 0.045437
0.037499 0.126298 0.045437
0.037441 0.124236 0.045867
0.037499 0.126298 0.045437
0.037492 0.126945 0.045868
0.037307 0.130092 0.045437
0.037348 0.129639 0.045883
0.037499 0.126298 0.045437
0.037499 0.126298 0.045437
0.037348 0.129639 0.045883
0.037492 0.126945 0.045868
0.037348 0.129639 0.045883
0.037307 0.130092 0.045437
0.037010 0.132328 0.045867
0.037010 0.132328 0.045867
0.037307 0.130092 0.045437
0.036732 0.133847 0.045437
0.037010 0.132328 0.045867
0.036732 0.133847 0.045437
0.036476 0.134996 0.045865
0.035780 0.137524 0.045437
0.035759 0.137583 0.045881
0.036732 0.133847 0.045437
0.036732 0.133847 0.045437
0.035759 0.137583 0.045881
0.036476 0.134996 0.045865
0.034460 0.141086 0.045437
0.034848 0.140141 0.045884
0.035780 0.137524 0.045437
0.035780 0.137524 0.045437
0.034848 0.140141 0.045884
0.035759 0.137583 0.045881
0.032788 0.144497 0.045437
0.032490 0.145020 0.045868
0.033757 0.142626 0.045867
0.032788 0.144497 0.045437
0.033757 0.142626 0.045867
0.034460 0.141086 0.045437
0.034460 0.141086 0.045437
0.033757 0.142626 0.045867
0.034848 0.140141 0.045884
0.032490 0.145020 0.045868
0.032788 0.144497 0.045437
0.031054 0.147310 0.045899
0.031054 0.147310 0.045899
0.032788 0.144497 0.045437
0.030778 0.147721 0.045437
0.031054 0.147310 0.045899
0.030778 0.147721 0.045437
0.029462 0.149496 0.045867
0.029462 0.149496 0.045867
0.030778 0.147721 0.045437
0.028453 0.150724 0.045437
0.022954 0.155952 0.045437
0.023789 0.155285 0.045867
0.025836 0.153478 0.045437
0.023789 0.155285 0.045867
0.025818 0.153494 0.045865
0.025836 0.153478 0.045437
0.025836 0.153478 0.045437
0.025818 0.153494 0.045865
0.028453 0.150724 0.045437
0.028453 0.150724 0.045437
0.025818 0.153494 0.045865
0.027701 0.151572 0.045866
0.028453 0.150724 0.045437
0.027701 0.151572 0.045866
0.029462 0.149496 0.045867
0.023789 0.155285 0.045867
0.022954 0.155952 0.045437
0.021619 0.156932 0.045901
0.021619 0.156932 0.045901
0.022954 0.155952 0.045437
0.019836 0.158122 0.045437
0.021619 0.156932 0.045901
0.019836 0.158122 0.045437
0.019360 0.158412 0.045868
0.016515 0.159966 0.045437
0.016999 0.159721 0.045883
0.019836 0.158122 0.045437
0.019360 0.158412 0.045868
0.016999 0.159721 0.045883
0.016515 0.159966 0.045437
0.014538 0.160862 0.045884
0.014538 0.160862 0.045884
0.016515 0.159966 0.045437
0.013024 0.161464 0.045437
0.014538 0.160862 0.045884
0.013024 0.161464 0.045437
0.011997 0.161826 0.045866
0.009399 0.162601 0.045437
0.009418 0.162595 0.045865
0.013024 0.161464 0.045437
0.013024 0.161464 0.045437
0.009418 0.162595 0.045865
0.011997 0.161826 0.045866
0.005678 0.163365 0.045437
0.006775 0.163179 0.045867
0.009399 0.162601 0.045437
0.009399 0.162601 0.045437
0.006775 0.163179 0.045867
0.009418 0.162595 0.045865
0.001383 0.163771 0.045869
0.004087 0.163573 0.045867
0.001899 0.163750 0.045437
0.001899 0.163750 0.045437
0.004087 0.163573 0.045867
0.005678 0.163365 0.045437
0.005678 0.163365 0.045437
0.004087 0.163573 0.045867
0.006775 0.163179 0.045867
0.001383 0.163771 0.045869
0.001899 0.163750 0.045437
-0.001310 0.163774 0.045867
-0.001310 0.163774 0.045867
0.001899 0.163750 0.045437
-0.001899 0.163750 0.045437
-0.001310 0.163774 0.045867
-0.001899 0.163750 0.045437
-0.004018 0.163581 0.045867
-0.004018 0.163581 0.045867
-0.001899 0.163750 0.045437
-0.005679 0.163365 0.045437
-0.004018 0.163581 0.045867
-0.005679 0.163365 0.045437
-0.006705 0.163189 0.045899
-0.009399 0.162601 0.045437
-0.009338 0.162616 0.045865
-0.005679 0.163365 0.045437
-0.005679 0.163365 0.045437
-0.009338 0.162616 0.045865
-0.006705 0.163189 0.045899
-0.009338 0.162616 0.045865
-0.009399 0.162601 0.045437
-0.011934 0.161845 0.045884
-0.011934 0.161845 0.045884
-0.009399 0.162601 0.045437
-0.013024 0.161464 0.045437
-0.011934 0.161845 0.045884
-0.013024 0.161464 0.045437
-0.014478 0.160889 0.045867
-0.014478 0.160889 0.045867
-0.013024 0.161464 0.045437
-0.016515 0.159966 0.045437
-0.014478 0.160889 0.045867
-0.016515 0.159966 0.045437
-0.016932 0.159754 0.045885
-0.019836 0.158122 0.045437
-0.019295 0.158452 0.045867
-0.016515 0.159966 0.045437
-0.016515 0.159966 0.045437
-0.019295 0.158452 0.045867
-0.016932 0.159754 0.045885
-0.023736 0.155328 0.045867
-0.021570 0.156972 0.045867
-0.022954 0.155952 0.045437
-0.022954 0.155952 0.045437
-0.021570 0.156972 0.045867
-0.019836 0.158122 0.045437
-0.019836 0.158122 0.045437
-0.021570 0.156972 0.045867
-0.019295 0.158452 0.045867
-0.023736 0.155328 0.045867
-0.022954 0.155952 0.045437
-0.025758 0.153551 0.045865
-0.025758 0.153551 0.045865
-0.022954 0.155952 0.045437
-0.025836 0.153478 0.045437
-0.025758 0.153551 0.045865
-0.025836 0.153478 0.045437
-0.027656 0.151621 0.045867
-0.027656 0.151621 0.045867
-0.025836 0.153478 0.045437
-0.028453 0.150724 0.045437
-0.027656 0.151621 0.045867
-0.028453 0.150724 0.045437
-0.029419 0.149551 0.045867
-0.029419 0.149551 0.045867
-0.028453 0.150724 0.045437
-0.030778 0.147721 0.045437
-0.029419 0.149551 0.045867
-0.030778 0.147721 0.045437
-0.031018 0.147370 0.045869
-0.032788 0.144497 0.045437
-0.032453 0.145085 0.045867
-0.030778 0.147721 0.045437
-0.030778 0.147721 0.045437
-0.032453 0.145085 0.045867
-0.031018 0.147370 0.045869
-0.032453 0.145085 0.045867
-0.032788 0.144497 0.045437
-0.033726 0.142689 0.045867
-0.033726 0.142689 0.045867
-0.032788 0.144497 0.045437
-0.034461 0.141086 0.045437
-0.035780 0.137524 0.045437
-0.035733 0.137660 0.045898
-0.034461 0.141086 0.045437
-0.034461 0.141086 0.045437
-0.035733 0.137660 0.045898
-0.034825 0.140197 0.045884
-0.034461 0.141086 0.045437
-0.034825 0.140197 0.045884
-0.033726 0.142689 0.045867
-0.035733 0.137660 0.045898
-0.035780 0.137524 0.045437
-0.036459 0.135049 0.045900
-0.036459 0.135049 0.045900
-0.035780 0.137524 0.045437
-0.036732 0.133847 0.045437
-0.036459 0.135049 0.045900
-0.036732 0.133847 0.045437
-0.036998 0.132391 0.045884
-0.036998 0.132391 0.045884
-0.036732 0.133847 0.045437
-0.037307 0.130092 0.045437
-0.036998 0.132391 0.045884
-0.037307 0.130092 0.045437
-0.037341 0.129715 0.045885
-0.037445 0.124303 0.045867
-0.037491 0.127019 0.045867
-0.037500 0.126298 0.045437
-0.037500 0.126298 0.045437
-0.037491 0.127019 0.045867
-0.037307 0.130092 0.045437
-0.037307 0.130092 0.045437
-0.037491 0.127019 0.045867
-0.037341 0.129715 0.045885
-0.035957 0.120603 0.043451
-0.035788 0.119626 0.045299
-0.036159 0.122561 0.043437
-0.033309 0.111741 0.043437
-0.033485 0.112014 0.045300
-0.034086 0.113519 0.043446
-0.034086 0.113519 0.043446
-0.033485 0.112014 0.045300
-0.034428 0.114469 0.045298
-0.034086 0.113519 0.043446
-0.034428 0.114469 0.045298
-0.035199 0.117028 0.043437
-0.035199 0.117028 0.043437
-0.034428 0.114469 0.045298
-0.035204 0.117023 0.045302
-0.035199 0.117028 0.043437
-0.035204 0.117023 0.045302
-0.035957 0.120603 0.043451
-0.035957 0.120603 0.043451
-0.035204 0.117023 0.045302
-0.035788 0.119626 0.045299
-0.033485 0.112014 0.045300
-0.033309 0.111741 0.043437
-0.032350 0.109602 0.045300
-0.032350 0.109602 0.045300
-0.033309 0.111741 0.043437
-0.032559 0.110024 0.043437
-0.032350 0.109602 0.045300
-0.032559 0.110024 0.043437
-0.030717 0.106769 0.043438
-0.032350 0.109602 0.045300
-0.030717 0.106769 0.043438
-0.031041 0.107277 0.045302
-0.031041 0.107277 0.045302
-0.030717 0.106769 0.043438
-0.029565 0.105057 0.045299
-0.029565 0.105057 0.045299
-0.030717 0.106769 0.043438
-0.029627 0.105236 0.043437
-0.028500 0.103649 0.043447
-0.029565 0.105057 0.045299
-0.028500 0.103649 0.043447
-0.027952 0.102975 0.045300
-0.027952 0.102975 0.045300
-0.028500 0.103649 0.043447
-0.026161 0.100981 0.045302
-0.026161 0.100981 0.045302
-0.028500 0.103649 0.043447
-0.026068 0.100893 0.043437
-0.026161 0.100981 0.045302
-0.026068 0.100893 0.043437
-0.024235 0.099134 0.045298
-0.024235 0.099134 0.045298
-0.026068 0.100893 0.043437
-0.023387 0.098401 0.043448
-0.024235 0.099134 0.045298
-0.023387 0.098401 0.043448
-0.022210 0.097454 0.045300
-0.022210 0.097454 0.045300
-0.023387 0.098401 0.043448
-0.020270 0.096079 0.043414
-0.022210 0.097454 0.045300
-0.020270 0.096079 0.043414
-0.020028 0.095897 0.045302
-0.020028 0.095897 0.045302
-0.020270 0.096079 0.043414
-0.017746 0.094513 0.045299
-0.017746 0.094513 0.045299
-0.020270 0.096079 0.043414
-0.017126 0.094178 0.043440
-0.017746 0.094513 0.045299
-0.017126 0.094178 0.043440
-0.015383 0.093303 0.045300
-0.015383 0.093303 0.045300
-0.017126 0.094178 0.043440
-0.015410 0.093375 0.043437
-0.015383 0.093303 0.045300
-0.015410 0.093375 0.043437
-0.012953 0.092277 0.045298
-0.012953 0.092277 0.045298
-0.015410 0.093375 0.043437
-0.013713 0.092581 0.043437
-0.012953 0.092277 0.045298
-0.013713 0.092581 0.043437
-0.010154 0.091346 0.043432
-0.012953 0.092277 0.045298
-0.010154 0.091346 0.043432
-0.010430 0.091423 0.045270
-0.010430 0.091423 0.045270
-0.010154 0.091346 0.043432
-0.007827 0.090742 0.045316
-0.007827 0.090742 0.045316
-0.010154 0.091346 0.043432
-0.008349 0.090919 0.043437
-0.007827 0.090742 0.045316
-0.008349 0.090919 0.043437
-0.005240 0.090270 0.045315
-0.005240 0.090270 0.045315
-0.008349 0.090919 0.043437
-0.006383 0.090455 0.043456
0.002805 0.090055 0.043437
0.002708 0.089995 0.045300
0.000901 0.089908 0.043442
0.000901 0.089908 0.043442
0.002708 0.089995 0.045300
0.000081 0.089894 0.045299
0.000901 0.089908 0.043442
0.000081 0.089894 0.045299
-0.002809 0.090007 0.043437
-0.002809 0.090007 0.043437
0.000081 0.089894 0.045299
-0.002587 0.089985 0.045302
-0.002809 0.090007 0.043437
-0.002587 0.089985 0.045302
-0.006383 0.090455 0.043456
-0.006383 0.090455 0.043456
-0.002587 0.089985 0.045302
-0.005240 0.090270 0.045315
0.012069 0.091951 0.043453
0.013075 0.092322 0.045301
0.010160 0.091396 0.043437
0.013075 0.092322 0.045301
0.010563 0.091460 0.045299
0.010160 0.091396 0.043437
0.010160 0.091396 0.043437
0.010563 0.091460 0.045299
0.008371 0.090876 0.043434
0.008371 0.090876 0.043434
0.010563 0.091460 0.045299
0.007981 0.090778 0.045302
0.008371 0.090876 0.043434
0.007981 0.090778 0.045302
0.005354 0.090290 0.045299
0.008371 0.090876 0.043434
0.005354 0.090290 0.045299
0.004674 0.090200 0.043437
0.004674 0.090200 0.043437
0.005354 0.090290 0.045299
0.002805 0.090055 0.043437
0.002805 0.090055 0.043437
0.005354 0.090290 0.045299
0.002708 0.089995 0.045300
0.020293 0.096139 0.043437
0.020129 0.095965 0.045300
0.018693 0.095062 0.043444
0.018693 0.095062 0.043444
0.020129 0.095965 0.045300
0.017887 0.094592 0.045298
0.018693 0.095062 0.043444
0.017887 0.094592 0.045298
0.015430 0.093331 0.043437
0.015430 0.093331 0.043437
0.017887 0.094592 0.045298
0.015524 0.093370 0.045300
0.015430 0.093331 0.043437
0.015524 0.093370 0.045300
0.012069 0.091951 0.043453
0.012069 0.091951 0.043453
0.015524 0.093370 0.045300
0.013075 0.092322 0.045301
0.027373 0.102302 0.043443
0.026258 0.101084 0.045299
0.024695 0.099566 0.043426
0.024695 0.099566 0.043426
0.026258 0.101084 0.045299
0.024343 0.099228 0.045302
0.024695 0.099566 0.043426
0.024343 0.099228 0.045302
0.022293 0.097518 0.045299
0.021847 0.097185 0.043437
0.021847 0.097185 0.043437
0.022293 0.097518 0.045299
0.020293 0.096139 0.043437
0.020293 0.096139 0.043437
0.022293 0.097518 0.045299
0.020129 0.095965 0.045300
0.032516 0.110046 0.043437
0.032399 0.109697 0.045300
0.031645 0.108305 0.043446
0.031645 0.108305 0.043446
0.032399 0.109697 0.045300
0.031115 0.107402 0.045298
0.031645 0.108305 0.043446
0.031115 0.107402 0.045298
0.029667 0.105208 0.043437
0.029667 0.105208 0.043437
0.031115 0.107402 0.045298
0.029648 0.105171 0.045302
0.029667 0.105208 0.043437
0.029648 0.105171 0.045302
0.027373 0.102302 0.043443
0.027373 0.102302 0.043443
0.029648 0.105171 0.045302
0.028011 0.103047 0.045299
0.027373 0.102302 0.043443
0.028011 0.103047 0.045299
0.026258 0.101084 0.045299
0.035153 0.117041 0.043437
0.035240 0.117164 0.045300
0.034673 0.115218 0.043439
0.034673 0.115218 0.043439
0.035240 0.117164 0.045300
0.034480 0.114620 0.045299
0.034673 0.115218 0.043439
0.034480 0.114620 0.045299
0.033353 0.111722 0.043437
0.033353 0.111722 0.043437
0.034480 0.114620 0.045299
0.033534 0.112127 0.045302
0.033353 0.111722 0.043437
0.033534 0.112127 0.045302
0.032516 0.110046 0.043437
0.032516 0.110046 0.043437
0.033534 0.112127 0.045302
0.032399 0.109697 0.045300
0.036190 0.130093 0.043415
0.036378 0.127677 0.045300
0.036403 0.126204 0.043448
0.036403 0.126204 0.043448
0.036378 0.127677 0.045300
0.036382 0.125046 0.045298
0.036403 0.126204 0.043448
0.036382 0.125046 0.045298
0.036207 0.122556 0.043437
0.036207 0.122556 0.043437
0.036382 0.125046 0.045298
0.036194 0.122384 0.045302
0.036207 0.122556 0.043437
0.036194 0.122384 0.045302
0.035638 0.118881 0.043442
0.035638 0.118881 0.043442
0.036194 0.122384 0.045302
0.035808 0.119741 0.045298
0.035638 0.118881 0.043442
0.035808 0.119741 0.045298
0.035153 0.117041 0.043437
0.035153 0.117041 0.043437
0.035808 0.119741 0.045298
0.035240 0.117164 0.045300
0.035153 0.135556 0.043437
0.035208 0.135556 0.045300
0.035637 0.133719 0.043441
0.035637 0.133719 0.043441
0.035208 0.135556 0.045300
0.035784 0.132990 0.045299
0.035637 0.133719 0.043441
0.035784 0.132990 0.045299
0.036190 0.130093 0.043415
0.036190 0.130093 0.043415
0.035784 0.132990 0.045299
0.036179 0.130351 0.045302
0.036190 0.130093 0.043415
0.036179 0.130351 0.045302
0.036378 0.127677 0.045300
0.032516 0.142551 0.043437
0.032339 0.143014 0.045299
0.033345 0.140890 0.043433
0.033345 0.140890 0.043433
0.032339 0.143014 0.045299
0.033479 0.140598 0.045302
0.033345 0.140890 0.043433
0.033479 0.140598 0.045302
0.034436 0.138104 0.045298
0.033345 0.140890 0.043433
0.034436 0.138104 0.045298
0.034675 0.137368 0.043437
0.034675 0.137368 0.043437
0.034436 0.138104 0.045298
0.035153 0.135556 0.043437
0.035153 0.135556 0.043437
0.034436 0.138104 0.045298
0.035208 0.135556 0.045300
0.026033 0.151669 0.043437
0.026173 0.151602 0.045300
0.027370 0.150297 0.043443
0.027370 0.150297 0.043443
0.026173 0.151602 0.045300
0.027930 0.149647 0.045298
0.027370 0.150297 0.043443
0.027930 0.149647 0.045298
0.029667 0.147389 0.043437
0.029667 0.147389 0.043437
0.027930 0.149647 0.045298
0.029567 0.147539 0.045302
0.029667 0.147389 0.043437
0.029567 0.147539 0.045302
0.031647 0.144288 0.043446
0.031647 0.144288 0.043446
0.029567 0.147539 0.045302
0.031042 0.145315 0.045298
0.031647 0.144288 0.043446
0.031042 0.145315 0.045298
0.032516 0.142551 0.043437
0.032516 0.142551 0.043437
0.031042 0.145315 0.045298
0.032339 0.143014 0.045299
0.020293 0.156458 0.043437
0.020022 0.156702 0.045299
0.021841 0.155416 0.043435
0.021841 0.155416 0.043435
0.020022 0.156702 0.045299
0.022189 0.155159 0.045300
0.021841 0.155416 0.043435
0.022189 0.155159 0.045300
0.024725 0.153011 0.043437
0.024725 0.153011 0.043437
0.022189 0.155159 0.045300
0.024239 0.153462 0.045302
0.024725 0.153011 0.043437
0.024239 0.153462 0.045302
0.026033 0.151669 0.043437
0.026033 0.151669 0.043437
0.024239 0.153462 0.045302
0.026173 0.151602 0.045300
0.020022 0.156702 0.045299
0.020293 0.156458 0.043437
0.017763 0.158074 0.045299
0.017763 0.158074 0.045299
0.020293 0.156458 0.043437
0.018652 0.157563 0.043452
0.007854 0.161845 0.045299
0.010440 0.161174 0.045300
0.010160 0.161201 0.043437
0.010160 0.161201 0.043437
0.010440 0.161174 0.045300
0.012016 0.160660 0.043445
0.012016 0.160660 0.043445
0.010440 0.161174 0.045300
0.012930 0.160329 0.045298
0.012016 0.160660 0.043445
0.012930 0.160329 0.045298
0.015430 0.159265 0.043437
0.015430 0.159265 0.043437
0.012930 0.160329 0.045298
0.015390 0.159291 0.045302
0.015430 0.159265 0.043437
0.015390 0.159291 0.045302
0.018652 0.157563 0.043452
0.018652 0.157563 0.043452
0.015390 0.159291 0.045302
0.017763 0.158074 0.045299
0.010160 0.161201 0.043437
0.008101 0.161792 0.043437
0.007854 0.161845 0.045299
0.007854 0.161845 0.045299
0.008101 0.161792 0.043437
0.005236 0.162325 0.045302
0.005236 0.162325 0.045302
0.008101 0.161792 0.043437
0.004674 0.162397 0.043437
0.005236 0.162325 0.045302
0.004674 0.162397 0.043437
0.002581 0.162611 0.045300
0.002581 0.162611 0.045300
0.004674 0.162397 0.043437
0.002805 0.162541 0.043437
-0.008349 0.161678 0.043437
-0.007977 0.161819 0.045302
-0.006447 0.162126 0.043447
-0.006447 0.162126 0.043447
-0.007977 0.161819 0.045302
-0.005378 0.162303 0.045298
-0.006447 0.162126 0.043447
-0.005378 0.162303 0.045298
-0.002809 0.162589 0.043437
-0.002809 0.162589 0.043437
-0.005378 0.162303 0.045298
-0.002726 0.162602 0.045302
-0.002809 0.162589 0.043437
-0.002726 0.162602 0.045302
0.000899 0.162689 0.043443
0.000899 0.162689 0.043443
-0.002726 0.162602 0.045302
-0.000057 0.162702 0.045298
0.000899 0.162689 0.043443
-0.000057 0.162702 0.045298
0.002805 0.162541 0.043437
0.002805 0.162541 0.043437
-0.000057 0.162702 0.045298
0.002581 0.162611 0.045300
-0.015410 0.159222 0.043437
-0.015521 0.159229 0.045300
-0.013698 0.160023 0.043439
-0.013698 0.160023 0.043439
-0.015521 0.159229 0.045300
-0.013080 0.160272 0.045299
-0.013698 0.160023 0.043439
-0.013080 0.160272 0.045299
-0.010173 0.161247 0.043437
-0.010173 0.161247 0.043437
-0.013080 0.160272 0.045299
-0.010566 0.161136 0.045300
-0.010173 0.161247 0.043437
-0.010566 0.161136 0.045300
-0.008349 0.161678 0.043437
-0.008349 0.161678 0.043437
-0.010566 0.161136 0.045300
-0.007977 0.161819 0.045302
-0.026098 0.151657 0.043416
-0.024330 0.153379 0.045300
-0.023242 0.154317 0.043449
-0.023242 0.154317 0.043449
-0.024330 0.153379 0.045300
-0.022310 0.155065 0.045298
-0.023242 0.154317 0.043449
-0.022310 0.155065 0.045298
-0.020320 0.156498 0.043437
-0.020320 0.156498 0.043437
-0.022310 0.155065 0.045298
-0.020135 0.156624 0.045270
-0.020320 0.156498 0.043437
-0.020135 0.156624 0.045270
-0.017130 0.158417 0.043441
-0.017130 0.158417 0.043441
-0.020135 0.156624 0.045270
-0.017865 0.158017 0.045298
-0.017130 0.158417 0.043441
-0.017865 0.158017 0.045298
-0.015410 0.159222 0.043437
-0.015410 0.159222 0.043437
-0.017865 0.158017 0.045298
-0.015521 0.159229 0.045300
-0.029627 0.147361 0.043437
-0.029637 0.147439 0.045300
-0.028524 0.148914 0.043442
-0.028524 0.148914 0.043442
-0.029637 0.147439 0.045300
-0.028034 0.149523 0.045299
-0.028524 0.148914 0.043442
-0.028034 0.149523 0.045299
-0.026098 0.151657 0.043416
-0.026098 0.151657 0.043416
-0.028034 0.149523 0.045299
-0.026258 0.151515 0.045302
-0.026098 0.151657 0.043416
-0.026258 0.151515 0.045302
-0.024330 0.153379 0.045300
-0.029637 0.147439 0.045300
-0.029627 0.147361 0.043437
-0.031115 0.145199 0.045302
-0.031115 0.145199 0.045302
-0.029627 0.147361 0.043437
-0.030713 0.145834 0.043437
-0.031115 0.145199 0.045302
-0.030713 0.145834 0.043437
-0.032410 0.142878 0.045301
-0.032410 0.142878 0.045301
-0.030713 0.145834 0.043437
-0.032564 0.142559 0.043434
-0.032410 0.142878 0.045301
-0.032564 0.142559 0.043434
-0.033535 0.140464 0.045299
-0.033535 0.140464 0.045299
-0.032564 0.142559 0.043434
-0.033309 0.140855 0.043437
-0.033535 0.140464 0.045299
-0.033309 0.140855 0.043437
-0.034474 0.137994 0.045299
-0.034474 0.137994 0.045299
-0.033309 0.140855 0.043437
-0.034110 0.139024 0.043454
-0.036159 0.130036 0.043437
-0.036192 0.130228 0.045300
-0.035961 0.131948 0.043444
-0.035961 0.131948 0.043444
-0.036192 0.130228 0.045300
-0.035813 0.132831 0.045298
-0.035961 0.131948 0.043444
-0.035813 0.132831 0.045298
-0.035199 0.135568 0.043437
-0.035199 0.135568 0.043437
-0.035813 0.132831 0.045298
-0.035240 0.135439 0.045302
-0.035199 0.135568 0.043437
-0.035240 0.135439 0.045302
-0.034110 0.139024 0.043454
-0.034110 0.139024 0.043454
-0.035240 0.135439 0.045302
-0.034474 0.137994 0.045299
-0.035788 0.119626 0.045299
-0.036178 0.122241 0.045300
-0.036159 0.122561 0.043437
-0.036159 0.122561 0.043437
-0.036178 0.122241 0.045300
-0.036351 0.124425 0.043437
-0.036351 0.124425 0.043437
-0.036178 0.122241 0.045300
-0.036373 0.124901 0.045260
-0.036351 0.124425 0.043437
-0.036373 0.124901 0.045260
-0.036359 0.128090 0.043447
-0.036359 0.128090 0.043447
-0.036373 0.124901 0.045260
-0.036400 0.126298 0.045237
-0.036359 0.128090 0.043447
-0.036400 0.126298 0.045237
-0.036378 0.127570 0.045260
-0.036359 0.128090 0.043447
-0.036378 0.127570 0.045260
-0.036159 0.130036 0.043437
-0.036159 0.130036 0.043437
-0.036378 0.127570 0.045260
-0.036192 0.130228 0.045300
0.034707 0.140051 0.046035
0.035625 0.137508 0.046034
0.034790 0.140108 0.045993
0.034707 0.140051 0.046035
0.034790 0.140108 0.045993
0.033640 0.142521 0.046034
-0.033017 0.108875 0.046035
-0.034205 0.111304 0.046034
-0.033093 0.108809 0.045993
-0.033017 0.108875 0.046035
-0.033093 0.108809 0.045993
-0.031690 0.106536 0.046034
-0.008105 0.089841 0.046034
-0.008095 0.089728 0.045968
-0.005453 0.089351 0.046034
-0.005453 0.089351 0.046034
-0.008095 0.089728 0.045968
-0.005431 0.089252 0.045980
-0.005453 0.089351 0.046034
-0.005431 0.089252 0.045980
-0.002773 0.089054 0.046034
-0.002773 0.089054 0.046034
-0.005431 0.089252 0.045980
-0.002747 0.088944 0.045968
-0.002773 0.089054 0.046034
-0.002747 0.088944 0.045968
-0.000084 0.088918 0.046028
0.002618 0.089043 0.046034
-0.000084 0.088918 0.046028
0.002658 0.088937 0.045968
0.002618 0.089043 0.046034
0.002658 0.088937 0.045968
0.005297 0.089329 0.046034
0.005297 0.089329 0.046034
0.002658 0.088937 0.045968
0.005347 0.089227 0.045968
0.005297 0.089329 0.046034
0.005347 0.089227 0.045968
0.007954 0.089774 0.046028
0.010564 0.090476 0.046034
0.007954 0.089774 0.046028
0.010626 0.090396 0.045980
0.010564 0.090476 0.046034
0.010626 0.090396 0.045980
0.013121 0.091332 0.046034
0.013121 0.091332 0.046034
0.010626 0.090396 0.045980
0.013189 0.091256 0.045980
0.013121 0.091332 0.046034
0.013189 0.091256 0.045980
0.015611 0.092370 0.046034
0.015611 0.092370 0.046034
0.013189 0.091256 0.045980
0.015683 0.092299 0.045980
0.015611 0.092370 0.046034
0.015683 0.092299 0.045980
0.018018 0.093585 0.046034
0.018018 0.093585 0.046034
0.015683 0.092299 0.045980
0.018100 0.093507 0.045968
0.018018 0.093585 0.046034
0.018100 0.093507 0.045968
0.020332 0.094970 0.046034
0.020332 0.094970 0.046034
0.018100 0.093507 0.045968
0.020419 0.094898 0.045968
0.020332 0.094970 0.046034
0.020419 0.094898 0.045968
0.022539 0.096519 0.046034
0.022539 0.096519 0.046034
0.020419 0.094898 0.045968
0.022631 0.096453 0.045968
0.022539 0.096519 0.046034
0.022631 0.096453 0.045968
0.024630 0.098223 0.046034
0.024630 0.098223 0.046034
0.022631 0.096453 0.045968
0.024726 0.098164 0.045968
0.024630 0.098223 0.046034
0.024726 0.098164 0.045968
0.026591 0.100073 0.046034
0.026591 0.100073 0.046034
0.024726 0.098164 0.045968
0.026691 0.100022 0.045968
0.026591 0.100073 0.046034
0.026691 0.100022 0.045968
0.028435 0.102035 0.046028
0.031607 0.106403 0.046034
0.030112 0.104150 0.046028
0.031716 0.106374 0.045968
0.031607 0.106403 0.046034
0.031716 0.106374 0.045968
0.032986 0.108715 0.046028
0.034142 0.111160 0.046034
0.032986 0.108715 0.046028
0.034254 0.111147 0.045968
0.034142 0.111160 0.046034
0.034254 0.111147 0.045968
0.035145 0.113662 0.046034
0.035145 0.113662 0.046034
0.034254 0.111147 0.045968
0.035246 0.113664 0.045980
0.035145 0.113662 0.046034
0.035246 0.113664 0.045980
0.035965 0.116231 0.046034
0.035965 0.116231 0.046034
0.035246 0.113664 0.045980
0.036066 0.116241 0.045980
0.035965 0.116231 0.046034
0.036066 0.116241 0.045980
0.036598 0.118852 0.046034
0.036598 0.118852 0.046034
0.036066 0.116241 0.045980
0.036698 0.118869 0.045980
0.036598 0.118852 0.046034
0.036698 0.118869 0.045980
0.037040 0.121513 0.046034
0.037040 0.121513 0.046034
0.036698 0.118869 0.045980
0.037138 0.121537 0.045980
0.037040 0.121513 0.046034
0.037138 0.121537 0.045980
0.037288 0.124198 0.046034
0.037288 0.124198 0.046034
0.037138 0.121537 0.045980
0.037398 0.124226 0.045968
0.037288 0.124198 0.046034
0.037398 0.124226 0.045968
0.037343 0.126894 0.046034
0.037343 0.126894 0.046034
0.037398 0.124226 0.045968
0.037450 0.126930 0.045968
0.037343 0.126894 0.046034
0.037450 0.126930 0.045968
0.037202 0.129587 0.046034
0.037202 0.129587 0.046034
0.037450 0.126930 0.045968
0.037293 0.129632 0.045980
0.037202 0.129587 0.046034
0.037293 0.129632 0.045980
0.036868 0.132263 0.046034
0.036868 0.132263 0.046034
0.037293 0.129632 0.045980
0.036969 0.132314 0.045968
0.036868 0.132263 0.046034
0.036969 0.132314 0.045968
0.036342 0.134908 0.046034
0.036342 0.134908 0.046034
0.036969 0.132314 0.045968
0.036439 0.134966 0.045968
0.036342 0.134908 0.046034
0.036439 0.134966 0.045968
0.035625 0.137508 0.046034
0.035625 0.137508 0.046034
0.036439 0.134966 0.045968
0.035705 0.137571 0.045980
0.035625 0.137508 0.046034
0.035705 0.137571 0.045980
0.034790 0.140108 0.045993
0.033640 0.142521 0.046034
0.034790 0.140108 0.045993
0.033723 0.142596 0.045968
0.033640 0.142521 0.046034
0.033723 0.142596 0.045968
0.032383 0.144903 0.046034
0.032383 0.144903 0.046034
0.033723 0.142596 0.045968
0.032459 0.144987 0.045968
0.032383 0.144903 0.046034
0.032459 0.144987 0.045968
0.030986 0.147206 0.046028
0.029368 0.149371 0.046034
0.030986 0.147206 0.046028
0.029431 0.149465 0.045968
0.029368 0.149371 0.046034
0.029431 0.149465 0.045968
0.027626 0.151431 0.046034
0.027626 0.151431 0.046034
0.029431 0.149465 0.045968
0.027683 0.151528 0.045968
0.027626 0.151431 0.046034
0.027683 0.151528 0.045968
0.025740 0.153359 0.046034
0.025740 0.153359 0.046034
0.027683 0.151528 0.045968
0.025790 0.153460 0.045968
0.025740 0.153359 0.046034
0.025790 0.153460 0.045968
0.023722 0.155144 0.046034
0.023722 0.155144 0.046034
0.025790 0.153460 0.045968
0.023763 0.155250 0.045968
0.023722 0.155144 0.046034
0.023763 0.155250 0.045968
0.021601 0.156805 0.046028
0.019322 0.158259 0.046034
0.021601 0.156805 0.046028
0.019349 0.158369 0.045968
0.019322 0.158259 0.046034
0.019349 0.158369 0.045968
0.016965 0.159570 0.046034
0.016965 0.159570 0.046034
0.019349 0.158369 0.045968
0.016976 0.159671 0.045980
0.016965 0.159570 0.046034
0.016976 0.159671 0.045980
0.014520 0.160708 0.046034
0.014520 0.160708 0.046034
0.016976 0.159671 0.045980
0.014523 0.160809 0.045980
0.014520 0.160708 0.046034
0.014523 0.160809 0.045980
0.012000 0.161666 0.046034
0.012000 0.161666 0.046034
0.014523 0.160809 0.045980
0.012002 0.161779 0.045968
0.012000 0.161666 0.046034
0.012002 0.161779 0.045968
0.009438 0.162429 0.046035
0.009438 0.162429 0.046035
0.012002 0.161779 0.045968
0.009410 0.162552 0.045968
0.009438 0.162429 0.046035
0.009410 0.162552 0.045968
0.006776 0.163024 0.046034
0.006776 0.163024 0.046034
0.009410 0.162552 0.045968
0.006770 0.163137 0.045968
0.006776 0.163024 0.046034
0.006770 0.163137 0.045968
0.004116 0.163418 0.046034
0.004116 0.163418 0.046034
0.006770 0.163137 0.045968
0.004094 0.163529 0.045968
0.004116 0.163418 0.046034
0.004094 0.163529 0.045968
0.001427 0.163619 0.046034
0.001427 0.163619 0.046034
0.004094 0.163529 0.045968
0.001397 0.163728 0.045968
0.001427 0.163619 0.046034
0.001397 0.163728 0.045968
-0.001271 0.163624 0.046034
-0.001271 0.163624 0.046034
0.001397 0.163728 0.045968
-0.001308 0.163731 0.045968
-0.001271 0.163624 0.046034
-0.001308 0.163731 0.045968
-0.003959 0.163435 0.046034
-0.003959 0.163435 0.046034
-0.001308 0.163731 0.045968
-0.004005 0.163539 0.045968
-0.003959 0.163435 0.046034
-0.004005 0.163539 0.045968
-0.006630 0.163086 0.046028
-0.009264 0.162479 0.046034
-0.006630 0.163086 0.046028
-0.009324 0.162575 0.045968
-0.009264 0.162479 0.046034
-0.009324 0.162575 0.045968
-0.011852 0.161716 0.046034
-0.011852 0.161716 0.046034
-0.009324 0.162575 0.045968
-0.011915 0.161794 0.045980
-0.011852 0.161716 0.046034
-0.011915 0.161794 0.045980
-0.014374 0.160769 0.046034
-0.014374 0.160769 0.046034
-0.011915 0.161794 0.045980
-0.014448 0.160855 0.045968
-0.014374 0.160769 0.046034
-0.014448 0.160855 0.045968
-0.016827 0.159640 0.046034
-0.016827 0.159640 0.046034
-0.014448 0.160855 0.045968
-0.016900 0.159709 0.045980
-0.016827 0.159640 0.046034
-0.016900 0.159709 0.045980
-0.019186 0.158340 0.046034
-0.019186 0.158340 0.046034
-0.016900 0.159709 0.045980
-0.019272 0.158415 0.045968
-0.019186 0.158340 0.046034
-0.019272 0.158415 0.045968
-0.021450 0.156872 0.046034
-0.021450 0.156872 0.046034
-0.019272 0.158415 0.045968
-0.021539 0.156941 0.045968
-0.021450 0.156872 0.046034
-0.021539 0.156941 0.045968
-0.023600 0.155245 0.046034
-0.023600 0.155245 0.046034
-0.021539 0.156941 0.045968
-0.023694 0.155307 0.045968
-0.023600 0.155245 0.046034
-0.023694 0.155307 0.045968
-0.025627 0.153466 0.046034
-0.025627 0.153466 0.046034
-0.023694 0.155307 0.045968
-0.025726 0.153521 0.045968
-0.025627 0.153466 0.046034
-0.025726 0.153521 0.045968
-0.027520 0.151547 0.046034
-0.027520 0.151547 0.046034
-0.025726 0.153521 0.045968
-0.027623 0.151594 0.045968
-0.027520 0.151547 0.046034
-0.027623 0.151594 0.045968
-0.029271 0.149495 0.046034
-0.029271 0.149495 0.046034
-0.027623 0.151594 0.045968
-0.029376 0.149535 0.045968
-0.029271 0.149495 0.046034
-0.029376 0.149535 0.045968
-0.030868 0.147322 0.046034
-0.030868 0.147322 0.046034
-0.029376 0.149535 0.045968
-0.030976 0.147355 0.045968
-0.030868 0.147322 0.046034
-0.030976 0.147355 0.045968
-0.032305 0.145040 0.046034
-0.032305 0.145040 0.046034
-0.030976 0.147355 0.045968
-0.032415 0.145065 0.045968
-0.032305 0.145040 0.046034
-0.032415 0.145065 0.045968
-0.033573 0.142659 0.046034
-0.033573 0.142659 0.046034
-0.032415 0.145065 0.045968
-0.033685 0.142677 0.045968
-0.033573 0.142659 0.046034
-0.033685 0.142677 0.045968
-0.034666 0.140195 0.046034
-0.034666 0.140195 0.046034
-0.033685 0.142677 0.045968
-0.034767 0.140197 0.045980
-0.034666 0.140195 0.046034
-0.034767 0.140197 0.045980
-0.035608 0.137673 0.046028
-0.036843 0.132418 0.046034
-0.036336 0.135074 0.046028
-0.036942 0.132398 0.045980
-0.036843 0.132418 0.046034
-0.036942 0.132398 0.045980
-0.037188 0.129744 0.046034
-0.037188 0.129744 0.046034
-0.036942 0.132398 0.045980
-0.037286 0.129716 0.045980
-0.037188 0.129744 0.046034
-0.037286 0.129716 0.045980
-0.037340 0.127051 0.046034
-0.037340 0.127051 0.046034
-0.037286 0.129716 0.045980
-0.037448 0.127019 0.045968
-0.037340 0.127051 0.046034
-0.037448 0.127019 0.045968
-0.037297 0.124355 0.046034
-0.037297 0.124355 0.046034
-0.037448 0.127019 0.045968
-0.037403 0.124315 0.045968
-0.037297 0.124355 0.046034
-0.037403 0.124315 0.045968
-0.037060 0.121669 0.046034
-0.037060 0.121669 0.046034
-0.037403 0.124315 0.045968
-0.037162 0.121621 0.045968
-0.037060 0.121669 0.046034
-0.037162 0.121621 0.045968
-0.036629 0.119007 0.046034
-0.036629 0.119007 0.046034
-0.037162 0.121621 0.045968
-0.036728 0.118952 0.045968
-0.036629 0.119007 0.046034
-0.036728 0.118952 0.045968
-0.036007 0.116383 0.046034
-0.036007 0.116383 0.046034
-0.036728 0.118952 0.045968
-0.036102 0.116321 0.045968
-0.036007 0.116383 0.046034
-0.036102 0.116321 0.045968
-0.035198 0.113809 0.046034
-0.035198 0.113809 0.046034
-0.036102 0.116321 0.045968
-0.035288 0.113742 0.045968
-0.035198 0.113809 0.046034
-0.035288 0.113742 0.045968
-0.034205 0.111304 0.046034
-0.034205 0.111304 0.046034
-0.035288 0.113742 0.045968
-0.034290 0.111229 0.045968
-0.034205 0.111304 0.046034
-0.034290 0.111229 0.045968
-0.033093 0.108809 0.045993
-0.031690 0.106536 0.046034
-0.033093 0.108809 0.045993
-0.031764 0.106450 0.045968
-0.031690 0.106536 0.046034
-0.031764 0.106450 0.045968
-0.030182 0.104300 0.046034
-0.030182 0.104300 0.046034
-0.031764 0.106450 0.045968
-0.030237 0.104215 0.045980
-0.030182 0.104300 0.046034
-0.030237 0.104215 0.045980
-0.028516 0.102180 0.046034
-0.028516 0.102180 0.046034
-0.030237 0.104215 0.045980
-0.028576 0.102084 0.045968
-0.028516 0.102180 0.046034
-0.028576 0.102084 0.045968
-0.026701 0.100185 0.046034
-0.026701 0.100185 0.046034
-0.028576 0.102084 0.045968
-0.026754 0.100085 0.045968
-0.026701 0.100185 0.046034
-0.026754 0.100085 0.045968
-0.024747 0.098327 0.046034
-0.024747 0.098327 0.046034
-0.026754 0.100085 0.045968
-0.024793 0.098223 0.045968
-0.024747 0.098327 0.046034
-0.024793 0.098223 0.045968
-0.022664 0.096614 0.046034
-0.022664 0.096614 0.046034
-0.024793 0.098223 0.045968
-0.022703 0.096507 0.045968
-0.022664 0.096614 0.046034
-0.022703 0.096507 0.045968
-0.020463 0.095055 0.046034
-0.020463 0.095055 0.046034
-0.022703 0.096507 0.045968
-0.020494 0.094947 0.045968
-0.020463 0.095055 0.046034
-0.020494 0.094947 0.045968
-0.018156 0.093661 0.046034
-0.018156 0.093661 0.046034
-0.020494 0.094947 0.045968
-0.018178 0.093550 0.045968
-0.018156 0.093661 0.046034
-0.018178 0.093550 0.045968
-0.015752 0.092435 0.046034
-0.015752 0.092435 0.046034
-0.018178 0.093550 0.045968
-0.015768 0.092324 0.045968
-0.015752 0.092435 0.046034
-0.015768 0.092324 0.045968
-0.013269 0.091387 0.046034
-0.013269 0.091387 0.046034
-0.015768 0.092324 0.045968
-0.013275 0.091274 0.045968
-0.013269 0.091387 0.046034
-0.013275 0.091274 0.045968
-0.010715 0.090521 0.046034
-0.010715 0.090521 0.046034
-0.013275 0.091274 0.045968
-0.010713 0.090408 0.045968
-0.010715 0.090521 0.046034
-0.010713 0.090408 0.045968
-0.008105 0.089841 0.046034
-0.008105 0.089841 0.046034
-0.010713 0.090408 0.045968
-0.008095 0.089728 0.045968
-0.000084 0.088918 0.046028
-0.002747 0.088944 0.045968
-0.000030 0.088804 0.045901
-0.000084 0.088918 0.046028
-0.000030 0.088804 0.045901
0.002658 0.088937 0.045968
0.007954 0.089774 0.046028
0.005347 0.089227 0.045968
0.008023 0.089673 0.045901
0.007954 0.089774 0.046028
0.008023 0.089673 0.045901
0.010626 0.090396 0.045980
0.028435 0.102035 0.046028
0.026691 0.100022 0.045968
0.028548 0.101992 0.045900
0.028435 0.102035 0.046028
0.028548 0.101992 0.045900
0.030112 0.104150 0.046028
0.030112 0.104150 0.046028
0.028548 0.101992 0.045900
0.030234 0.104123 0.045899
0.030112 0.104150 0.046028
0.030234 0.104123 0.045899
0.031716 0.106374 0.045968
0.032986 0.108715 0.046028
0.031716 0.106374 0.045968
0.033111 0.108705 0.045900
0.032986 0.108715 0.046028
0.033111 0.108705 0.045900
0.034254 0.111147 0.045968
0.030986 0.147206 0.046028
0.032459 0.144987 0.045968
0.031054 0.147310 0.045899
0.030986 0.147206 0.046028
0.031054 0.147310 0.045899
0.029431 0.149465 0.045968
0.021601 0.156805 0.046028
0.023763 0.155250 0.045968
0.021619 0.156932 0.045901
0.021601 0.156805 0.046028
0.021619 0.156932 0.045901
0.019349 0.158369 0.045968
-0.006630 0.163086 0.046028
-0.004005 0.163539 0.045968
-0.006705 0.163189 0.045899
-0.006630 0.163086 0.046028
-0.006705 0.163189 0.045899
-0.009324 0.162575 0.045968
-0.035608 0.137673 0.046028
-0.034767 0.140197 0.045980
-0.035733 0.137660 0.045898
-0.035608 0.137673 0.046028
-0.035733 0.137660 0.045898
-0.036336 0.135074 0.046028
-0.036336 0.135074 0.046028
-0.035733 0.137660 0.045898
-0.036459 0.135049 0.045900
-0.036336 0.135074 0.046028
-0.036459 0.135049 0.045900
-0.036942 0.132398 0.045980
-0.005431 0.089252 0.045980
-0.008095 0.089728 0.045968
-0.005435 0.089198 0.045885
-0.005431 0.089252 0.045980
-0.005435 0.089198 0.045885
-0.002747 0.088944 0.045968
0.010626 0.090396 0.045980
0.008023 0.089673 0.045901
0.010654 0.090347 0.045883
0.010626 0.090396 0.045980
0.010654 0.090347 0.045883
0.013189 0.091256 0.045980
0.013211 0.091206 0.045885
0.013189 0.091256 0.045980
0.013211 0.091206 0.045885
0.015683 0.092299 0.045980
0.015683 0.092299 0.045980
0.013211 0.091206 0.045885
0.015708 0.092251 0.045884
0.015683 0.092299 0.045980
0.015708 0.092251 0.045884
0.018100 0.093507 0.045968
0.035246 0.113664 0.045980
0.034254 0.111147 0.045968
0.035299 0.113651 0.045884
0.035246 0.113664 0.045980
0.035299 0.113651 0.045884
0.036066 0.116241 0.045980
0.036124 0.116244 0.045882
0.036066 0.116241 0.045980
0.036124 0.116244 0.045882
0.036698 0.118869 0.045980
0.036698 0.118869 0.045980
0.036124 0.116244 0.045882
0.036751 0.118854 0.045881
0.036698 0.118869 0.045980
0.036751 0.118854 0.045881
0.037138 0.121537 0.045980
0.037193 0.121533 0.045884
0.037138 0.121537 0.045980
0.037193 0.121533 0.045884
0.037398 0.124226 0.045968
0.037293 0.129632 0.045980
0.037450 0.126930 0.045968
0.037348 0.129639 0.045883
0.037293 0.129632 0.045980
0.037348 0.129639 0.045883
0.036969 0.132314 0.045968
0.035705 0.137571 0.045980
0.036439 0.134966 0.045968
0.035759 0.137583 0.045881
0.035705 0.137571 0.045980
0.035759 0.137583 0.045881
0.034790 0.140108 0.045993
0.034790 0.140108 0.045993
0.035759 0.137583 0.045881
0.034848 0.140141 0.045884
0.034790 0.140108 0.045993
0.034848 0.140141 0.045884
0.033723 0.142596 0.045968
0.016976 0.159671 0.045980
0.019349 0.158369 0.045968
0.016999 0.159721 0.045883
0.016976 0.159671 0.045980
0.016999 0.159721 0.045883
0.014523 0.160809 0.045980
0.014538 0.160862 0.045884
0.014523 0.160809 0.045980
0.014538 0.160862 0.045884
0.012002 0.161779 0.045968
-0.011915 0.161794 0.045980
-0.009324 0.162575 0.045968
-0.011934 0.161845 0.045884
-0.011915 0.161794 0.045980
-0.011934 0.161845 0.045884
-0.014448 0.160855 0.045968
-0.016900 0.159709 0.045980
-0.014448 0.160855 0.045968
-0.016932 0.159754 0.045885
-0.016900 0.159709 0.045980
-0.016932 0.159754 0.045885
-0.019272 0.158415 0.045968
-0.034767 0.140197 0.045980
-0.033685 0.142677 0.045968
-0.034825 0.140197 0.045884
-0.034767 0.140197 0.045980
-0.034825 0.140197 0.045884
-0.035733 0.137660 0.045898
-0.036942 0.132398 0.045980
-0.036459 0.135049 0.045900
-0.036998 0.132391 0.045884
-0.036942 0.132398 0.045980
-0.036998 0.132391 0.045884
-0.037286 0.129716 0.045980
-0.037286 0.129716 0.045980
-0.036998 0.132391 0.045884
-0.037341 0.129715 0.045885
-0.037286 0.129716 0.045980
-0.037341 0.129715 0.045885
-0.037448 0.127019 0.045968
-0.033093 0.108809 0.045993
-0.034290 0.111229 0.045968
-0.033148 0.108770 0.045883
-0.033093 0.108809 0.045993
-0.033148 0.108770 0.045883
-0.031764 0.106450 0.045968
-0.030237 0.104215 0.045980
-0.031764 0.106450 0.045968
-0.030272 0.104172 0.045884
-0.030237 0.104215 0.045980
-0.030272 0.104172 0.045884
-0.028576 0.102084 0.045968
-0.008095 0.089728 0.045968
-0.008089 0.089683 0.045867
-0.005435 0.089198 0.045885
-0.002747 0.088944 0.045968
-0.005435 0.089198 0.045885
-0.002749 0.088901 0.045867
-0.002747 0.088944 0.045968
-0.002749 0.088901 0.045867
-0.000030 0.088804 0.045901
0.002658 0.088937 0.045968
-0.000030 0.088804 0.045901
0.002677 0.088896 0.045868
0.002658 0.088937 0.045968
0.002677 0.088896 0.045868
0.005347 0.089227 0.045968
0.005347 0.089227 0.045968
0.002677 0.088896 0.045868
0.005355 0.089184 0.045866
0.005347 0.089227 0.045968
0.005355 0.089184 0.045866
0.008023 0.089673 0.045901
0.018100 0.093507 0.045968
0.015708 0.092251 0.045884
0.018131 0.093475 0.045867
0.018100 0.093507 0.045968
0.018131 0.093475 0.045867
0.020419 0.094898 0.045968
0.020455 0.094871 0.045868
0.020419 0.094898 0.045968
0.020455 0.094871 0.045868
0.022631 0.096453 0.045968
0.022631 0.096453 0.045968
0.020455 0.094871 0.045868
0.022659 0.096420 0.045867
0.022631 0.096453 0.045968
0.022659 0.096420 0.045867
0.024726 0.098164 0.045968
0.024758 0.098135 0.045867
0.024726 0.098164 0.045968
0.024758 0.098135 0.045867
0.026691 0.100022 0.045968
0.026734 0.100003 0.045867
0.026691 0.100022 0.045968
0.026734 0.100003 0.045867
0.028548 0.101992 0.045900
0.031716 0.106374 0.045968
0.030234 0.104123 0.045899
0.031759 0.106361 0.045867
0.031716 0.106374 0.045968
0.031759 0.106361 0.045867
0.033111 0.108705 0.045900
0.034254 0.111147 0.045968
0.033111 0.108705 0.045900
0.034294 0.111130 0.045867
0.034254 0.111147 0.045968
0.034294 0.111130 0.045867
0.035299 0.113651 0.045884
0.037398 0.124226 0.045968
0.037193 0.121533 0.045884
0.037441 0.124236 0.045867
0.037398 0.124226 0.045968
0.037441 0.124236 0.045867
0.037450 0.126930 0.045968
0.037492 0.126945 0.045868
0.037450 0.126930 0.045968
0.037492 0.126945 0.045868
0.037348 0.129639 0.045883
0.036969 0.132314 0.045968
0.037348 0.129639 0.045883
0.037010 0.132328 0.045867
0.036969 0.132314 0.045968
0.037010 0.132328 0.045867
0.036439 0.134966 0.045968
0.036439 0.134966 0.045968
0.037010 0.132328 0.045867
0.036476 0.134996 0.045865
0.036439 0.134966 0.045968
0.036476 0.134996 0.045865
0.035759 0.137583 0.045881
0.033723 0.142596 0.045968
0.034848 0.140141 0.045884
0.033757 0.142626 0.045867
0.033723 0.142596 0.045968
0.033757 0.142626 0.045867
0.032459 0.144987 0.045968
0.032490 0.145020 0.045868
0.032459 0.144987 0.045968
0.032490 0.145020 0.045868
0.031054 0.147310 0.045899
0.029431 0.149465 0.045968
0.031054 0.147310 0.045899
0.029462 0.149496 0.045867
0.029431 0.149465 0.045968
0.029462 0.149496 0.045867
0.027683 0.151528 0.045968
0.027683 0.151528 0.045968
0.029462 0.149496 0.045867
0.027701 0.151572 0.045866
0.027683 0.151528 0.045968
0.027701 0.151572 0.045866
0.025790 0.153460 0.045968
0.025790 0.153460 0.045968
0.027701 0.151572 0.045866
0.025818 0.153494 0.045865
0.025790 0.153460 0.045968
0.025818 0.153494 0.045865
0.023763 0.155250 0.045968
0.023789 0.155285 0.045867
0.023763 0.155250 0.045968
0.023789 0.155285 0.045867
0.021619 0.156932 0.045901
0.019349 0.158369 0.045968
0.021619 0.156932 0.045901
0.019360 0.158412 0.045868
0.019349 0.158369 0.045968
0.019360 0.158412 0.045868
0.016999 0.159721 0.045883
0.012002 0.161779 0.045968
0.014538 0.160862 0.045884
0.011997 0.161826 0.045866
0.012002 0.161779 0.045968
0.011997 0.161826 0.045866
0.009410 0.162552 0.045968
0.009418 0.162595 0.045865
0.009410 0.162552 0.045968
0.009418 0.162595 0.045865
0.006770 0.163137 0.045968
0.006775 0.163179 0.045867
0.006770 0.163137 0.045968
0.006775 0.163179 0.045867
0.004094 0.163529 0.045968
0.004087 0.163573 0.045867
0.004094 0.163529 0.045968
0.004087 0.163573 0.045867
0.001397 0.163728 0.045968
0.001383 0.163771 0.045869
0.001397 0.163728 0.045968
0.001383 0.163771 0.045869
-0.001308 0.163731 0.045968
-0.001308 0.163731 0.045968
0.001383 0.163771 0.045869
-0.001310 0.163774 0.045867
-0.001308 0.163731 0.045968
-0.001310 0.163774 0.045867
-0.004005 0.163539 0.045968
-0.004018 0.163581 0.045867
-0.004005 0.163539 0.045968
-0.004018 0.163581 0.045867
-0.006705 0.163189 0.045899
-0.009324 0.162575 0.045968
-0.006705 0.163189 0.045899
-0.009338 0.162616 0.045865
-0.009324 0.162575 0.045968
-0.009338 0.162616 0.045865
-0.011934 0.161845 0.045884
-0.014448 0.160855 0.045968
-0.011934 0.161845 0.045884
-0.014478 0.160889 0.045867
-0.014448 0.160855 0.045968
-0.014478 0.160889 0.045867
-0.016932 0.159754 0.045885
-0.019272 0.158415 0.045968
-0.016932 0.159754 0.045885
-0.019295 0.158452 0.045867
-0.019272 0.158415 0.045968
-0.019295 0.158452 0.045867
-0.021539 0.156941 0.045968
-0.021570 0.156972 0.045867
-0.021539 0.156941 0.045968
-0.021570 0.156972 0.045867
-0.023694 0.155307 0.045968
-0.023694 0.155307 0.045968
-0.021570 0.156972 0.045867
-0.023736 0.155328 0.045867
-0.023694 0.155307 0.045968
-0.023736 0.155328 0.045867
-0.025726 0.153521 0.045968
-0.025726 0.153521 0.045968
-0.023736 0.155328 0.045867
-0.025758 0.153551 0.045865
-0.025726 0.153521 0.045968
-0.025758 0.153551 0.045865
-0.027623 0.151594 0.045968
-0.027656 0.151621 0.045867
-0.027623 0.151594 0.045968
-0.027656 0.151621 0.045867
-0.029376 0.149535 0.045968
-0.029419 0.149551 0.045867
-0.029376 0.149535 0.045968
-0.029419 0.149551 0.045867
-0.030976 0.147355 0.045968
-0.031018 0.147370 0.045869
-0.030976 0.147355 0.045968
-0.031018 0.147370 0.045869
-0.032415 0.145065 0.045968
-0.032415 0.145065 0.045968
-0.031018 0.147370 0.045869
-0.032453 0.145085 0.045867
-0.032415 0.145065 0.045968
-0.032453 0.145085 0.045867
-0.033685 0.142677 0.045968
-0.033726 0.142689 0.045867
-0.033685 0.142677 0.045968
-0.033726 0.142689 0.045867
-0.034825 0.140197 0.045884
-0.037448 0.127019 0.045968
-0.037341 0.129715 0.045885
-0.037491 0.127019 0.045867
-0.037448 0.127019 0.045968
-0.037491 0.127019 0.045867
-0.037403 0.124315 0.045968
-0.037445 0.124303 0.045867
-0.037403 0.124315 0.045968
-0.037445 0.124303 0.045867
-0.037162 0.121621 0.045968
-0.037203 0.121599 0.045867
-0.037162 0.121621 0.045968
-0.037203 0.121599 0.045867
-0.036728 0.118952 0.045968
-0.036728 0.118952 0.045968
-0.037203 0.121599 0.045867
-0.036770 0.118941 0.045866
-0.036728 0.118952 0.045968
-0.036770 0.118941 0.045866
-0.036102 0.116321 0.045968
-0.036142 0.116306 0.045867
-0.036102 0.116321 0.045968
-0.036142 0.116306 0.045867
-0.035288 0.113742 0.045968
-0.035323 0.113713 0.045867
-0.035288 0.113742 0.045968
-0.035323 0.113713 0.045867
-0.034290 0.111229 0.045968
-0.034325 0.111202 0.045869
-0.034290 0.111229 0.045968
-0.034325 0.111202 0.045869
-0.033148 0.108770 0.045883
-0.031764 0.106450 0.045968
-0.033148 0.108770 0.045883
-0.031795 0.106418 0.045867
-0.031764 0.106450 0.045968
-0.031795 0.106418 0.045867
-0.030272 0.104172 0.045884
-0.028576 0.102084 0.045968
-0.030272 0.104172 0.045884
-0.028608 0.102055 0.045866
-0.028576 0.102084 0.045968
-0.028608 0.102055 0.045866
-0.026754 0.100085 0.045968
-0.026782 0.100053 0.045867
-0.026754 0.100085 0.045968
-0.026782 0.100053 0.045867
-0.024793 0.098223 0.045968
-0.024810 0.098181 0.045867
-0.024793 0.098223 0.045968
-0.024810 0.098181 0.045867
-0.022703 0.096507 0.045968
-0.022721 0.096468 0.045869
-0.022703 0.096507 0.045968
-0.022721 0.096468 0.045869
-0.020494 0.094947 0.045968
-0.020494 0.094947 0.045968
-0.022721 0.096468 0.045869
-0.020516 0.094910 0.045867
-0.020494 0.094947 0.045968
-0.020516 0.094910 0.045867
-0.018178 0.093550 0.045968
-0.018190 0.093507 0.045867
-0.018178 0.093550 0.045968
-0.018190 0.093507 0.045867
-0.015768 0.092324 0.045968
-0.015771 0.092278 0.045867
-0.015768 0.092324 0.045968
-0.015771 0.092278 0.045867
-0.013275 0.091274 0.045968
-0.013275 0.091274 0.045968
-0.015771 0.092278 0.045867
-0.013289 0.091233 0.045866
-0.013275 0.091274 0.045968
-0.013289 0.091233 0.045866
-0.010713 0.090408 0.045968
-0.010713 0.090408 0.045968
-0.013289 0.091233 0.045866
-0.010722 0.090366 0.045867
-0.010713 0.090408 0.045968
-0.010722 0.090366 0.045867
-0.008095 0.089728 0.045968
-0.008089 0.089683 0.045867
0.035919 0.122585 0.042937
0.036111 0.126298 0.042937
0.036403 0.126204 0.043448
0.036403 0.126204 0.043448
0.036207 0.122556 0.043437
0.035919 0.122585 0.042937
0.035919 0.122585 0.042937
0.036207 0.122556 0.043437
0.035638 0.118881 0.043442
0.035347 0.118912 0.042937
0.035347 0.118912 0.042937
0.035638 0.118881 0.043442
0.035153 0.117041 0.043437
0.034400 0.115317 0.042937
0.034673 0.115218 0.043439
0.034400 0.115317 0.042937
0.034673 0.115218 0.043439
0.033089 0.111838 0.042937
0.033353 0.111722 0.043437
0.033089 0.111838 0.042937
0.033353 0.111722 0.043437
0.032516 0.110046 0.043437
0.031427 0.108512 0.042937
0.032516 0.110046 0.043437
0.031645 0.108305 0.043446
0.031427 0.108512 0.042937
0.031427 0.108512 0.042937
0.031645 0.108305 0.043446
0.029431 0.105375 0.042937
0.031645 0.108305 0.043446
0.029667 0.105208 0.043437
0.029431 0.105375 0.042937
0.029431 0.105375 0.042937
0.029667 0.105208 0.043437
0.027373 0.102302 0.043443
0.027124 0.102460 0.042937
0.027124 0.102460 0.042937
0.027373 0.102302 0.043443
0.024695 0.099566 0.043426
0.027124 0.102460 0.042937
0.024695 0.099566 0.043426
0.024529 0.099797 0.042937
0.024529 0.099797 0.042937
0.024695 0.099566 0.043426
0.021674 0.097415 0.042937
0.024695 0.099566 0.043426
0.021847 0.097185 0.043437
0.021674 0.097415 0.042937
0.021674 0.097415 0.042937
0.021847 0.097185 0.043437
0.020293 0.096139 0.043437
0.018590 0.095340 0.042937
0.020293 0.096139 0.043437
0.018693 0.095062 0.043444
0.018590 0.095340 0.042937
0.018590 0.095340 0.042937
0.018693 0.095062 0.043444
0.015308 0.093593 0.042937
0.015430 0.093331 0.043437
0.015308 0.093593 0.042937
0.015430 0.093331 0.043437
0.012069 0.091951 0.043453
0.011864 0.092192 0.042937
0.011864 0.092192 0.042937
0.012069 0.091951 0.043453
0.010160 0.091396 0.043437
0.011864 0.092192 0.042937
0.010160 0.091396 0.043437
0.008294 0.091153 0.042937
0.008371 0.090876 0.043434
0.008294 0.091153 0.042937
0.008371 0.090876 0.043434
0.004637 0.090486 0.042937
0.004674 0.090200 0.043437
0.004637 0.090486 0.042937
0.004674 0.090200 0.043437
0.002805 0.090055 0.043437
0.000930 0.090199 0.042937
0.002805 0.090055 0.043437
0.000901 0.089908 0.043442
0.000930 0.090199 0.042937
0.000930 0.090199 0.042937
0.000901 0.089908 0.043442
-0.002787 0.090295 0.042937
-0.002809 0.090007 0.043437
-0.002787 0.090295 0.042937
-0.002809 0.090007 0.043437
-0.006383 0.090455 0.043456
-0.006474 0.090773 0.042937
-0.006474 0.090773 0.042937
-0.006383 0.090455 0.043456
-0.008349 0.090919 0.043437
-0.006474 0.090773 0.042937
-0.008349 0.090919 0.043437
-0.010092 0.091627 0.042937
-0.010154 0.091346 0.043432
-0.010092 0.091627 0.042937
-0.010154 0.091346 0.043432
-0.013604 0.092848 0.042937
-0.013713 0.092581 0.043437
-0.013604 0.092848 0.042937
-0.013713 0.092581 0.043437
-0.015410 0.093375 0.043437
-0.016971 0.094424 0.042937
-0.015410 0.093375 0.043437
-0.017126 0.094178 0.043440
-0.016971 0.094424 0.042937
-0.016971 0.094424 0.042937
-0.017126 0.094178 0.043440
-0.020159 0.096338 0.042937
-0.017126 0.094178 0.043440
-0.020270 0.096079 0.043414
-0.020159 0.096338 0.042937
-0.020159 0.096338 0.042937
-0.020270 0.096079 0.043414
-0.023132 0.098570 0.042937
-0.020270 0.096079 0.043414
-0.023387 0.098401 0.043448
-0.023132 0.098570 0.042937
-0.023132 0.098570 0.042937
-0.023387 0.098401 0.043448
-0.025861 0.101095 0.042937
-0.023387 0.098401 0.043448
-0.026068 0.100893 0.043437
-0.025861 0.101095 0.042937
-0.025861 0.101095 0.042937
-0.026068 0.100893 0.043437
-0.028500 0.103649 0.043447
-0.028315 0.103888 0.042937
-0.028315 0.103888 0.042937
-0.028500 0.103649 0.043447
-0.029627 0.105236 0.043437
-0.028315 0.103888 0.042937
-0.029627 0.105236 0.043437
-0.030469 0.106918 0.042937
-0.030717 0.106769 0.043438
-0.030469 0.106918 0.042937
-0.030717 0.106769 0.043438
-0.032301 0.110153 0.042937
-0.032559 0.110024 0.043437
-0.032301 0.110153 0.042937
-0.032559 0.110024 0.043437
-0.033309 0.111741 0.043437
-0.033790 0.113560 0.042937
-0.033309 0.111741 0.043437
-0.034086 0.113519 0.043446
-0.033790 0.113560 0.042937
-0.033790 0.113560 0.042937
-0.034086 0.113519 0.043446
-0.034920 0.117102 0.042937
-0.036159 0.122561 0.043437
-0.036063 0.124439 0.042937
-0.035681 0.120741 0.042937
-0.034086 0.113519 0.043446
-0.035199 0.117028 0.043437
-0.034920 0.117102 0.042937
-0.034920 0.117102 0.042937
-0.035199 0.117028 0.043437
-0.035957 0.120603 0.043451
-0.035681 0.120741 0.042937
-0.035681 0.120741 0.042937
-0.035957 0.120603 0.043451
-0.036159 0.122561 0.043437
-0.036159 0.130036 0.043437
-0.035681 0.131855 0.042937
-0.036063 0.128157 0.042937
-0.036351 0.124425 0.043437
-0.036063 0.124439 0.042937
-0.036351 0.124425 0.043437
-0.036359 0.128090 0.043447
-0.036063 0.128157 0.042937
-0.036063 0.128157 0.042937
-0.036359 0.128090 0.043447
-0.036159 0.130036 0.043437
-0.036159 0.130036 0.043437
-0.035961 0.131948 0.043444
-0.035681 0.131855 0.042937
-0.035681 0.131855 0.042937
-0.035961 0.131948 0.043444
-0.034920 0.135495 0.042937
-0.033309 0.140855 0.043437
-0.032301 0.142443 0.042937
-0.033790 0.139036 0.042937
-0.035199 0.135568 0.043437
-0.034920 0.135495 0.042937
-0.035199 0.135568 0.043437
-0.034110 0.139024 0.043454
-0.034920 0.135495 0.042937
-0.034110 0.139024 0.043454
-0.033790 0.139036 0.042937
-0.033790 0.139036 0.042937
-0.034110 0.139024 0.043454
-0.033309 0.140855 0.043437
-0.029627 0.147361 0.043437
-0.028315 0.148709 0.042937
-0.030470 0.145679 0.042937
-0.032564 0.142559 0.043434
-0.032301 0.142443 0.042937
-0.032564 0.142559 0.043434
-0.030470 0.145679 0.042937
-0.030713 0.145834 0.043437
-0.030713 0.145834 0.043437
-0.026098 0.151657 0.043416
-0.023132 0.154027 0.042937
-0.025861 0.151502 0.042937
-0.028524 0.148914 0.043442
-0.028315 0.148709 0.042937
-0.028524 0.148914 0.043442
-0.025861 0.151502 0.042937
-0.025861 0.151502 0.042937
-0.028524 0.148914 0.043442
-0.026098 0.151657 0.043416
-0.017130 0.158417 0.043441
-0.016971 0.158173 0.042937
-0.020159 0.156259 0.042937
-0.026098 0.151657 0.043416
-0.023242 0.154317 0.043449
-0.023132 0.154027 0.042937
-0.023132 0.154027 0.042937
-0.023242 0.154317 0.043449
-0.020159 0.156259 0.042937
-0.020320 0.156498 0.043437
-0.020320 0.156498 0.043437
-0.013698 0.160023 0.043439
-0.010093 0.160970 0.042937
-0.013604 0.159749 0.042937
-0.016971 0.158173 0.042937
-0.017130 0.158417 0.043441
-0.015410 0.159222 0.043437
-0.016971 0.158173 0.042937
-0.015410 0.159222 0.043437
-0.013604 0.159749 0.042937
-0.013604 0.159749 0.042937
-0.013698 0.160023 0.043439
-0.006447 0.162126 0.043447
-0.002787 0.162301 0.042937
-0.006474 0.161824 0.042937
-0.010173 0.161247 0.043437
-0.010093 0.160970 0.042937
-0.010173 0.161247 0.043437
-0.008349 0.161678 0.043437
-0.006474 0.161824 0.042937
-0.006474 0.161824 0.042937
-0.008349 0.161678 0.043437
-0.006447 0.162126 0.043447
0.002805 0.162541 0.043437
0.004637 0.162110 0.042937
0.000930 0.162397 0.042937
-0.002809 0.162589 0.043437
-0.002787 0.162301 0.042937
-0.002809 0.162589 0.043437
0.000899 0.162689 0.043443
0.000930 0.162397 0.042937
0.000930 0.162397 0.042937
0.000899 0.162689 0.043443
0.002805 0.162541 0.043437
0.004674 0.162397 0.043437
0.004637 0.162110 0.042937
0.004674 0.162397 0.043437
0.008101 0.161792 0.043437
0.004637 0.162110 0.042937
0.008101 0.161792 0.043437
0.008294 0.161444 0.042937
0.012016 0.160660 0.043445
0.015308 0.159004 0.042937
0.011864 0.160405 0.042937
0.008294 0.161444 0.042937
0.008101 0.161792 0.043437
0.010160 0.161201 0.043437
0.008294 0.161444 0.042937
0.010160 0.161201 0.043437
0.011864 0.160405 0.042937
0.011864 0.160405 0.042937
0.010160 0.161201 0.043437
0.012016 0.160660 0.043445
0.020293 0.156458 0.043437
0.021674 0.155181 0.042937
0.018590 0.157257 0.042937
0.015430 0.159265 0.043437
0.015308 0.159004 0.042937
0.015430 0.159265 0.043437
0.018652 0.157563 0.043452
0.018590 0.157257 0.042937
0.018590 0.157257 0.042937
0.018652 0.157563 0.043452
0.020293 0.156458 0.043437
0.026033 0.151669 0.043437
0.027124 0.150137 0.042937
0.024529 0.152800 0.042937
0.021841 0.155416 0.043435
0.021674 0.155181 0.042937
0.021841 0.155416 0.043435
0.024529 0.152800 0.042937
0.024529 0.152800 0.042937
0.021841 0.155416 0.043435
0.024725 0.153011 0.043437
0.024725 0.153011 0.043437
0.031647 0.144288 0.043446
0.031427 0.144085 0.042937
0.029431 0.147222 0.042937
0.026033 0.151669 0.043437
0.027370 0.150297 0.043443
0.027124 0.150137 0.042937
0.027124 0.150137 0.042937
0.027370 0.150297 0.043443
0.029431 0.147222 0.042937
0.029667 0.147389 0.043437
0.029431 0.147222 0.042937
0.029667 0.147389 0.043437
0.031647 0.144288 0.043446
0.033345 0.140890 0.043433
0.034400 0.137280 0.042937
0.033089 0.140759 0.042937
0.031427 0.144085 0.042937
0.031647 0.144288 0.043446
0.032516 0.142551 0.043437
0.031427 0.144085 0.042937
0.032516 0.142551 0.043437
0.033089 0.140759 0.042937
0.033345 0.140890 0.043433
0.035637 0.133719 0.043441
0.035919 0.130011 0.042937
0.035347 0.133685 0.042937
0.034675 0.137368 0.043437
0.034400 0.137280 0.042937
0.034675 0.137368 0.043437
0.035153 0.135556 0.043437
0.035347 0.133685 0.042937
0.035637 0.133719 0.043441
0.035637 0.133719 0.043441
0.036190 0.130093 0.043415
0.035919 0.130011 0.042937
0.035919 0.130011 0.042937
0.036190 0.130093 0.043415
0.036111 0.126298 0.042937
0.036111 0.126298 0.042937
0.036190 0.130093 0.043415
0.036403 0.126204 0.043448
0.007907 0.161647 0.046034
0.009438 0.162429 0.046035
0.006776 0.163024 0.046034
0.003716 0.162389 0.046036
0.004116 0.163418 0.046034
0.001427 0.163619 0.046034
0.000025 0.162517 0.046033
-0.001271 0.163624 0.046034
-0.002618 0.162422 0.046033
-0.003959 0.163435 0.046034
-0.007485 0.161705 0.046029
-0.006630 0.163086 0.046028
-0.009264 0.162479 0.046034
-0.010379 0.160957 0.046029
-0.011852 0.161716 0.046034
-0.012915 0.160136 0.046033
-0.014374 0.160769 0.046034
-0.015315 0.159076 0.046029
-0.016827 0.159640 0.046034
-0.017704 0.157895 0.046033
-0.019186 0.158340 0.046034
-0.019963 0.156519 0.046033
-0.021450 0.156872 0.046034
-0.022117 0.154980 0.046033
-0.023600 0.155245 0.046034
-0.024109 0.153274 0.046029
-0.025627 0.153466 0.046034
-0.027191 0.150320 0.046036
-0.027520 0.151547 0.046034
-0.029271 0.149495 0.046034
-0.030396 0.146109 0.046036
-0.030868 0.147322 0.046034
-0.032305 0.145040 0.046034
-0.032199 0.142882 0.046033
-0.033573 0.142659 0.046034
-0.033979 0.139017 0.046036
-0.034666 0.140195 0.046034
-0.035608 0.137673 0.046028
-0.033979 0.139017 0.046036
-0.035608 0.137673 0.046028
-0.035502 0.133571 0.046033
-0.035502 0.133571 0.046033
-0.036336 0.135074 0.046028
-0.036843 0.132418 0.046034
-0.035957 0.130301 0.046029
-0.037188 0.129744 0.046034
-0.036194 0.127647 0.046033
-0.037340 0.127051 0.046034
-0.036195 0.125001 0.046033
-0.037297 0.124355 0.046034
-0.035967 0.122387 0.046029
-0.037060 0.121669 0.046034
-0.035358 0.118162 0.046036
-0.036629 0.119007 0.046034
-0.036007 0.116383 0.046034
-0.033796 0.113100 0.046036
-0.035198 0.113809 0.046034
-0.034205 0.111304 0.046034
-0.031517 0.108324 0.046036
-0.033017 0.108875 0.046035
-0.031690 0.106536 0.046034
-0.028561 0.103923 0.046036
-0.030182 0.104300 0.046034
-0.028516 0.102180 0.046034
-0.026077 0.101220 0.046029
-0.026701 0.100185 0.046034
-0.024188 0.099341 0.046033
-0.024747 0.098327 0.046034
-0.022156 0.097647 0.046033
-0.022664 0.096614 0.046034
-0.020006 0.096106 0.046033
-0.020463 0.095055 0.046034
-0.015716 0.093700 0.046029
-0.018156 0.093661 0.046034
-0.015752 0.092435 0.046034
-0.010802 0.091759 0.046029
-0.013269 0.091387 0.046034
-0.010715 0.090521 0.046034
-0.006340 0.090575 0.046036
-0.008105 0.089841 0.046034
-0.005453 0.089351 0.046034
-0.002669 0.090178 0.046033
-0.002773 0.089054 0.046034
-0.000026 0.090080 0.046033
-0.000084 0.088918 0.046028
0.002596 0.090213 0.046029
0.002618 0.089043 0.046034
0.005248 0.090462 0.046033
0.005297 0.089329 0.046034
0.007850 0.090941 0.046033
0.007954 0.089774 0.046028
0.010410 0.091608 0.046033
0.010564 0.090476 0.046034
0.012915 0.092460 0.046033
0.013121 0.091332 0.046034
0.017368 0.094549 0.046029
0.015611 0.092370 0.046034
0.018018 0.093585 0.046034
0.019963 0.096078 0.046033
0.020332 0.094970 0.046034
0.022116 0.097616 0.046033
0.022539 0.096519 0.046034
0.025778 0.100899 0.046029
0.024630 0.098223 0.046034
0.026591 0.100073 0.046034
0.028871 0.104325 0.046036
0.028871 0.104325 0.046036
0.026591 0.100073 0.046034
0.028435 0.102035 0.046028
0.028871 0.104325 0.046036
0.028435 0.102035 0.046028
0.030112 0.104150 0.046028
0.030903 0.107409 0.046033
0.030903 0.107409 0.046033
0.030112 0.104150 0.046028
0.031607 0.106403 0.046034
0.033151 0.111783 0.046029
0.033151 0.111783 0.046029
0.031607 0.106403 0.046034
0.032986 0.108715 0.046028
0.032986 0.108715 0.046028
0.034142 0.111160 0.046034
0.034909 0.116759 0.046029
0.035145 0.113662 0.046034
0.035965 0.116231 0.046034
0.035611 0.119695 0.046033
0.036598 0.118852 0.046034
0.035957 0.122296 0.046029
0.037040 0.121513 0.046034
0.035957 0.122296 0.046029
0.037040 0.121513 0.046034
0.036281 0.126552 0.046036
0.036281 0.126552 0.046036
0.037288 0.124198 0.046034
0.037343 0.126894 0.046034
0.035858 0.131829 0.046036
0.037202 0.129587 0.046034
0.036868 0.132263 0.046034
0.034674 0.136980 0.046036
0.036342 0.134908 0.046034
0.035625 0.137508 0.046034
0.033342 0.140442 0.046033
0.034707 0.140051 0.046035
0.031097 0.144809 0.046029
0.033640 0.142521 0.046034
0.032383 0.144903 0.046034
0.029471 0.147352 0.046033
0.030986 0.147206 0.046028
0.027856 0.149447 0.046033
0.029368 0.149371 0.046034
0.026076 0.151377 0.046029
0.027626 0.151431 0.046034
0.026076 0.151377 0.046029
0.027626 0.151431 0.046034
0.024188 0.153256 0.046033
0.024188 0.153256 0.046033
0.025740 0.153359 0.046034
0.020295 0.156261 0.046029
0.023722 0.155144 0.046034
0.021601 0.156805 0.046028
0.016363 0.158681 0.046036
0.019322 0.158259 0.046034
0.016965 0.159570 0.046034
0.010806 0.160837 0.046029
0.014520 0.160708 0.046034
0.012000 0.161666 0.046034
0.010806 0.160837 0.046029
0.012000 0.161666 0.046034
0.007907 0.161647 0.046034
0.011864 0.092192 0.042937
0.008294 0.091153 0.042937
0.007443 0.091281 0.042937
0.004637 0.090486 0.042937
0.003742 0.090695 0.042937
0.000930 0.090199 0.042937
-0.000000 0.090499 0.042937
-0.002787 0.090295 0.042937
-0.003742 0.090695 0.042937
-0.006474 0.090773 0.042937
-0.007443 0.091281 0.042937
-0.010092 0.091627 0.042937
-0.011063 0.092251 0.042937
-0.013604 0.092848 0.042937
-0.014561 0.093594 0.042937
-0.016971 0.094424 0.042937
-0.017900 0.095295 0.042937
-0.020159 0.096338 0.042937
-0.021042 0.097336 0.042937
-0.023132 0.098570 0.042937
-0.023955 0.099694 0.042937
-0.025861 0.101095 0.042937
-0.026604 0.102344 0.042937
-0.028315 0.103888 0.042937
-0.028962 0.105256 0.042937
-0.030469 0.106918 0.042937
-0.031003 0.108399 0.042937
-0.032301 0.110153 0.042937
-0.032705 0.111737 0.042937
-0.033790 0.113560 0.042937
-0.034047 0.115236 0.042937
-0.034920 0.117102 0.042937
-0.035017 0.118855 0.042937
-0.035681 0.120741 0.042937
-0.035603 0.122556 0.042937
-0.036063 0.124439 0.042937
-0.035800 0.126298 0.042937
-0.036063 0.128157 0.042937
-0.035603 0.130040 0.042937
-0.035681 0.131855 0.042937
-0.035017 0.133741 0.042937
-0.034920 0.135495 0.042937
-0.034047 0.137361 0.042937
-0.033790 0.139036 0.042937
-0.032705 0.140859 0.042937
-0.032301 0.142443 0.042937
-0.031003 0.144198 0.042937
-0.030470 0.145679 0.042937
-0.028962 0.147341 0.042937
-0.028315 0.148709 0.042937
-0.026604 0.150253 0.042937
-0.025861 0.151502 0.042937
-0.023955 0.152903 0.042937
-0.023132 0.154027 0.042937
-0.021042 0.155261 0.042937
-0.020159 0.156259 0.042937
-0.017900 0.157302 0.042937
-0.016971 0.158173 0.042937
-0.014561 0.159003 0.042937
-0.013604 0.159749 0.042937
-0.011063 0.160346 0.042937
-0.010093 0.160970 0.042937
-0.007443 0.161316 0.042937
-0.006474 0.161824 0.042937
-0.003742 0.161902 0.042937
-0.002787 0.162301 0.042937
-0.000000 0.162098 0.042937
0.000930 0.162397 0.042937
0.003742 0.161902 0.042937
0.004637 0.162110 0.042937
0.007443 0.161316 0.042937
0.008294 0.161444 0.042937
0.011063 0.160346 0.042937
0.011864 0.160405 0.042937
0.014561 0.159003 0.042937
0.015308 0.159004 0.042937
0.017900 0.157302 0.042937
0.018590 0.157257 0.042937
0.021042 0.155261 0.042937
0.021674 0.155181 0.042937
0.023955 0.152903 0.042937
0.024529 0.152800 0.042937
0.026604 0.150253 0.042937
0.027124 0.150137 0.042937
0.028962 0.147341 0.042937
0.029431 0.147222 0.042937
0.031003 0.144198 0.042937
0.031427 0.144085 0.042937
0.032704 0.140859 0.042937
0.033089 0.140759 0.042937
0.034047 0.137361 0.042937
0.034400 0.137280 0.042937
0.035017 0.133741 0.042937
0.035347 0.133685 0.042937
0.035603 0.130040 0.042937
0.035919 0.130011 0.042937
0.035799 0.126298 0.042937
0.036111 0.126298 0.042937
0.035603 0.122556 0.042937
0.035919 0.122585 0.042937
0.035017 0.118855 0.042937
0.035347 0.118912 0.042937
0.034047 0.115236 0.042937
0.034400 0.115317 0.042937
0.032704 0.111737 0.042937
0.033089 0.111838 0.042937
0.031003 0.108399 0.042937
0.031427 0.108512 0.042937
0.028962 0.105256 0.042937
0.029431 0.105375 0.042937
0.026604 0.102344 0.042937
0.027124 0.102460 0.042937
0.023955 0.099694 0.042937
0.024529 0.099797 0.042937
0.021042 0.097336 0.042937
0.021674 0.097415 0.042937
0.017900 0.095295 0.042937
0.018590 0.095340 0.042937
0.014561 0.093594 0.042937
0.015308 0.093593 0.042937
0.011063 0.092251 0.042937
-0.035774 0.124906 0.045603
-0.035800 0.126298 0.045537
-0.035779 0.127555 0.045603
-0.007737 0.091341 0.045617
-0.007771 0.091239 0.045864
-0.005152 0.090867 0.045619
-0.005152 0.090867 0.045619
-0.007771 0.091239 0.045864
-0.005191 0.090766 0.045864
-0.005152 0.090867 0.045619
-0.005191 0.090766 0.045864
-0.002545 0.090586 0.045615
-0.002545 0.090586 0.045615
-0.005191 0.090766 0.045864
-0.002573 0.090504 0.045827
-0.002545 0.090586 0.045615
-0.002573 0.090504 0.045827
0.000070 0.090495 0.045617
0.000070 0.090495 0.045617
-0.002573 0.090504 0.045827
0.000052 0.090433 0.045789
0.000070 0.090495 0.045617
0.000052 0.090433 0.045789
0.002665 0.090595 0.045615
0.002665 0.090595 0.045615
0.000052 0.090433 0.045789
0.002659 0.090487 0.045864
0.002665 0.090595 0.045615
0.002659 0.090487 0.045864
0.005279 0.090882 0.045659
0.010401 0.092038 0.045623
0.007863 0.091366 0.045655
0.010384 0.091947 0.045827
0.010401 0.092038 0.045623
0.010384 0.091947 0.045827
0.012829 0.092872 0.045618
0.012829 0.092872 0.045618
0.010384 0.091947 0.045827
0.012861 0.092818 0.045789
0.012829 0.092872 0.045618
0.012861 0.092818 0.045789
0.015263 0.093905 0.045661
0.017580 0.095108 0.045618
0.015263 0.093905 0.045661
0.017608 0.095002 0.045864
0.017580 0.095108 0.045618
0.017608 0.095002 0.045864
0.019801 0.096468 0.045622
0.019801 0.096468 0.045622
0.017608 0.095002 0.045864
0.019833 0.096415 0.045789
0.019801 0.096468 0.045622
0.019833 0.096415 0.045789
0.021936 0.098002 0.045615
0.021961 0.097943 0.045789
0.021936 0.098002 0.045615
0.021961 0.097943 0.045789
0.023930 0.099667 0.045617
0.023972 0.099621 0.045789
0.023930 0.099667 0.045617
0.023972 0.099621 0.045789
0.025811 0.101486 0.045615
0.025811 0.101486 0.045615
0.023972 0.099621 0.045789
0.025878 0.101401 0.045864
0.025811 0.101486 0.045615
0.025878 0.101401 0.045864
0.027559 0.103442 0.045619
0.027559 0.103442 0.045619
0.025878 0.101401 0.045864
0.027626 0.103357 0.045864
0.027559 0.103442 0.045619
0.027626 0.103357 0.045864
0.029156 0.105519 0.045616
0.029156 0.105519 0.045616
0.027626 0.103357 0.045864
0.029227 0.105434 0.045864
0.029156 0.105519 0.045616
0.029227 0.105434 0.045864
0.030592 0.107696 0.045621
0.030592 0.107696 0.045621
0.029227 0.105434 0.045864
0.030657 0.107644 0.045827
0.030592 0.107696 0.045621
0.030657 0.107644 0.045827
0.031873 0.109989 0.045615
0.031873 0.109989 0.045615
0.030657 0.107644 0.045827
0.031921 0.109945 0.045789
0.031873 0.109989 0.045615
0.031921 0.109945 0.045789
0.032986 0.112369 0.045654
0.034654 0.117294 0.045623
0.033907 0.114787 0.045658
0.034713 0.117277 0.045789
0.034654 0.117294 0.045623
0.034713 0.117277 0.045789
0.035220 0.119862 0.045615
0.035220 0.119862 0.045615
0.034713 0.117277 0.045789
0.035298 0.119826 0.045827
0.035220 0.119862 0.045615
0.035298 0.119826 0.045827
0.035594 0.122432 0.045617
0.035594 0.122432 0.045617
0.035298 0.119826 0.045827
0.035656 0.122427 0.045789
0.035594 0.122432 0.045617
0.035656 0.122427 0.045789
0.035787 0.125060 0.045659
0.034624 0.135413 0.045619
0.035204 0.132841 0.045656
0.034733 0.135418 0.045864
0.034624 0.135413 0.045619
0.034733 0.135418 0.045864
0.033862 0.137927 0.045617
0.033862 0.137927 0.045617
0.034733 0.135418 0.045864
0.033974 0.137929 0.045864
0.033862 0.137927 0.045617
0.033974 0.137929 0.045864
0.032921 0.140373 0.045620
0.032921 0.140373 0.045620
0.033974 0.137929 0.045864
0.032988 0.140373 0.045789
0.032921 0.140373 0.045620
0.032988 0.140373 0.045789
0.031818 0.142717 0.045623
0.031873 0.142744 0.045789
0.031818 0.142717 0.045623
0.031873 0.142744 0.045789
0.030523 0.145013 0.045617
0.030587 0.145027 0.045789
0.030523 0.145013 0.045617
0.030587 0.145027 0.045789
0.029086 0.147175 0.045616
0.029086 0.147175 0.045616
0.030587 0.145027 0.045789
0.029159 0.147218 0.045827
0.029086 0.147175 0.045616
0.029159 0.147218 0.045827
0.027479 0.149257 0.045659
0.025727 0.151198 0.045615
0.027479 0.149257 0.045659
0.025825 0.151250 0.045864
0.025727 0.151198 0.045615
0.025825 0.151250 0.045864
0.023844 0.153006 0.045616
0.023844 0.153006 0.045616
0.025825 0.151250 0.045864
0.023895 0.153045 0.045789
0.023844 0.153006 0.045616
0.023895 0.153045 0.045789
0.021854 0.154663 0.045656
0.019704 0.156192 0.045619
0.021854 0.154663 0.045656
0.019746 0.156239 0.045789
0.019704 0.156192 0.045619
0.019746 0.156239 0.045789
0.017446 0.157568 0.045656
0.010244 0.160605 0.045617
0.012738 0.159766 0.045663
0.010309 0.160697 0.045864
0.010244 0.160605 0.045617
0.010309 0.160697 0.045864
0.007731 0.161257 0.045616
0.007731 0.161257 0.045616
0.010309 0.160697 0.045864
0.007747 0.161317 0.045789
0.007731 0.161257 0.045616
0.007747 0.161317 0.045789
0.005167 0.161730 0.045654
-0.002659 0.162003 0.045617
-0.000076 0.162105 0.045655
-0.002667 0.162086 0.045827
-0.002659 0.162003 0.045617
-0.002667 0.162086 0.045827
-0.005273 0.161711 0.045619
-0.005273 0.161711 0.045619
-0.002667 0.162086 0.045827
-0.005274 0.161774 0.045789
-0.005273 0.161711 0.045619
-0.005274 0.161774 0.045789
-0.007849 0.161230 0.045616
-0.007849 0.161230 0.045616
-0.005274 0.161774 0.045789
-0.007845 0.161341 0.045864
-0.007849 0.161230 0.045616
-0.007845 0.161341 0.045864
-0.010401 0.160559 0.045623
-0.010401 0.160559 0.045623
-0.007845 0.161341 0.045864
-0.010383 0.160628 0.045789
-0.010401 0.160559 0.045623
-0.010383 0.160628 0.045789
-0.012846 0.159724 0.045663
-0.017580 0.157489 0.045618
-0.015282 0.158681 0.045656
-0.017605 0.157570 0.045827
-0.017580 0.157489 0.045618
-0.017605 0.157570 0.045827
-0.019808 0.156130 0.045662
-0.023930 0.152930 0.045617
-0.021950 0.154588 0.045654
-0.023973 0.152975 0.045789
-0.023930 0.152930 0.045617
-0.023973 0.152975 0.045789
-0.025811 0.151111 0.045615
-0.025856 0.151154 0.045789
-0.025811 0.151111 0.045615
-0.025856 0.151154 0.045789
-0.027566 0.149153 0.045659
-0.030588 0.144905 0.045615
-0.029174 0.147060 0.045656
-0.030672 0.144973 0.045864
-0.030588 0.144905 0.045615
-0.030672 0.144973 0.045864
-0.031870 0.142615 0.045618
-0.031870 0.142615 0.045618
-0.030672 0.144973 0.045864
-0.031921 0.142651 0.045789
-0.031870 0.142615 0.045618
-0.031921 0.142651 0.045789
-0.032977 0.140239 0.045616
-0.033029 0.140278 0.045789
-0.032977 0.140239 0.045616
-0.033029 0.140278 0.045789
-0.033907 0.137810 0.045658
-0.035221 0.132728 0.045617
-0.034660 0.135298 0.045662
-0.035279 0.132762 0.045789
-0.035221 0.132728 0.045617
-0.035279 0.132762 0.045789
-0.035594 0.130159 0.045616
-0.035594 0.130159 0.045616
-0.035279 0.132762 0.045789
-0.035699 0.130188 0.045864
-0.035594 0.130159 0.045616
-0.035699 0.130188 0.045864
-0.035779 0.127555 0.045603
-0.035779 0.127555 0.045603
-0.035699 0.130188 0.045864
-0.035864 0.127562 0.045827
-0.035779 0.127555 0.045603
-0.035864 0.127562 0.045827
-0.035774 0.124906 0.045603
-0.035774 0.124906 0.045603
-0.035864 0.127562 0.045827
-0.035840 0.124936 0.045789
-0.035774 0.124906 0.045603
-0.035840 0.124936 0.045789
-0.035581 0.122312 0.045617
-0.035581 0.122312 0.045617
-0.035840 0.124936 0.045789
-0.035645 0.122324 0.045789
-0.035581 0.122312 0.045617
-0.035645 0.122324 0.045789
-0.035198 0.119744 0.045615
-0.035198 0.119744 0.045615
-0.035645 0.122324 0.045789
-0.035306 0.119739 0.045864
-0.035198 0.119744 0.045615
-0.035306 0.119739 0.045864
-0.034624 0.117183 0.045618
-0.034624 0.117183 0.045618
-0.035306 0.119739 0.045864
-0.034733 0.117179 0.045864
-0.034624 0.117183 0.045618
-0.034733 0.117179 0.045864
-0.033864 0.114675 0.045616
-0.033864 0.114675 0.045616
-0.034733 0.117179 0.045864
-0.033974 0.114668 0.045864
-0.033864 0.114675 0.045616
-0.033974 0.114668 0.045864
-0.032924 0.112229 0.045621
-0.032924 0.112229 0.045621
-0.033974 0.114668 0.045864
-0.033035 0.112219 0.045864
-0.032924 0.112229 0.045621
-0.033035 0.112219 0.045864
-0.031818 0.109879 0.045623
-0.031818 0.109879 0.045623
-0.033035 0.112219 0.045864
-0.031919 0.109845 0.045864
-0.031818 0.109879 0.045623
-0.031919 0.109845 0.045864
-0.030526 0.107589 0.045615
-0.030526 0.107589 0.045615
-0.031919 0.109845 0.045864
-0.030588 0.107570 0.045789
-0.030526 0.107589 0.045615
-0.030588 0.107570 0.045789
-0.029090 0.105426 0.045617
-0.029090 0.105426 0.045617
-0.030588 0.107570 0.045789
-0.029183 0.105373 0.045865
-0.029090 0.105426 0.045617
-0.029183 0.105373 0.045865
-0.027481 0.103348 0.045619
-0.027481 0.103348 0.045619
-0.029183 0.105373 0.045865
-0.027578 0.103299 0.045864
-0.027481 0.103348 0.045619
-0.027578 0.103299 0.045864
-0.025727 0.101399 0.045615
-0.025727 0.101399 0.045615
-0.027578 0.103299 0.045864
-0.025825 0.101347 0.045864
-0.025727 0.101399 0.045615
-0.025825 0.101347 0.045864
-0.023840 0.099586 0.045617
-0.023840 0.099586 0.045617
-0.025825 0.101347 0.045864
-0.023895 0.099552 0.045789
-0.023840 0.099586 0.045617
-0.023895 0.099552 0.045789
-0.021840 0.097929 0.045615
-0.021840 0.097929 0.045615
-0.023895 0.099552 0.045789
-0.021896 0.097865 0.045827
-0.021840 0.097929 0.045615
-0.021896 0.097865 0.045827
-0.019705 0.096405 0.045619
-0.019705 0.096405 0.045619
-0.021896 0.097865 0.045827
-0.019746 0.096358 0.045789
-0.019705 0.096405 0.045619
-0.019746 0.096358 0.045789
-0.017460 0.095041 0.045617
-0.017460 0.095041 0.045617
-0.019746 0.096358 0.045789
-0.017542 0.094965 0.045864
-0.017460 0.095041 0.045617
-0.017542 0.094965 0.045864
-0.015119 0.093843 0.045621
-0.015119 0.093843 0.045621
-0.017542 0.094965 0.045864
-0.015176 0.093802 0.045789
-0.015119 0.093843 0.045621
-0.015176 0.093802 0.045789
-0.012738 0.092831 0.045663
-0.010250 0.091994 0.045615
-0.012738 0.092831 0.045663
-0.010310 0.091900 0.045864
-0.010250 0.091994 0.045615
-0.010310 0.091900 0.045864
-0.007737 0.091341 0.045617
-0.007737 0.091341 0.045617
-0.010310 0.091900 0.045864
-0.007771 0.091239 0.045864
0.005279 0.090882 0.045659
0.002659 0.090487 0.045864
0.005280 0.090773 0.045860
0.005279 0.090882 0.045659
0.005280 0.090773 0.045860
0.007863 0.091366 0.045655
0.007859 0.091253 0.045860
0.007863 0.091366 0.045655
0.007859 0.091253 0.045860
0.010384 0.091947 0.045827
0.015263 0.093905 0.045661
0.012861 0.092818 0.045789
0.015295 0.093772 0.045894
0.015263 0.093905 0.045661
0.015295 0.093772 0.045894
0.017608 0.095002 0.045864
0.032986 0.112369 0.045654
0.031921 0.109945 0.045789
0.033096 0.112280 0.045894
0.032986 0.112369 0.045654
0.033096 0.112280 0.045894
0.033907 0.114787 0.045658
0.033907 0.114787 0.045658
0.033096 0.112280 0.045894
0.034008 0.114750 0.045860
0.033907 0.114787 0.045658
0.034008 0.114750 0.045860
0.034713 0.117277 0.045789
0.035787 0.125060 0.045659
0.035656 0.122427 0.045789
0.035893 0.125037 0.045860
0.035787 0.125060 0.045659
0.035893 0.125037 0.045860
0.035779 0.127691 0.045654
0.035890 0.127661 0.045860
0.035779 0.127691 0.045654
0.035890 0.127661 0.045860
0.035583 0.130292 0.045655
0.035583 0.130292 0.045655
0.035890 0.127661 0.045860
0.035694 0.130277 0.045860
0.035583 0.130292 0.045655
0.035694 0.130277 0.045860
0.035204 0.132841 0.045656
0.035204 0.132841 0.045656
0.035694 0.130277 0.045860
0.035309 0.132872 0.045860
0.035204 0.132841 0.045656
0.035309 0.132872 0.045860
0.034733 0.135418 0.045864
0.027479 0.149257 0.045659
